(G-CODE GENERATED BY FLATCAM v8.994 - www.flatcam.org - Version Date: 2020/11/7)

(Name: LUCES-B_Cu.gbr_ncc_cnc)
(Type: G-code from Geometry)
(Units: MM)

(Created on Tuesday, 10 August 2021 at 19:29)

(This preprocessor is the default preprocessor used by FlatCAM.)
(It is made to work with MACH3 compatible motion controllers.)

(TOOL DIAMETER: 0.154 mm)
(Feedrate_XY: 120.0 mm/min)
(Feedrate_Z: 25.0 mm/min)
(Feedrate rapids 1500.0 mm/min)

(Z_Cut: -0.1 mm)
(Z_Move: 1.0 mm)
(Z Start: None mm)
(Z End: 15.0 mm)
(X,Y End: None mm)
(Steps per circle: 64)
(Preprocessor Geometry: default)

(X range:  -22.7878 ...   23.8057  mm)
(Y range:  -33.3631 ...   33.3612  mm)

(Spindle Speed: 1000.0 RPM)
G21
G90
G94

G01 F120.00

M5
G00 Z15.0000
G00 X0.0000 Y0.0000
T1
M6    
(MSG, Change to Tool Dia = 0.1540)
M0
G00 Z15.0000

M03 S1000.0
G01 F120.00
G00 X-6.7497 Y-2.4023
G01 F25.00
G01 Z-0.1000
G01 F120.00
G01 X-6.7497 Y-2.2061
G01 X-6.7350 Y-2.2148
G01 X-6.7250 Y-2.2201
G01 X-6.6693 Y-2.2463
G01 X-6.6591 Y-2.2503
G01 X-6.6115 Y-2.2673
G01 X-6.5935 Y-2.2727
G01 X-6.6034 Y-2.2769
G01 X-6.6195 Y-2.2845
G01 X-6.6348 Y-2.2926
G01 X-6.6576 Y-2.3068
G01 X-6.6812 Y-2.3245
G01 X-6.7033 Y-2.3445
G01 X-6.7218 Y-2.3645
G01 X-6.7295 Y-2.3738
G01 X-6.7397 Y-2.3875
G01 X-6.7497 Y-2.4023
G00 Z1.0000
G00 X-7.5887 Y-11.2940
G01 F25.00
G01 Z-0.1000
G01 F120.00
G01 X-7.6019 Y-11.3038
G01 X-7.6083 Y-11.3090
G01 X-7.6497 Y-11.3466
G01 X-7.6562 Y-11.3534
G01 X-7.6919 Y-11.3928
G01 X-7.6978 Y-11.4002
G01 X-7.7306 Y-11.4446
G01 X-7.7619 Y-11.4966
G01 X-7.7663 Y-11.5050
G01 X-7.7897 Y-11.5549
G01 X-7.8109 Y-11.6139
G01 X-7.8262 Y-11.6747
G01 X-7.8352 Y-11.7348
G01 X-7.8360 Y-11.7442
G01 X-7.8386 Y-11.7992
G01 X-7.8356 Y-11.8618
G01 X-7.8265 Y-11.9238
G01 X-7.8113 Y-11.9847
G01 X-7.7903 Y-12.0437
G01 X-7.7635 Y-12.1004
G01 X-7.7314 Y-12.1542
G01 X-7.6953 Y-12.2031
G01 X-7.6892 Y-12.2103
G01 X-7.6521 Y-12.2510
G01 X-7.6057 Y-12.2932
G01 X-7.5554 Y-12.3306
G01 X-7.5017 Y-12.3628
G01 X-7.4451 Y-12.3897
G01 X-7.3861 Y-12.4109
G01 X-7.3253 Y-12.4262
G01 X-7.2633 Y-12.4354
G01 X-7.2008 Y-12.4386
G01 X-7.1382 Y-12.4356
G01 X-7.0762 Y-12.4265
G01 X-7.0153 Y-12.4113
G01 X-6.9563 Y-12.3903
G01 X-6.8996 Y-12.3635
G01 X-6.8458 Y-12.3314
G01 X-6.7969 Y-12.2953
G01 X-6.7897 Y-12.2892
G01 X-6.7490 Y-12.2521
G01 X-6.7059 Y-12.2045
G01 X-6.6686 Y-12.1542
G01 X-6.6398 Y-12.1063
G01 X-6.6337 Y-12.0950
G01 X-6.6124 Y-12.0499
G01 X-6.6076 Y-12.0380
G01 X-6.5891 Y-11.9861
G01 X-6.5752 Y-11.9312
G01 X-6.5726 Y-11.9186
G01 X-6.5646 Y-11.8633
G01 X-6.5614 Y-11.7992
G01 X-6.5646 Y-11.7367
G01 X-6.5726 Y-11.6814
G01 X-6.5752 Y-11.6688
G01 X-6.5891 Y-11.6139
G01 X-6.6076 Y-11.5620
G01 X-6.6124 Y-11.5501
G01 X-6.6349 Y-11.5027
G01 X-6.6402 Y-11.4930
G01 X-6.6686 Y-11.4458
G01 X-6.7022 Y-11.4002
G01 X-6.7081 Y-11.3928
G01 X-6.7438 Y-11.3534
G01 X-6.7503 Y-11.3466
G01 X-6.7917 Y-11.3090
G01 X-6.7981 Y-11.3038
G01 X-6.8113 Y-11.2940
G01 X-6.8113 Y-2.0883
G01 X-6.8004 Y-2.0974
G01 X-6.7554 Y-2.1306
G01 X-6.7063 Y-2.1602
G01 X-6.6950 Y-2.1663
G01 X-6.6437 Y-2.1903
G01 X-6.5911 Y-2.2092
G01 X-6.5796 Y-2.2127
G01 X-6.5312 Y-2.2248
G01 X-6.5179 Y-2.2275
G01 X-6.4633 Y-2.2354
G01 X-6.4068 Y-2.2384
G01 X-6.3940 Y-2.2385
G01 X-6.3367 Y-2.2354
G01 X-6.2762 Y-2.2265
G01 X-6.2212 Y-2.2129
G01 X-6.2082 Y-2.2090
G01 X-6.1613 Y-2.1922
G01 X-6.1501 Y-2.1876
G01 X-6.0996 Y-2.1635
G01 X-6.0510 Y-2.1346
G01 X-6.0403 Y-2.1275
G01 X-5.9943 Y-2.0932
G01 X-5.9490 Y-2.0521
G01 X-5.9108 Y-2.0103
G01 X-5.9026 Y-2.0004
G01 X-5.8686 Y-1.9542
G01 X-5.8372 Y-1.9017
G01 X-5.8128 Y-1.8506
G01 X-5.8078 Y-1.8387
G01 X-5.7891 Y-1.7861
G01 X-5.7750 Y-1.7305
G01 X-5.7725 Y-1.7179
G01 X-5.7644 Y-1.6618
G01 X-5.7615 Y-1.6060
G01 X-5.7615 Y-1.5940
G01 X-5.7644 Y-1.5382
G01 X-5.7735 Y-1.4762
G01 X-5.7887 Y-1.4153
G01 X-5.8076 Y-1.3620
G01 X-5.8124 Y-1.3501
G01 X-5.8337 Y-1.3050
G01 X-5.8402 Y-1.2930
G01 X-5.8694 Y-1.2446
G01 X-5.9026 Y-1.1996
G01 X-5.9103 Y-1.1903
G01 X-5.9490 Y-1.1479
G01 X-5.9955 Y-1.1059
G01 X-6.0458 Y-1.0686
G01 X-6.0996 Y-1.0365
G01 X-6.1563 Y-1.0097
G01 X-6.2139 Y-0.9891
G01 X-6.2747 Y-0.9738
G01 X-6.3348 Y-0.9648
G01 X-6.3442 Y-0.9640
G01 X-6.3992 Y-0.9614
G01 X-6.4633 Y-0.9646
G01 X-6.5253 Y-0.9738
G01 X-6.5796 Y-0.9873
G01 X-6.5918 Y-0.9910
G01 X-6.6451 Y-1.0103
G01 X-6.6956 Y-1.0341
G01 X-6.7070 Y-1.0402
G01 X-6.7490 Y-1.0654
G01 X-6.7570 Y-1.0705
G01 X-6.8045 Y-1.1059
G01 X-6.8486 Y-1.1455
G01 X-6.8557 Y-1.1528
G01 X-6.8910 Y-1.1917
G01 X-6.8962 Y-1.1981
G01 X-6.9060 Y-1.2113
G01 X-7.0068 Y-1.2114
G01 X-7.0389 Y-1.2132
G01 X-7.0766 Y-1.2189
G01 X-7.1136 Y-1.2282
G01 X-7.1495 Y-1.2412
G01 X-7.1826 Y-1.2568
G01 X-7.2153 Y-1.2764
G01 X-7.2460 Y-1.2990
G01 X-7.2749 Y-1.3251
G01 X-7.4767 Y-1.5270
G01 X-7.5000 Y-1.5528
G01 X-7.5208 Y-1.5806
G01 X-7.5255 Y-1.5875
G01 X-7.5395 Y-1.6108
G01 X-7.5456 Y-1.6222
G01 X-7.5594 Y-1.6519
G01 X-7.5712 Y-1.6846
G01 X-7.5798 Y-1.7175
G01 X-7.5823 Y-1.7301
G01 X-7.5868 Y-1.7611
G01 X-7.5886 Y-1.7932
G01 X-7.5887 Y-11.2940
G01 X-7.5271 Y-11.3250
G01 X-7.5660 Y-11.3540
G01 X-7.6053 Y-11.3894
G01 X-7.6106 Y-11.3947
G01 X-7.6460 Y-11.4340
G01 X-7.6776 Y-11.4763
G01 X-7.6818 Y-11.4826
G01 X-7.7089 Y-11.5280
G01 X-7.7315 Y-11.5757
G01 X-7.7344 Y-11.5827
G01 X-7.7522 Y-11.6325
G01 X-7.7651 Y-11.6837
G01 X-7.7666 Y-11.6912
G01 X-7.7742 Y-11.7434
G01 X-7.7769 Y-11.7962
G01 X-7.7769 Y-11.8038
G01 X-7.7744 Y-11.8547
G01 X-7.7659 Y-11.9126
G01 X-7.7532 Y-11.9639
G01 X-7.7510 Y-11.9711
G01 X-7.7331 Y-12.0208
G01 X-7.7106 Y-12.0686
G01 X-7.7070 Y-12.0753
G01 X-7.6798 Y-12.1206
G01 X-7.6484 Y-12.1631
G01 X-7.6436 Y-12.1689
G01 X-7.6080 Y-12.2080
G01 X-7.5689 Y-12.2436
G01 X-7.5631 Y-12.2484
G01 X-7.5206 Y-12.2798
G01 X-7.4753 Y-12.3070
G01 X-7.4686 Y-12.3106
G01 X-7.4208 Y-12.3331
G01 X-7.3711 Y-12.3510
G01 X-7.3639 Y-12.3532
G01 X-7.3126 Y-12.3659
G01 X-7.2603 Y-12.3738
G01 X-7.2528 Y-12.3745
G01 X-7.2000 Y-12.3770
G01 X-7.1472 Y-12.3745
G01 X-7.1397 Y-12.3738
G01 X-7.0874 Y-12.3659
G01 X-7.0361 Y-12.3532
G01 X-7.0289 Y-12.3510
G01 X-6.9792 Y-12.3331
G01 X-6.9314 Y-12.3106
G01 X-6.9247 Y-12.3070
G01 X-6.8794 Y-12.2798
G01 X-6.8340 Y-12.2460
G01 X-6.7947 Y-12.2106
G01 X-6.7894 Y-12.2053
G01 X-6.7540 Y-12.1660
G01 X-6.7224 Y-12.1237
G01 X-6.7182 Y-12.1174
G01 X-6.6911 Y-12.0720
G01 X-6.6685 Y-12.0243
G01 X-6.6656 Y-12.0173
G01 X-6.6478 Y-11.9675
G01 X-6.6349 Y-11.9163
G01 X-6.6334 Y-11.9088
G01 X-6.6258 Y-11.8566
G01 X-6.6230 Y-11.8000
G01 X-6.6255 Y-11.7472
G01 X-6.6262 Y-11.7397
G01 X-6.6341 Y-11.6874
G01 X-6.6468 Y-11.6361
G01 X-6.6490 Y-11.6289
G01 X-6.6669 Y-11.5792
G01 X-6.6911 Y-11.5280
G01 X-6.7202 Y-11.4794
G01 X-6.7516 Y-11.4369
G01 X-6.7564 Y-11.4311
G01 X-6.7894 Y-11.3947
G01 X-6.7947 Y-11.3894
G01 X-6.8340 Y-11.3540
G01 X-6.8729 Y-11.3250
G01 X-6.8729 Y-1.9355
G01 X-6.8705 Y-1.9332
G01 X-6.8460 Y-1.9660
G01 X-6.8066 Y-2.0093
G01 X-6.7660 Y-2.0460
G01 X-6.7221 Y-2.0787
G01 X-6.6753 Y-2.1070
G01 X-6.6686 Y-2.1106
G01 X-6.6208 Y-2.1331
G01 X-6.5693 Y-2.1516
G01 X-6.5163 Y-2.1651
G01 X-6.5088 Y-2.1666
G01 X-6.4566 Y-2.1742
G01 X-6.4000 Y-2.1770
G01 X-6.3472 Y-2.1745
G01 X-6.3397 Y-2.1738
G01 X-6.2874 Y-2.1659
G01 X-6.2325 Y-2.1522
G01 X-6.1827 Y-2.1344
G01 X-6.1757 Y-2.1315
G01 X-6.1280 Y-2.1089
G01 X-6.0794 Y-2.0798
G01 X-6.0340 Y-2.0460
G01 X-5.9947 Y-2.0106
G01 X-5.9894 Y-2.0053
G01 X-5.9564 Y-1.9689
G01 X-5.9516 Y-1.9631
G01 X-5.9202 Y-1.9206
G01 X-5.8911 Y-1.8720
G01 X-5.8669 Y-1.8208
G01 X-5.8490 Y-1.7711
G01 X-5.8468 Y-1.7639
G01 X-5.8349 Y-1.7163
G01 X-5.8334 Y-1.7088
G01 X-5.8258 Y-1.6566
G01 X-5.8231 Y-1.6038
G01 X-5.8231 Y-1.5962
G01 X-5.8258 Y-1.5434
G01 X-5.8341 Y-1.4874
G01 X-5.8478 Y-1.4325
G01 X-5.8656 Y-1.3827
G01 X-5.8685 Y-1.3757
G01 X-5.8894 Y-1.3314
G01 X-5.8930 Y-1.3247
G01 X-5.9202 Y-1.2794
G01 X-5.9516 Y-1.2369
G01 X-5.9564 Y-1.2311
G01 X-5.9920 Y-1.1920
G01 X-6.0340 Y-1.1540
G01 X-6.0794 Y-1.1202
G01 X-6.1280 Y-1.0911
G01 X-6.1792 Y-1.0669
G01 X-6.2325 Y-1.0478
G01 X-6.2874 Y-1.0341
G01 X-6.3416 Y-1.0260
G01 X-6.4000 Y-1.0230
G01 X-6.4528 Y-1.0255
G01 X-6.4603 Y-1.0262
G01 X-6.5088 Y-1.0334
G01 X-6.5163 Y-1.0349
G01 X-6.5675 Y-1.0478
G01 X-6.6173 Y-1.0656
G01 X-6.6243 Y-1.0685
G01 X-6.6686 Y-1.0894
G01 X-6.6753 Y-1.0930
G01 X-6.7206 Y-1.1202
G01 X-6.7660 Y-1.1540
G01 X-6.8053 Y-1.1894
G01 X-6.8106 Y-1.1947
G01 X-6.8460 Y-1.2340
G01 X-6.8750 Y-1.2729
G01 X-7.0019 Y-1.2729
G01 X-7.0321 Y-1.2745
G01 X-7.0620 Y-1.2788
G01 X-7.0950 Y-1.2870
G01 X-7.1252 Y-1.2978
G01 X-7.1542 Y-1.3115
G01 X-7.1802 Y-1.3270
G01 X-7.2075 Y-1.3471
G01 X-7.2300 Y-1.3674
G01 X-7.4313 Y-1.5687
G01 X-7.4541 Y-1.5939
G01 X-7.4720 Y-1.6183
G01 X-7.4866 Y-1.6425
G01 X-7.4902 Y-1.6492
G01 X-7.5022 Y-1.6748
G01 X-7.5119 Y-1.7015
G01 X-7.5140 Y-1.7087
G01 X-7.5208 Y-1.7362
G01 X-7.5253 Y-1.7661
G01 X-7.5271 Y-1.8000
G01 X-7.5271 Y-11.3250
G00 Z1.0000
G00 X-6.4887 Y-11.8701
G01 F25.00
G01 Z-0.1000
G01 F120.00
G01 X-6.5160 Y-12.0075
G01 X-6.5696 Y-12.1369
G01 X-6.6475 Y-12.2535
G01 X-6.7465 Y-12.3525
G01 X-6.8631 Y-12.4304
G01 X-6.9925 Y-12.4840
G01 X-7.1299 Y-12.5113
G01 X-7.2701 Y-12.5113
G01 X-7.4075 Y-12.4840
G01 X-7.5369 Y-12.4304
G01 X-7.6535 Y-12.3525
G01 X-7.7525 Y-12.2535
G01 X-7.8304 Y-12.1369
G01 X-7.8840 Y-12.0075
G01 X-7.9113 Y-11.8701
G01 X-7.9113 Y-11.7299
G01 X-7.8840 Y-11.5925
G01 X-7.8304 Y-11.4631
G01 X-7.7525 Y-11.3465
G01 X-7.7363 Y-11.3302
G01 X-7.7200 Y-11.3118
G01 X-7.7057 Y-11.2923
G01 X-7.6931 Y-11.2712
G01 X-7.6813 Y-11.2463
G01 X-7.6740 Y-11.2264
G01 X-7.6711 Y-11.2166
G01 X-7.6666 Y-11.1979
G01 X-7.6634 Y-11.1781
G01 X-7.6623 Y-11.1672
G01 X-7.6614 Y-11.1495
G01 X-7.6613 Y-1.8357
G01 X-7.6623 Y-1.8138
G01 X-7.6636 Y-1.8000
G01 X-7.6547 Y-1.7096
G01 X-7.6283 Y-1.6226
G01 X-7.5854 Y-1.5425
G01 X-7.5278 Y-1.4722
G01 X-7.5171 Y-1.4634
G01 X-7.5015 Y-1.4491
G01 X-7.3515 Y-1.2990
G01 X-7.3366 Y-1.2829
G01 X-7.3278 Y-1.2722
G01 X-7.2575 Y-1.2146
G01 X-7.1774 Y-1.1717
G01 X-7.0904 Y-1.1453
G01 X-7.0281 Y-1.1392
G01 X-7.0057 Y-1.1358
G01 X-6.9789 Y-1.1291
G01 X-6.9590 Y-1.1220
G01 X-6.9496 Y-1.1181
G01 X-6.9292 Y-1.1081
G01 X-6.9070 Y-1.0945
G01 X-6.8915 Y-1.0830
G01 X-6.8851 Y-1.0777
G01 X-6.8708 Y-1.0648
G01 X-6.8535 Y-1.0475
G01 X-6.7369 Y-0.9696
G01 X-6.6075 Y-0.9160
G01 X-6.4701 Y-0.8887
G01 X-6.3299 Y-0.8887
G01 X-6.1925 Y-0.9160
G01 X-6.0631 Y-0.9696
G01 X-5.9465 Y-1.0475
G01 X-5.8475 Y-1.1465
G01 X-5.7696 Y-1.2631
G01 X-5.7160 Y-1.3925
G01 X-5.6887 Y-1.5299
G01 X-5.6887 Y-1.6701
G01 X-5.7160 Y-1.8075
G01 X-5.7696 Y-1.9369
G01 X-5.8475 Y-2.0535
G01 X-5.9465 Y-2.1525
G01 X-6.0631 Y-2.2304
G01 X-6.1925 Y-2.2840
G01 X-6.3299 Y-2.3113
G01 X-6.4738 Y-2.3113
G01 X-6.4949 Y-2.3123
G01 X-6.5058 Y-2.3134
G01 X-6.5274 Y-2.3170
G01 X-6.5508 Y-2.3230
G01 X-6.5740 Y-2.3313
G01 X-6.5959 Y-2.3415
G01 X-6.6042 Y-2.3461
G01 X-6.6212 Y-2.3565
G01 X-6.6383 Y-2.3691
G01 X-6.6467 Y-2.3761
G01 X-6.6614 Y-2.3897
G01 X-6.6757 Y-2.4053
G01 X-6.6821 Y-2.4132
G01 X-6.6943 Y-2.4300
G01 X-6.7053 Y-2.4481
G01 X-6.7100 Y-2.4572
G01 X-6.7181 Y-2.4746
G01 X-6.7253 Y-2.4941
G01 X-6.7284 Y-2.5039
G01 X-6.7334 Y-2.5244
G01 X-6.7367 Y-2.5450
G01 X-6.7377 Y-2.5551
G01 X-6.7387 Y-2.5770
G01 X-6.7386 Y-11.1495
G01 X-6.7371 Y-11.1740
G01 X-6.7343 Y-11.1931
G01 X-6.7321 Y-11.2038
G01 X-6.7270 Y-11.2232
G01 X-6.7209 Y-11.2406
G01 X-6.7168 Y-11.2508
G01 X-6.7092 Y-11.2669
G01 X-6.7053 Y-11.2742
G01 X-6.6953 Y-11.2907
G01 X-6.6809 Y-11.3106
G01 X-6.6757 Y-11.3170
G01 X-6.6637 Y-11.3302
G01 X-6.6475 Y-11.3465
G01 X-6.5696 Y-11.4631
G01 X-6.5160 Y-11.5925
G01 X-6.4887 Y-11.7299
G01 X-6.4887 Y-11.8701
G01 X-6.4271 Y-11.8761
G01 X-6.4568 Y-12.0255
G01 X-6.5150 Y-12.1661
G01 X-6.5996 Y-12.2927
G01 X-6.7073 Y-12.4004
G01 X-6.8339 Y-12.4850
G01 X-6.9745 Y-12.5432
G01 X-7.1239 Y-12.5729
G01 X-7.2761 Y-12.5729
G01 X-7.4255 Y-12.5432
G01 X-7.5661 Y-12.4850
G01 X-7.6927 Y-12.4004
G01 X-7.8004 Y-12.2927
G01 X-7.8850 Y-12.1661
G01 X-7.9432 Y-12.0255
G01 X-7.9729 Y-11.8761
G01 X-7.9729 Y-11.7239
G01 X-7.9432 Y-11.5745
G01 X-7.8850 Y-11.4339
G01 X-7.8004 Y-11.3073
G01 X-7.7814 Y-11.2883
G01 X-7.7693 Y-11.2748
G01 X-7.7573 Y-11.2587
G01 X-7.7479 Y-11.2432
G01 X-7.7385 Y-11.2234
G01 X-7.7329 Y-11.2081
G01 X-7.7307 Y-11.2009
G01 X-7.7269 Y-11.1851
G01 X-7.7244 Y-11.1691
G01 X-7.7238 Y-11.1634
G01 X-7.7230 Y-11.1472
G01 X-7.7229 Y-1.8357
G01 X-7.7238 Y-1.8176
G01 X-7.7255 Y-1.8000
G01 X-7.7154 Y-1.6975
G01 X-7.6855 Y-1.5989
G01 X-7.6369 Y-1.5081
G01 X-7.5716 Y-1.4284
G01 X-7.5579 Y-1.4172
G01 X-7.5445 Y-1.4050
G01 X-7.3950 Y-1.2555
G01 X-7.3828 Y-1.2421
G01 X-7.3716 Y-1.2284
G01 X-7.2919 Y-1.1631
G01 X-7.2011 Y-1.1145
G01 X-7.1025 Y-1.0846
G01 X-7.0368 Y-1.0782
G01 X-7.0188 Y-1.0756
G01 X-6.9975 Y-1.0703
G01 X-6.9822 Y-1.0650
G01 X-6.9752 Y-1.0621
G01 X-6.9589 Y-1.0541
G01 X-6.9418 Y-1.0437
G01 X-6.9288 Y-1.0340
G01 X-6.9244 Y-1.0303
G01 X-6.9138 Y-1.0207
G01 X-6.8927 Y-0.9996
G01 X-6.7661 Y-0.9150
G01 X-6.6255 Y-0.8568
G01 X-6.4761 Y-0.8271
G01 X-6.3239 Y-0.8271
G01 X-6.1745 Y-0.8568
G01 X-6.0339 Y-0.9150
G01 X-5.9073 Y-0.9996
G01 X-5.7996 Y-1.1073
G01 X-5.7150 Y-1.2339
G01 X-5.6568 Y-1.3745
G01 X-5.6271 Y-1.5239
G01 X-5.6271 Y-1.6761
G01 X-5.6568 Y-1.8255
G01 X-5.7150 Y-1.9661
G01 X-5.7996 Y-2.0927
G01 X-5.9073 Y-2.2004
G01 X-6.0339 Y-2.2850
G01 X-6.1745 Y-2.3432
G01 X-6.3239 Y-2.3729
G01 X-6.4730 Y-2.3729
G01 X-6.4911 Y-2.3738
G01 X-6.5110 Y-2.3765
G01 X-6.5286 Y-2.3807
G01 X-6.5476 Y-2.3871
G01 X-6.5545 Y-2.3900
G01 X-6.5692 Y-2.3970
G01 X-6.5832 Y-2.4053
G01 X-6.5895 Y-2.4095
G01 X-6.6025 Y-2.4193
G01 X-6.6146 Y-2.4301
G01 X-6.6199 Y-2.4354
G01 X-6.6307 Y-2.4475
G01 X-6.6416 Y-2.4621
G01 X-6.6530 Y-2.4808
G01 X-6.6600 Y-2.4955
G01 X-6.6629 Y-2.5024
G01 X-6.6683 Y-2.5178
G01 X-6.6728 Y-2.5353
G01 X-6.6762 Y-2.5589
G01 X-6.6771 Y-2.5770
G01 X-6.6770 Y-11.1472
G01 X-6.6759 Y-11.1672
G01 X-6.6735 Y-11.1833
G01 X-6.6723 Y-11.1888
G01 X-6.6683 Y-11.2046
G01 X-6.6629 Y-11.2199
G01 X-6.6608 Y-11.2251
G01 X-6.6538 Y-11.2398
G01 X-6.6427 Y-11.2587
G01 X-6.6307 Y-11.2748
G01 X-6.6186 Y-11.2883
G01 X-6.5996 Y-11.3073
G01 X-6.5150 Y-11.4339
G01 X-6.4568 Y-11.5745
G01 X-6.4271 Y-11.7239
G01 X-6.4271 Y-11.8761
G00 Z1.0000
G00 X-15.6038 Y-14.5497
G01 F25.00
G01 Z-0.1000
G01 F120.00
G01 X-15.6135 Y-14.5497
G01 X-15.6394 Y-14.5238
G01 X-15.6317 Y-14.5300
G01 X-15.6181 Y-14.5401
G01 X-15.6038 Y-14.5497
G01 X-15.6799 Y-14.4833
G01 X-15.7025 Y-14.4606
G01 X-15.7022 Y-14.4534
G01 X-15.6881 Y-14.4729
G01 X-15.6799 Y-14.4833
G00 Z1.0000
G00 X-16.2954 Y-14.9672
G01 F25.00
G01 Z-0.1000
G01 F120.00
G01 X-16.0300 Y-15.2326
G01 X-16.0075 Y-15.2529
G01 X-15.9848 Y-15.2698
G01 X-15.9785 Y-15.2740
G01 X-15.9575 Y-15.2866
G01 X-15.9508 Y-15.2902
G01 X-15.9252 Y-15.3022
G01 X-15.8950 Y-15.3130
G01 X-15.8675 Y-15.3200
G01 X-15.8601 Y-15.3215
G01 X-15.8321 Y-15.3255
G01 X-15.8019 Y-15.3271
G01 X8.6000 Y-15.3271
G01 X8.6321 Y-15.3255
G01 X8.6638 Y-15.3208
G01 X8.6913 Y-15.3140
G01 X8.6985 Y-15.3119
G01 X8.7217 Y-15.3036
G01 X8.7286 Y-15.3007
G01 X8.7542 Y-15.2885
G01 X8.7817 Y-15.2720
G01 X8.8075 Y-15.2529
G01 X8.8300 Y-15.2326
G01 X11.1855 Y-12.8771
G01 X12.9586 Y-12.8771
G01 X12.9693 Y-12.9065
G01 X13.0066 Y-12.9853
G01 X13.0532 Y-13.0634
G01 X13.1084 Y-13.1381
G01 X13.1682 Y-13.2041
G01 X13.2369 Y-13.2666
G01 X13.3100 Y-13.3208
G01 X13.3880 Y-13.3675
G01 X13.4685 Y-13.4057
G01 X13.5559 Y-13.4371
G01 X13.6405 Y-13.4584
G01 X13.6479 Y-13.4598
G01 X13.7360 Y-13.4727
G01 X13.8231 Y-13.4770
G01 X14.0769 Y-13.4770
G01 X14.1659 Y-13.4725
G01 X14.2558 Y-13.4592
G01 X14.3441 Y-13.4371
G01 X14.4262 Y-13.4078
G01 X14.4332 Y-13.4049
G01 X14.5120 Y-13.3675
G01 X14.5868 Y-13.3228
G01 X14.5931 Y-13.3186
G01 X14.6631 Y-13.2666
G01 X14.7305 Y-13.2055
G01 X14.7891 Y-13.1409
G01 X14.7939 Y-13.1351
G01 X14.8458 Y-13.0650
G01 X14.8907 Y-12.9903
G01 X14.8942 Y-12.9836
G01 X14.9299 Y-12.9082
G01 X14.9328 Y-12.9012
G01 X14.9621 Y-12.8191
G01 X14.9842 Y-12.7308
G01 X14.9975 Y-12.6409
G01 X15.0019 Y-12.5538
G01 X15.0019 Y-12.5462
G01 X14.9975 Y-12.4591
G01 X14.9848 Y-12.3729
G01 X14.9834 Y-12.3655
G01 X14.9631 Y-12.2845
G01 X14.9609 Y-12.2773
G01 X14.9314 Y-12.1953
G01 X14.8925 Y-12.1130
G01 X14.8458 Y-12.0350
G01 X14.7939 Y-11.9649
G01 X14.7891 Y-11.9591
G01 X14.7331 Y-11.8972
G01 X14.7278 Y-11.8919
G01 X14.6631 Y-11.8334
G01 X14.5900 Y-11.7792
G01 X14.5120 Y-11.7325
G01 X14.4332 Y-11.6951
G01 X14.4262 Y-11.6922
G01 X14.3477 Y-11.6641
G01 X14.3405 Y-11.6619
G01 X14.2558 Y-11.6408
G01 X14.1677 Y-11.6277
G01 X14.0769 Y-11.6230
G01 X13.8231 Y-11.6230
G01 X13.7341 Y-11.6275
G01 X13.6479 Y-11.6402
G01 X13.6405 Y-11.6416
G01 X13.5559 Y-11.6629
G01 X13.4703 Y-11.6936
G01 X13.3914 Y-11.7308
G01 X13.3847 Y-11.7343
G01 X13.3084 Y-11.7803
G01 X13.2369 Y-11.8334
G01 X13.1722 Y-11.8919
G01 X13.1669 Y-11.8972
G01 X13.1072 Y-11.9634
G01 X13.0542 Y-12.0350
G01 X13.0084 Y-12.1114
G01 X12.9693 Y-12.1935
G01 X12.9586 Y-12.2229
G01 X11.0500 Y-12.2229
G01 X11.0179 Y-12.2245
G01 X10.9862 Y-12.2292
G01 X10.9550 Y-12.2370
G01 X10.9266 Y-12.2471
G01 X10.8958 Y-12.2615
G01 X10.8683 Y-12.2780
G01 X10.8425 Y-12.2971
G01 X10.8187 Y-12.3187
G01 X8.4645 Y-14.6729
G01 X-15.6645 Y-14.6729
G01 X-15.8328 Y-14.5046
G01 X-15.8258 Y-14.4566
G01 X-15.8231 Y-14.4038
G01 X-15.8231 Y-14.3962
G01 X-15.8255 Y-14.3472
G01 X-15.8262 Y-14.3397
G01 X-15.8341 Y-14.2874
G01 X-15.8468 Y-14.2361
G01 X-15.8490 Y-14.2289
G01 X-15.8669 Y-14.1792
G01 X-15.8911 Y-14.1280
G01 X-15.9202 Y-14.0794
G01 X-15.9552 Y-14.0325
G01 X-15.9920 Y-13.9920
G01 X-16.0311 Y-13.9564
G01 X-16.0369 Y-13.9516
G01 X-16.0763 Y-13.9224
G01 X-16.0826 Y-13.9182
G01 X-16.1280 Y-13.8911
G01 X-16.1757 Y-13.8685
G01 X-16.1827 Y-13.8656
G01 X-16.2325 Y-13.8478
G01 X-16.2874 Y-13.8341
G01 X-16.3434 Y-13.8258
G01 X-16.4000 Y-13.8230
G01 X-16.4566 Y-13.8258
G01 X-16.5126 Y-13.8341
G01 X-16.5675 Y-13.8478
G01 X-16.6208 Y-13.8669
G01 X-16.6720 Y-13.8911
G01 X-16.7206 Y-13.9202
G01 X-16.7660 Y-13.9540
G01 X-16.8080 Y-13.9920
G01 X-16.8460 Y-14.0340
G01 X-16.8798 Y-14.0794
G01 X-16.9089 Y-14.1280
G01 X-16.9331 Y-14.1792
G01 X-16.9522 Y-14.2325
G01 X-16.9659 Y-14.2874
G01 X-16.9742 Y-14.3434
G01 X-16.9769 Y-14.3962
G01 X-16.9769 Y-14.4038
G01 X-16.9742 Y-14.4566
G01 X-16.9659 Y-14.5126
G01 X-16.9522 Y-14.5675
G01 X-16.9344 Y-14.6173
G01 X-16.9315 Y-14.6243
G01 X-16.9106 Y-14.6686
G01 X-16.9070 Y-14.6753
G01 X-16.8798 Y-14.7206
G01 X-16.8484 Y-14.7631
G01 X-16.8436 Y-14.7689
G01 X-16.8080 Y-14.8080
G01 X-16.7675 Y-14.8448
G01 X-16.7206 Y-14.8798
G01 X-16.6720 Y-14.9089
G01 X-16.6208 Y-14.9331
G01 X-16.5711 Y-14.9510
G01 X-16.5639 Y-14.9532
G01 X-16.5126 Y-14.9659
G01 X-16.4603 Y-14.9738
G01 X-16.4528 Y-14.9745
G01 X-16.4038 Y-14.9769
G01 X-16.3962 Y-14.9769
G01 X-16.3434 Y-14.9742
G01 X-16.2954 Y-14.9672
G01 X-16.3171 Y-15.0327
G01 X-16.0749 Y-15.2749
G01 X-16.0486 Y-15.2988
G01 X-16.0412 Y-15.3047
G01 X-16.0166 Y-15.3228
G01 X-15.9892 Y-15.3395
G01 X-15.9772 Y-15.3459
G01 X-15.9526 Y-15.3575
G01 X-15.9431 Y-15.3613
G01 X-15.9121 Y-15.3722
G01 X-15.8751 Y-15.3814
G01 X-15.8389 Y-15.3868
G01 X-15.8060 Y-15.3886
G01 X8.6000 Y-15.3887
G01 X8.6355 Y-15.3871
G01 X8.6449 Y-15.3860
G01 X8.6751 Y-15.3814
G01 X8.7063 Y-15.3738
G01 X8.7193 Y-15.3699
G01 X8.7449 Y-15.3607
G01 X8.7543 Y-15.3567
G01 X8.7839 Y-15.3425
G01 X8.8166 Y-15.3228
G01 X8.8460 Y-15.3010
G01 X8.8719 Y-15.2778
G01 X11.2110 Y-12.9387
G01 X12.9164 Y-12.9387
G01 X12.9535 Y-13.0167
G01 X13.0034 Y-13.0999
G01 X13.0613 Y-13.1777
G01 X13.1265 Y-13.2496
G01 X13.1984 Y-13.3147
G01 X13.2751 Y-13.3716
G01 X13.3583 Y-13.4215
G01 X13.4405 Y-13.4606
G01 X13.4523 Y-13.4655
G01 X13.5316 Y-13.4939
G01 X13.5446 Y-13.4978
G01 X13.6329 Y-13.5197
G01 X13.7273 Y-13.5338
G01 X13.8224 Y-13.5386
G01 X14.0750 Y-13.5386
G01 X14.1651 Y-13.5343
G01 X14.1760 Y-13.5334
G01 X14.2686 Y-13.5195
G01 X14.3627 Y-13.4958
G01 X14.4540 Y-13.4631
G01 X14.5417 Y-13.4215
G01 X14.6249 Y-13.3716
G01 X14.7027 Y-13.3137
G01 X14.7746 Y-13.2485
G01 X14.8397 Y-13.1766
G01 X14.8974 Y-13.0986
G01 X14.9472 Y-13.0154
G01 X14.9881 Y-12.9290
G01 X15.0208 Y-12.8377
G01 X15.0445 Y-12.7436
G01 X15.0588 Y-12.6477
G01 X15.0636 Y-12.5508
G01 X15.0591 Y-12.4557
G01 X15.0580 Y-12.4463
G01 X15.0447 Y-12.3579
G01 X15.0228 Y-12.2696
G01 X15.0191 Y-12.2573
G01 X14.9908 Y-12.1780
G01 X14.9856 Y-12.1655
G01 X14.9465 Y-12.0833
G01 X14.8966 Y-12.0001
G01 X14.8387 Y-11.9223
G01 X14.7735 Y-11.8504
G01 X14.7016 Y-11.7853
G01 X14.6249 Y-11.7284
G01 X14.5417 Y-11.6785
G01 X14.4595 Y-11.6394
G01 X14.4477 Y-11.6345
G01 X14.3684 Y-11.6061
G01 X14.3554 Y-11.6022
G01 X14.2671 Y-11.5803
G01 X14.1787 Y-11.5670
G01 X14.1678 Y-11.5658
G01 X14.0776 Y-11.5614
G01 X13.8250 Y-11.5614
G01 X13.7349 Y-11.5657
G01 X13.7221 Y-11.5669
G01 X13.6314 Y-11.5805
G01 X13.5387 Y-11.6038
G01 X13.4474 Y-11.6364
G01 X13.3651 Y-11.6751
G01 X13.3537 Y-11.6811
G01 X13.2815 Y-11.7244
G01 X13.2702 Y-11.7319
G01 X13.1973 Y-11.7863
G01 X13.1309 Y-11.8463
G01 X13.1218 Y-11.8553
G01 X13.0603 Y-11.9234
G01 X13.0034 Y-12.0001
G01 X12.9535 Y-12.0833
G01 X12.9164 Y-12.1613
G01 X11.0492 Y-12.1613
G01 X11.0127 Y-12.1631
G01 X10.9809 Y-12.1676
G01 X10.9683 Y-12.1701
G01 X10.9346 Y-12.1788
G01 X10.9051 Y-12.1893
G01 X10.8950 Y-12.1936
G01 X10.8674 Y-12.2068
G01 X10.8398 Y-12.2231
G01 X10.8306 Y-12.2292
G01 X10.8055 Y-12.2479
G01 X10.7988 Y-12.2535
G01 X10.7770 Y-12.2733
G01 X8.4390 Y-14.6113
G01 X-15.6390 Y-14.6113
G01 X-15.7673 Y-14.4829
G01 X-15.7649 Y-14.4667
G01 X-15.7641 Y-14.4585
G01 X-15.7614 Y-14.4026
G01 X-15.7616 Y-14.3932
G01 X-15.7642 Y-14.3400
G01 X-15.7653 Y-14.3307
G01 X-15.7735 Y-14.2762
G01 X-15.7887 Y-14.2153
G01 X-15.8103 Y-14.1549
G01 X-15.8372 Y-14.0983
G01 X-15.8694 Y-14.0446
G01 X-15.9026 Y-13.9996
G01 X-15.9108 Y-13.9897
G01 X-15.9443 Y-13.9528
G01 X-15.9534 Y-13.9438
G01 X-15.9955 Y-13.9059
G01 X-16.0397 Y-13.8729
G01 X-16.0503 Y-13.8658
G01 X-16.0983 Y-13.8372
G01 X-16.1501 Y-13.8124
G01 X-16.1613 Y-13.8078
G01 X-16.2139 Y-13.7891
G01 X-16.2747 Y-13.7738
G01 X-16.3382 Y-13.7644
G01 X-16.3932 Y-13.7616
G01 X-16.4042 Y-13.7615
G01 X-16.4633 Y-13.7646
G01 X-16.5253 Y-13.7738
G01 X-16.5861 Y-13.7891
G01 X-16.6451 Y-13.8103
G01 X-16.7017 Y-13.8372
G01 X-16.7554 Y-13.8694
G01 X-16.8057 Y-13.9068
G01 X-16.8472 Y-13.9443
G01 X-16.8562 Y-13.9534
G01 X-16.8897 Y-13.9903
G01 X-16.8978 Y-14.0002
G01 X-16.9306 Y-14.0446
G01 X-16.9598 Y-14.0930
G01 X-16.9659 Y-14.1044
G01 X-16.9897 Y-14.1549
G01 X-17.0090 Y-14.2082
G01 X-17.0127 Y-14.2204
G01 X-17.0262 Y-14.2747
G01 X-17.0354 Y-14.3367
G01 X-17.0386 Y-14.3992
G01 X-17.0359 Y-14.4585
G01 X-17.0347 Y-14.4693
G01 X-17.0265 Y-14.5238
G01 X-17.0113 Y-14.5847
G01 X-16.9903 Y-14.6437
G01 X-16.9635 Y-14.7004
G01 X-16.9306 Y-14.7554
G01 X-16.8932 Y-14.8057
G01 X-16.8510 Y-14.8521
G01 X-16.8103 Y-14.8892
G01 X-16.8031 Y-14.8953
G01 X-16.7542 Y-14.9314
G01 X-16.7004 Y-14.9635
G01 X-16.6950 Y-14.9663
G01 X-16.6506 Y-14.9872
G01 X-16.6437 Y-14.9903
G01 X-16.5918 Y-15.0090
G01 X-16.5828 Y-15.0118
G01 X-16.5238 Y-15.0265
G01 X-16.4693 Y-15.0347
G01 X-16.4600 Y-15.0358
G01 X-16.4068 Y-15.0384
G01 X-16.3974 Y-15.0386
G01 X-16.3415 Y-15.0359
G01 X-16.3333 Y-15.0351
G01 X-16.3171 Y-15.0327
G01 X-17.0265 Y-14.9340
G01 X-16.9919 Y-14.9721
G01 X-16.9817 Y-14.9828
G01 X-16.9715 Y-14.9925
G01 X-16.9320 Y-15.0283
G01 X-16.9451 Y-15.0415
G01 X-16.9633 Y-15.0617
G01 X-16.9739 Y-15.0747
G01 X-16.9880 Y-15.0937
G01 X-16.9986 Y-15.1095
G01 X-17.0023 Y-15.1154
G01 X-17.0024 Y-15.1157
G01 X-17.0088 Y-15.1263
G01 X-17.0090 Y-15.1267
G01 X-17.0114 Y-15.1307
G01 X-17.0192 Y-15.1450
G01 X-17.0265 Y-15.1601
G01 X-17.0265 Y-14.9340
G01 X-17.0881 Y-14.7255
G01 X-17.0758 Y-14.7514
G01 X-17.0697 Y-14.7631
G01 X-17.0365 Y-14.8185
G01 X-17.0260 Y-14.8337
G01 X-16.9958 Y-14.8745
G01 X-16.9860 Y-14.8868
G01 X-16.9447 Y-14.9324
G01 X-16.9298 Y-14.9472
G01 X-16.9295 Y-14.9474
G01 X-16.9294 Y-14.9475
G01 X-16.8930 Y-14.9805
G01 X-16.8924 Y-14.9810
G01 X-16.8827 Y-14.9894
G01 X-16.8322 Y-15.0271
G01 X-16.8447 Y-15.0357
G01 X-16.8646 Y-15.0507
G01 X-16.8752 Y-15.0598
G01 X-16.8930 Y-15.0762
G01 X-16.9028 Y-15.0864
G01 X-16.9192 Y-15.1049
G01 X-16.9275 Y-15.1155
G01 X-16.9416 Y-15.1349
G01 X-16.9493 Y-15.1468
G01 X-16.9618 Y-15.1682
G01 X-16.9680 Y-15.1805
G01 X-16.9782 Y-15.2027
G01 X-16.9832 Y-15.2155
G01 X-16.9832 Y-15.2157
G01 X-16.9874 Y-15.2274
G01 X-16.9882 Y-15.2296
G01 X-16.9913 Y-15.2389
G01 X-16.9949 Y-15.2518
G01 X-17.0005 Y-15.2755
G01 X-17.0881 Y-15.1880
G01 X-17.0881 Y-14.7255
G01 X-16.9385 Y-15.4246
G01 X-17.1497 Y-15.2135
G01 X-17.1497 Y-13.7157
G01 X-17.1415 Y-13.7281
G01 X-17.1255 Y-13.7492
G01 X-17.1089 Y-13.7678
G01 X-17.0981 Y-13.7784
G01 X-17.0800 Y-13.7945
G01 X-17.0601 Y-13.8095
G01 X-17.0468 Y-13.8182
G01 X-17.0243 Y-13.8312
G01 X-17.0034 Y-13.8411
G01 X-16.9891 Y-13.8469
G01 X-16.9665 Y-13.8546
G01 X-16.9402 Y-13.8613
G01 X-16.9145 Y-13.8656
G01 X-16.8994 Y-13.8672
G01 X-16.8745 Y-13.8683
G01 X-16.8543 Y-13.8676
G01 X-16.8956 Y-13.9054
G01 X-16.9348 Y-13.9484
G01 X-16.9453 Y-13.9608
G01 X-16.9774 Y-14.0042
G01 X-16.9869 Y-14.0183
G01 X-17.0172 Y-14.0693
G01 X-17.0429 Y-14.1231
G01 X-17.0482 Y-14.1352
G01 X-17.0675 Y-14.1888
G01 X-17.0726 Y-14.2058
G01 X-17.0869 Y-14.2641
G01 X-17.0958 Y-14.3227
G01 X-17.0975 Y-14.3400
G01 X-17.1002 Y-14.3992
G01 X-17.0975 Y-14.4600
G01 X-17.0958 Y-14.4769
G01 X-17.0879 Y-14.5303
G01 X-17.0846 Y-14.5462
G01 X-17.0698 Y-14.6040
G01 X-17.0499 Y-14.6602
G01 X-17.0434 Y-14.6759
G01 X-17.0179 Y-14.7294
G01 X-16.9873 Y-14.7810
G01 X-16.9785 Y-14.7943
G01 X-16.9417 Y-14.8436
G01 X-16.9019 Y-14.8880
G01 X-16.8891 Y-14.9009
G01 X-16.8468 Y-14.9391
G01 X-16.8374 Y-14.9466
G01 X-16.8365 Y-14.9473
G01 X-16.7970 Y-14.9765
G01 X-16.7843 Y-14.9853
G01 X-16.7314 Y-15.0168
G01 X-16.6952 Y-15.0343
G01 X-16.7089 Y-15.0378
G01 X-16.7198 Y-15.0411
G01 X-16.7386 Y-15.0478
G01 X-16.7498 Y-15.0524
G01 X-16.7679 Y-15.0610
G01 X-16.7766 Y-15.0655
G01 X-16.7958 Y-15.0769
G01 X-16.8058 Y-15.0836
G01 X-16.8219 Y-15.0955
G01 X-16.8296 Y-15.1017
G01 X-16.8448 Y-15.1153
G01 X-16.8537 Y-15.1241
G01 X-16.8669 Y-15.1386
G01 X-16.8745 Y-15.1475
G01 X-16.8878 Y-15.1654
G01 X-16.8950 Y-15.1761
G01 X-16.9049 Y-15.1926
G01 X-16.9096 Y-15.2013
G01 X-16.9184 Y-15.2197
G01 X-16.9230 Y-15.2304
G01 X-16.9330 Y-15.2590
G01 X-16.9385 Y-15.2802
G01 X-16.9411 Y-15.2927
G01 X-16.9441 Y-15.3122
G01 X-16.9453 Y-15.3238
G01 X-16.9464 Y-15.3442
G01 X-16.9466 Y-15.3567
G01 X-16.9456 Y-15.3782
G01 X-16.9446 Y-15.3887
G01 X-16.9414 Y-15.4108
G01 X-16.9385 Y-15.4246
G00 Z1.0000
G00 X-17.0881 Y-13.8650
G01 F25.00
G01 Z-0.1000
G01 F120.00
G01 X-17.0600 Y-13.8820
G01 X-17.0496 Y-13.8874
G01 X-17.0336 Y-13.8951
G01 X-17.0148 Y-13.9031
G01 X-16.9859 Y-13.9131
G01 X-16.9958 Y-13.9255
G01 X-17.0260 Y-13.9663
G01 X-17.0365 Y-13.9815
G01 X-17.0697 Y-14.0369
G01 X-17.0758 Y-14.0486
G01 X-17.0881 Y-14.0745
G01 X-17.0881 Y-13.8650
G00 Z1.0000
G00 X-17.9887 Y-10.3060
G01 F25.00
G01 Z-0.1000
G01 F120.00
G01 X-17.9887 Y-15.4000
G01 X-17.9873 Y-15.4321
G01 X-17.9860 Y-15.4449
G01 X-17.9811 Y-15.4766
G01 X-17.9727 Y-15.5103
G01 X-17.9699 Y-15.5193
G01 X-17.9588 Y-15.5495
G01 X-17.9456 Y-15.5778
G01 X-17.9395 Y-15.5892
G01 X-17.9228 Y-15.6166
G01 X-17.9042 Y-15.6418
G01 X-17.8965 Y-15.6512
G01 X-17.8749 Y-15.6749
G01 X-16.0743 Y-17.4754
G01 X-16.0460 Y-17.5010
G01 X-16.0153 Y-17.5236
G01 X-15.9826 Y-17.5432
G01 X-15.9550 Y-17.5564
G01 X-15.9463 Y-17.5601
G01 X-15.9121 Y-17.5722
G01 X-15.8751 Y-17.5814
G01 X-15.8373 Y-17.5869
G01 X-15.8000 Y-17.5887
G01 X-5.7610 Y-17.5887
G01 X-3.2730 Y-20.0767
G01 X-3.2460 Y-20.1010
G01 X-3.2166 Y-20.1228
G01 X-3.1839 Y-20.1425
G01 X-3.1550 Y-20.1564
G01 X-3.1424 Y-20.1616
G01 X-3.1168 Y-20.1707
G01 X-3.1070 Y-20.1736
G01 X-3.0751 Y-20.1814
G01 X-3.0373 Y-20.1869
G01 X-3.0000 Y-20.1887
G01 X11.0390 Y-20.1887
G01 X12.5864 Y-21.7361
G01 X12.5864 Y-22.9000
G01 X12.5883 Y-22.9388
G01 X12.5940 Y-22.9766
G01 X12.6034 Y-23.0135
G01 X12.6163 Y-23.0494
G01 X12.6326 Y-23.0838
G01 X12.6523 Y-23.1165
G01 X12.6751 Y-23.1471
G01 X12.7008 Y-23.1753
G01 X12.7239 Y-23.1965
G01 X12.7317 Y-23.2030
G01 X12.7597 Y-23.2235
G01 X12.7882 Y-23.2407
G01 X12.7955 Y-23.2446
G01 X12.8201 Y-23.2563
G01 X12.8326 Y-23.2615
G01 X12.8629 Y-23.2721
G01 X12.8999 Y-23.2813
G01 X12.9362 Y-23.2867
G01 X12.9682 Y-23.2884
G01 X14.4250 Y-23.2886
G01 X14.4605 Y-23.2870
G01 X14.4949 Y-23.2822
G01 X14.5074 Y-23.2796
G01 X14.5385 Y-23.2716
G01 X14.5730 Y-23.2593
G01 X14.6028 Y-23.2454
G01 X14.6135 Y-23.2397
G01 X14.6403 Y-23.2235
G01 X14.6662 Y-23.2046
G01 X14.6761 Y-23.1965
G01 X14.7003 Y-23.1742
G01 X14.7215 Y-23.1511
G01 X14.7296 Y-23.1412
G01 X14.7485 Y-23.1153
G01 X14.7647 Y-23.0885
G01 X14.7708 Y-23.0771
G01 X14.7850 Y-23.0463
G01 X14.7971 Y-23.0121
G01 X14.8063 Y-22.9751
G01 X14.8117 Y-22.9388
G01 X14.8136 Y-22.9026
G01 X14.8136 Y-21.7000
G01 X14.8122 Y-21.6687
G01 X14.8113 Y-21.6578
G01 X14.8073 Y-21.6309
G01 X14.8046 Y-21.6176
G01 X14.7961 Y-21.5847
G01 X14.7862 Y-21.5569
G01 X14.7824 Y-21.5475
G01 X14.7674 Y-21.5162
G01 X14.7477 Y-21.4835
G01 X14.7259 Y-21.4541
G01 X14.7016 Y-21.4271
G01 X14.6949 Y-21.4205
G01 X14.6721 Y-21.4001
G01 X14.6415 Y-21.3773
G01 X14.6088 Y-21.3576
G01 X14.5799 Y-21.3437
G01 X14.5698 Y-21.3394
G01 X14.5443 Y-21.3303
G01 X14.5312 Y-21.3263
G01 X14.5001 Y-21.3187
G01 X14.4698 Y-21.3141
G01 X14.4605 Y-21.3130
G01 X14.4250 Y-21.3114
G01 X13.2611 Y-21.3114
G01 X11.4730 Y-19.5233
G01 X11.4472 Y-19.5000
G01 X11.4215 Y-19.4807
G01 X11.4109 Y-19.4735
G01 X11.3826 Y-19.4568
G01 X11.3543 Y-19.4433
G01 X11.3424 Y-19.4384
G01 X11.3121 Y-19.4278
G01 X11.2766 Y-19.4189
G01 X11.2389 Y-19.4132
G01 X11.2000 Y-19.4113
G01 X-2.8390 Y-19.4113
G01 X-5.3270 Y-16.9233
G01 X-5.3528 Y-16.9000
G01 X-5.3785 Y-16.8807
G01 X-5.3891 Y-16.8735
G01 X-5.4174 Y-16.8568
G01 X-5.4457 Y-16.8433
G01 X-5.4576 Y-16.8384
G01 X-5.4879 Y-16.8278
G01 X-5.5234 Y-16.8189
G01 X-5.5611 Y-16.8132
G01 X-5.6000 Y-16.8113
G01 X-15.6390 Y-16.8113
G01 X-17.2113 Y-15.2390
G01 X-17.2113 Y-10.3060
G01 X-17.1981 Y-10.2962
G01 X-17.1917 Y-10.2910
G01 X-17.1503 Y-10.2534
G01 X-17.1438 Y-10.2466
G01 X-17.1108 Y-10.2103
G01 X-17.1038 Y-10.2019
G01 X-17.0694 Y-10.1554
G01 X-17.0402 Y-10.1070
G01 X-17.0341 Y-10.0956
G01 X-17.0110 Y-10.0468
G01 X-17.0076 Y-10.0380
G01 X-16.9887 Y-9.9847
G01 X-16.9750 Y-9.9305
G01 X-16.9725 Y-9.9179
G01 X-16.9644 Y-9.8618
G01 X-16.9616 Y-9.8068
G01 X-16.9615 Y-9.7940
G01 X-16.9642 Y-9.7400
G01 X-16.9653 Y-9.7307
G01 X-16.9735 Y-9.6762
G01 X-16.9891 Y-9.6139
G01 X-17.0103 Y-9.5549
G01 X-17.0341 Y-9.5044
G01 X-17.0398 Y-9.4937
G01 X-17.0694 Y-9.4446
G01 X-17.1026 Y-9.3996
G01 X-17.1108 Y-9.3897
G01 X-17.1443 Y-9.3528
G01 X-17.1534 Y-9.3438
G01 X-17.1955 Y-9.3059
G01 X-17.2397 Y-9.2729
G01 X-17.2503 Y-9.2658
G01 X-17.2983 Y-9.2372
G01 X-17.3549 Y-9.2103
G01 X-17.4139 Y-9.1891
G01 X-17.4747 Y-9.1738
G01 X-17.5367 Y-9.1646
G01 X-17.6008 Y-9.1614
G01 X-17.6633 Y-9.1646
G01 X-17.7179 Y-9.1725
G01 X-17.7272 Y-9.1742
G01 X-17.7861 Y-9.1891
G01 X-17.8437 Y-9.2097
G01 X-17.9004 Y-9.2365
G01 X-17.9490 Y-9.2654
G01 X-17.9603 Y-9.2729
G01 X-18.0004 Y-9.3026
G01 X-18.0097 Y-9.3103
G01 X-18.0521 Y-9.3490
G01 X-18.0932 Y-9.3943
G01 X-18.1306 Y-9.4446
G01 X-18.1598 Y-9.4930
G01 X-18.1659 Y-9.5044
G01 X-18.1872 Y-9.5494
G01 X-18.1924 Y-9.5620
G01 X-18.2113 Y-9.6153
G01 X-18.2265 Y-9.6762
G01 X-18.2354 Y-9.7367
G01 X-18.2385 Y-9.7958
G01 X-18.2385 Y-9.8060
G01 X-18.2360 Y-9.8558
G01 X-18.2347 Y-9.8693
G01 X-18.2262 Y-9.9253
G01 X-18.2113 Y-9.9847
G01 X-18.1922 Y-10.0387
G01 X-18.1872 Y-10.0506
G01 X-18.1628 Y-10.1017
G01 X-18.1324 Y-10.1526
G01 X-18.1271 Y-10.1603
G01 X-18.0941 Y-10.2045
G01 X-18.0545 Y-10.2486
G01 X-18.0472 Y-10.2557
G01 X-18.0083 Y-10.2910
G01 X-18.0019 Y-10.2962
G01 X-17.9887 Y-10.3060
G01 X-17.9271 Y-10.2750
G01 X-17.9271 Y-15.4000
G01 X-17.9255 Y-15.4321
G01 X-17.9204 Y-15.4657
G01 X-17.9130 Y-15.4950
G01 X-17.9036 Y-15.5217
G01 X-17.9007 Y-15.5286
G01 X-17.8885 Y-15.5542
G01 X-17.8720 Y-15.5817
G01 X-17.8552 Y-15.6045
G01 X-17.8504 Y-15.6104
G01 X-17.8313 Y-15.6313
G01 X-16.0313 Y-17.4313
G01 X-16.0075 Y-17.4529
G01 X-15.9817 Y-17.4720
G01 X-15.9542 Y-17.4885
G01 X-15.9234 Y-17.5029
G01 X-15.8950 Y-17.5130
G01 X-15.8638 Y-17.5208
G01 X-15.8321 Y-17.5255
G01 X-15.8000 Y-17.5271
G01 X-5.7355 Y-17.5271
G01 X-3.2300 Y-20.0326
G01 X-3.2075 Y-20.0529
G01 X-3.1817 Y-20.0720
G01 X-3.1542 Y-20.0885
G01 X-3.1286 Y-20.1007
G01 X-3.1217 Y-20.1036
G01 X-3.0985 Y-20.1119
G01 X-3.0913 Y-20.1140
G01 X-3.0638 Y-20.1208
G01 X-3.0321 Y-20.1255
G01 X-3.0000 Y-20.1271
G01 X11.0645 Y-20.1271
G01 X12.6480 Y-21.7106
G01 X12.6480 Y-22.9000
G01 X12.6494 Y-22.9302
G01 X12.6543 Y-22.9638
G01 X12.6621 Y-22.9949
G01 X12.6729 Y-23.0251
G01 X12.6866 Y-23.0541
G01 X12.7031 Y-23.0817
G01 X12.7222 Y-23.1074
G01 X12.7438 Y-23.1312
G01 X12.7690 Y-23.1540
G01 X12.7933 Y-23.1719
G01 X12.8176 Y-23.1865
G01 X12.8242 Y-23.1901
G01 X12.8464 Y-23.2006
G01 X12.8534 Y-23.2035
G01 X12.8801 Y-23.2129
G01 X12.9112 Y-23.2207
G01 X12.9429 Y-23.2254
G01 X12.9712 Y-23.2269
G01 X14.4250 Y-23.2270
G01 X14.4571 Y-23.2254
G01 X14.4888 Y-23.2207
G01 X14.5163 Y-23.2139
G01 X14.5235 Y-23.2117
G01 X14.5466 Y-23.2035
G01 X14.5536 Y-23.2006
G01 X14.5791 Y-23.1884
G01 X14.6067 Y-23.1719
G01 X14.6324 Y-23.1528
G01 X14.6535 Y-23.1338
G01 X14.6588 Y-23.1285
G01 X14.6753 Y-23.1103
G01 X14.6801 Y-23.1045
G01 X14.6969 Y-23.0817
G01 X14.7134 Y-23.0541
G01 X14.7271 Y-23.0251
G01 X14.7367 Y-22.9985
G01 X14.7389 Y-22.9913
G01 X14.7461 Y-22.9619
G01 X14.7504 Y-22.9321
G01 X14.7520 Y-22.9000
G01 X14.7520 Y-21.7000
G01 X14.7507 Y-21.6717
G01 X14.7500 Y-21.6642
G01 X14.7457 Y-21.6362
G01 X14.7389 Y-21.6087
G01 X14.7367 Y-21.6015
G01 X14.7285 Y-21.5784
G01 X14.7256 Y-21.5714
G01 X14.7134 Y-21.5459
G01 X14.6969 Y-21.5183
G01 X14.6778 Y-21.4926
G01 X14.6562 Y-21.4688
G01 X14.6324 Y-21.4472
G01 X14.6067 Y-21.4281
G01 X14.5791 Y-21.4116
G01 X14.5536 Y-21.3994
G01 X14.5466 Y-21.3965
G01 X14.5235 Y-21.3883
G01 X14.5163 Y-21.3861
G01 X14.4888 Y-21.3793
G01 X14.4552 Y-21.3744
G01 X14.4250 Y-21.3730
G01 X13.2356 Y-21.3730
G01 X11.4300 Y-19.5674
G01 X11.4075 Y-19.5471
G01 X11.3848 Y-19.5302
G01 X11.3785 Y-19.5260
G01 X11.3542 Y-19.5115
G01 X11.3286 Y-19.4993
G01 X11.3217 Y-19.4964
G01 X11.2950 Y-19.4870
G01 X11.2638 Y-19.4792
G01 X11.2321 Y-19.4745
G01 X11.2000 Y-19.4729
G01 X-2.8645 Y-19.4729
G01 X-5.3700 Y-16.9674
G01 X-5.3925 Y-16.9471
G01 X-5.4152 Y-16.9302
G01 X-5.4215 Y-16.9260
G01 X-5.4458 Y-16.9115
G01 X-5.4714 Y-16.8993
G01 X-5.4783 Y-16.8964
G01 X-5.5050 Y-16.8870
G01 X-5.5362 Y-16.8792
G01 X-5.5679 Y-16.8745
G01 X-5.6000 Y-16.8729
G01 X-15.6645 Y-16.8729
G01 X-17.2729 Y-15.2645
G01 X-17.2729 Y-10.2750
G01 X-17.2340 Y-10.2460
G01 X-17.1947 Y-10.2106
G01 X-17.1894 Y-10.2053
G01 X-17.1564 Y-10.1689
G01 X-17.1516 Y-10.1631
G01 X-17.1202 Y-10.1206
G01 X-17.0911 Y-10.0720
G01 X-17.0685 Y-10.0243
G01 X-17.0656 Y-10.0173
G01 X-17.0478 Y-9.9675
G01 X-17.0349 Y-9.9163
G01 X-17.0334 Y-9.9088
G01 X-17.0258 Y-9.8566
G01 X-17.0230 Y-9.8000
G01 X-17.0255 Y-9.7472
G01 X-17.0262 Y-9.7397
G01 X-17.0341 Y-9.6874
G01 X-17.0468 Y-9.6361
G01 X-17.0490 Y-9.6289
G01 X-17.0669 Y-9.5792
G01 X-17.0911 Y-9.5280
G01 X-17.1202 Y-9.4794
G01 X-17.1516 Y-9.4369
G01 X-17.1564 Y-9.4311
G01 X-17.1920 Y-9.3920
G01 X-17.2311 Y-9.3564
G01 X-17.2369 Y-9.3516
G01 X-17.2794 Y-9.3202
G01 X-17.3280 Y-9.2911
G01 X-17.3792 Y-9.2669
G01 X-17.4325 Y-9.2478
G01 X-17.4874 Y-9.2341
G01 X-17.5434 Y-9.2258
G01 X-17.6000 Y-9.2230
G01 X-17.6566 Y-9.2258
G01 X-17.7126 Y-9.2341
G01 X-17.7675 Y-9.2478
G01 X-17.8208 Y-9.2669
G01 X-17.8720 Y-9.2911
G01 X-17.9206 Y-9.3202
G01 X-17.9660 Y-9.3540
G01 X-18.0080 Y-9.3920
G01 X-18.0460 Y-9.4340
G01 X-18.0798 Y-9.4794
G01 X-18.1089 Y-9.5280
G01 X-18.1331 Y-9.5792
G01 X-18.1522 Y-9.6325
G01 X-18.1659 Y-9.6874
G01 X-18.1742 Y-9.7434
G01 X-18.1770 Y-9.8000
G01 X-18.1742 Y-9.8566
G01 X-18.1659 Y-9.9126
G01 X-18.1522 Y-9.9675
G01 X-18.1331 Y-10.0208
G01 X-18.1089 Y-10.0720
G01 X-18.0798 Y-10.1206
G01 X-18.0460 Y-10.1660
G01 X-18.0080 Y-10.2080
G01 X-17.9660 Y-10.2460
G01 X-17.9271 Y-10.2750
G00 Z1.0000
G00 X-12.3349 Y-29.9751
G01 F25.00
G01 Z-0.1000
G01 F120.00
G01 X-12.3349 Y-29.9006
G01 X-5.0377 Y-29.9751
G01 X-12.3349 Y-29.9751
G01 X-12.3965 Y-30.0367
G01 X-12.3965 Y-29.8384
G01 X0.3965 Y-29.9689
G01 X0.3965 Y-30.0367
G01 X-12.3965 Y-30.0367
G01 X-12.4581 Y-30.0983
G01 X-12.4581 Y-29.7761
G01 X0.4581 Y-29.9079
G01 X0.4581 Y-30.0983
G01 X-12.4581 Y-30.0983
G01 X-12.5197 Y-30.1599
G01 X-12.5197 Y-29.7139
G01 X0.5197 Y-29.8470
G01 X0.5197 Y-30.1599
G01 X-12.5197 Y-30.1599
G01 X-12.5813 Y-30.2215
G01 X-12.5813 Y-29.6517
G01 X0.5813 Y-29.7860
G01 X0.5813 Y-30.2215
G01 X-12.5813 Y-30.2215
G01 X-12.6429 Y-30.2831
G01 X-12.6429 Y-29.5894
G01 X0.6429 Y-29.7250
G01 X0.6429 Y-30.2831
G01 X-12.6429 Y-30.2831
G01 X-12.7045 Y-30.3447
G01 X-12.7045 Y-29.5272
G01 X0.7045 Y-29.6640
G01 X0.7045 Y-30.3447
G01 X-12.7045 Y-30.3447
G01 X-12.7661 Y-30.4063
G01 X-12.7661 Y-29.4650
G01 X0.7661 Y-29.6031
G01 X0.7661 Y-30.4063
G01 X-12.7661 Y-30.4063
G01 X-12.8277 Y-30.4679
G01 X-12.8277 Y-29.4027
G01 X0.8277 Y-29.5421
G01 X0.8277 Y-30.4679
G01 X-12.8277 Y-30.4679
G01 X-12.8893 Y-30.5295
G01 X-12.8893 Y-29.3405
G01 X0.8893 Y-29.4811
G01 X0.8893 Y-30.5295
G01 X-12.8893 Y-30.5295
G01 X-12.9509 Y-30.5911
G01 X-12.9509 Y-29.2783
G01 X0.9509 Y-29.4201
G01 X0.9509 Y-30.5911
G01 X-12.9509 Y-30.5911
G01 X-13.0125 Y-30.6527
G01 X-13.0125 Y-29.2161
G01 X1.0125 Y-29.3592
G01 X1.0125 Y-30.6527
G01 X-13.0125 Y-30.6527
G01 X-13.0741 Y-30.7143
G01 X-13.0741 Y-29.1538
G01 X1.0741 Y-29.2982
G01 X1.0741 Y-30.7143
G01 X-13.0741 Y-30.7143
G01 X-13.1357 Y-30.7759
G01 X-13.1357 Y-29.0916
G01 X1.1357 Y-29.2372
G01 X1.1357 Y-30.7759
G01 X-13.1357 Y-30.7759
G01 X-13.1973 Y-30.8375
G01 X-13.1973 Y-29.0294
G01 X1.1973 Y-29.1762
G01 X1.1973 Y-30.8375
G01 X-13.1973 Y-30.8375
G01 X-13.2589 Y-30.8991
G01 X-13.2589 Y-28.9671
G01 X1.2589 Y-29.1153
G01 X1.2589 Y-30.8991
G01 X-13.2589 Y-30.8991
G01 X-13.3205 Y-30.9607
G01 X-13.3205 Y-28.9049
G01 X1.3205 Y-29.0543
G01 X1.3205 Y-30.9607
G01 X-13.3205 Y-30.9607
G01 X-13.3821 Y-31.0223
G01 X-13.3821 Y-28.8427
G01 X1.3821 Y-28.9933
G01 X1.3821 Y-31.0223
G01 X-13.3821 Y-31.0223
G01 X-13.4437 Y-31.0839
G01 X-13.4437 Y-28.7804
G01 X1.4437 Y-28.9323
G01 X1.4437 Y-31.0839
G01 X-13.4437 Y-31.0839
G01 X-13.5053 Y-31.1455
G01 X-13.5053 Y-28.7182
G01 X1.5053 Y-28.8714
G01 X1.5053 Y-31.1455
G01 X-13.5053 Y-31.1455
G01 X-13.5669 Y-31.2071
G01 X-13.5669 Y-28.6560
G01 X1.5669 Y-28.8104
G01 X1.5669 Y-31.2071
G01 X-13.5669 Y-31.2071
G01 X-13.6285 Y-31.2687
G01 X-13.6285 Y-28.5937
G01 X1.6285 Y-28.7494
G01 X1.6285 Y-31.2687
G01 X-13.6285 Y-31.2687
G01 X-13.6901 Y-31.3303
G01 X-13.6901 Y-28.5315
G01 X1.6901 Y-28.6884
G01 X1.6901 Y-31.3303
G01 X-13.6901 Y-31.3303
G01 X-13.7517 Y-31.3919
G01 X-13.7517 Y-28.4693
G01 X1.7517 Y-28.6275
G01 X1.7517 Y-31.3919
G01 X-13.7517 Y-31.3919
G01 X-13.8133 Y-31.4535
G01 X-13.8133 Y-28.4070
G01 X1.8133 Y-28.5665
G01 X1.8133 Y-31.4535
G01 X-13.8133 Y-31.4535
G01 X-13.8749 Y-31.5151
G01 X-13.8749 Y-28.3448
G01 X1.8749 Y-28.5055
G01 X1.8749 Y-31.5151
G01 X-13.8749 Y-31.5151
G01 X-13.9365 Y-31.5767
G01 X-13.9365 Y-28.2826
G01 X1.9365 Y-28.4445
G01 X1.9365 Y-31.5767
G01 X-13.9365 Y-31.5767
G01 X-13.9981 Y-31.6383
G01 X-13.9981 Y-28.2203
G01 X1.9981 Y-28.3836
G01 X1.9981 Y-31.6383
G01 X-13.9981 Y-31.6383
G01 X-14.0597 Y-31.6999
G01 X-14.0597 Y-28.1581
G01 X2.0597 Y-28.3226
G01 X2.0597 Y-31.6999
G01 X-14.0597 Y-31.6999
G01 X-14.1213 Y-31.7615
G01 X-14.1213 Y-28.0959
G01 X2.1213 Y-28.2616
G01 X2.1213 Y-31.7615
G01 X-14.1213 Y-31.7615
G01 X-14.1829 Y-31.8231
G01 X-14.1829 Y-28.0336
G01 X2.1829 Y-28.2006
G01 X2.1829 Y-31.8231
G01 X-14.1829 Y-31.8231
G01 X-14.2445 Y-31.8847
G01 X-14.2445 Y-27.9714
G01 X2.2445 Y-28.1397
G01 X2.2445 Y-31.8847
G01 X-14.2445 Y-31.8847
G01 X-14.3061 Y-31.9463
G01 X-14.3061 Y-27.9092
G01 X2.3061 Y-28.0787
G01 X2.3061 Y-31.9463
G01 X-14.3061 Y-31.9463
G01 X-14.3677 Y-32.0079
G01 X-14.3677 Y-27.8470
G01 X2.3677 Y-28.0177
G01 X2.3677 Y-32.0079
G01 X-14.3677 Y-32.0079
G01 X-14.4293 Y-32.0695
G01 X-14.4293 Y-27.7847
G01 X2.4293 Y-27.9567
G01 X2.4293 Y-32.0695
G01 X-14.4293 Y-32.0695
G01 X-14.4909 Y-32.1311
G01 X-14.4909 Y-27.7225
G01 X2.4909 Y-27.8958
G01 X2.4909 Y-32.1311
G01 X-14.4909 Y-32.1311
G01 X-14.5525 Y-32.1927
G01 X-14.5525 Y-27.6603
G01 X2.5525 Y-27.8348
G01 X2.5525 Y-32.1927
G01 X-14.5525 Y-32.1927
G01 X-14.6141 Y-32.2543
G01 X-14.6141 Y-27.5980
G01 X2.6141 Y-27.7738
G01 X2.6141 Y-32.2543
G01 X-14.6141 Y-32.2543
G01 X-14.6757 Y-32.3159
G01 X-14.6757 Y-27.5358
G01 X2.6757 Y-27.7129
G01 X2.6757 Y-32.3159
G01 X-14.6757 Y-32.3159
G01 X-14.7373 Y-32.3775
G01 X-14.7373 Y-27.4736
G01 X2.7373 Y-27.6519
G01 X2.7373 Y-32.3775
G01 X-14.7373 Y-32.3775
G01 X-14.7989 Y-32.4391
G01 X-14.7989 Y-27.4113
G01 X2.7989 Y-27.5909
G01 X2.7989 Y-32.4391
G01 X-14.7989 Y-32.4391
G01 X-14.8605 Y-32.5007
G01 X-14.8605 Y-27.3491
G01 X2.8605 Y-27.5299
G01 X2.8605 Y-32.5007
G01 X-14.8605 Y-32.5007
G01 X-14.9221 Y-32.5623
G01 X-14.9221 Y-27.2869
G01 X2.9221 Y-27.4690
G01 X2.9221 Y-32.5623
G01 X-14.9221 Y-32.5623
G01 X-14.9837 Y-32.6239
G01 X-14.9837 Y-27.2246
G01 X2.9837 Y-27.4080
G01 X2.9837 Y-32.6239
G01 X-14.9837 Y-32.6239
G01 X-15.0453 Y-32.6855
G01 X-15.0453 Y-27.1624
G01 X3.0453 Y-27.3470
G01 X3.0453 Y-32.6855
G01 X-15.0453 Y-32.6855
G01 X-15.1069 Y-32.7471
G01 X-15.1069 Y-27.1002
G01 X3.1069 Y-27.2860
G01 X3.1069 Y-32.7471
G01 X-15.1069 Y-32.7471
G01 X-15.1685 Y-32.8087
G01 X-15.1685 Y-27.0379
G01 X3.1685 Y-27.2251
G01 X3.1685 Y-32.8087
G01 X-15.1685 Y-32.8087
G01 X-15.2301 Y-32.8703
G01 X-15.2301 Y-26.9757
G01 X3.2301 Y-27.1641
G01 X3.2301 Y-32.8703
G01 X-15.2301 Y-32.8703
G01 X-15.2917 Y-32.9319
G01 X-15.2917 Y-26.9135
G01 X3.2917 Y-27.1031
G01 X3.2917 Y-32.9319
G01 X-15.2917 Y-32.9319
G01 X-15.3533 Y-32.9935
G01 X-15.3533 Y-26.8512
G01 X3.3533 Y-27.0421
G01 X3.3533 Y-32.9935
G01 X-15.3533 Y-32.9935
G01 X-15.4149 Y-33.0551
G01 X-15.4149 Y-26.7890
G01 X3.4149 Y-26.9812
G01 X3.4149 Y-33.0551
G01 X-15.4149 Y-33.0551
G01 X-15.4765 Y-33.1167
G01 X-15.4765 Y-26.7268
G01 X3.4765 Y-26.9202
G01 X3.4765 Y-33.1167
G01 X-15.4765 Y-33.1167
G01 X-15.5381 Y-33.1783
G01 X-15.5381 Y-26.6645
G01 X3.5381 Y-26.8592
G01 X3.5381 Y-33.1783
G01 X-15.5381 Y-33.1783
G01 X-15.5997 Y-33.2399
G01 X-15.5997 Y-26.6023
G01 X3.5997 Y-26.7982
G01 X3.5997 Y-33.2399
G01 X-15.5997 Y-33.2399
G01 X-15.6613 Y-33.3015
G01 X-15.6613 Y-26.5401
G01 X3.6613 Y-26.7373
G01 X3.6613 Y-33.3015
G01 X-15.6613 Y-33.3015
G01 X-15.7293 Y-33.3631
G01 X-15.7265 Y-33.3510
G01 X-15.7241 Y-33.3349
G01 X-15.7229 Y-33.3130
G01 X-15.7229 Y-26.4779
G01 X3.7229 Y-26.6763
G01 X3.7229 Y-33.3130
G01 X3.7241 Y-33.3349
G01 X3.7265 Y-33.3510
G01 X3.7293 Y-33.3631
G01 X-15.7293 Y-33.3631
G00 Z1.0000
G00 X5.8500 Y-30.4730
G01 F25.00
G01 Z-0.1000
G01 F120.00
G01 X7.5519 Y-30.4730
G01 X7.5594 Y-30.4736
G01 X7.5669 Y-30.4749
G01 X7.5742 Y-30.4769
G01 X7.5812 Y-30.4796
G01 X7.5880 Y-30.4830
G01 X7.5959 Y-30.4882
G01 X7.6017 Y-30.4929
G01 X7.6071 Y-30.4983
G01 X7.6118 Y-30.5041
G01 X7.6160 Y-30.5104
G01 X7.6196 Y-30.5171
G01 X7.6218 Y-30.5223
G01 X7.6242 Y-30.5295
G01 X7.6259 Y-30.5368
G01 X7.6266 Y-30.5425
G01 X7.6270 Y-30.5500
G01 X7.6270 Y-32.2519
G01 X7.6264 Y-32.2594
G01 X7.6251 Y-32.2669
G01 X7.6231 Y-32.2742
G01 X7.6204 Y-32.2812
G01 X7.6170 Y-32.2880
G01 X7.6130 Y-32.2943
G01 X7.6083 Y-32.3003
G01 X7.6031 Y-32.3058
G01 X7.5974 Y-32.3107
G01 X7.5912 Y-32.3151
G01 X7.5846 Y-32.3188
G01 X7.5777 Y-32.3218
G01 X7.5705 Y-32.3242
G01 X7.5632 Y-32.3259
G01 X7.5575 Y-32.3266
G01 X7.5500 Y-32.3270
G01 X5.8481 Y-32.3270
G01 X5.8425 Y-32.3266
G01 X5.8350 Y-32.3255
G01 X5.8276 Y-32.3237
G01 X5.8205 Y-32.3211
G01 X5.8137 Y-32.3179
G01 X5.8072 Y-32.3140
G01 X5.8012 Y-32.3095
G01 X5.7956 Y-32.3044
G01 X5.7905 Y-32.2988
G01 X5.7860 Y-32.2928
G01 X5.7821 Y-32.2863
G01 X5.7789 Y-32.2795
G01 X5.7763 Y-32.2724
G01 X5.7749 Y-32.2669
G01 X5.7736 Y-32.2594
G01 X5.7730 Y-32.2519
G01 X5.7731 Y-30.5462
G01 X5.7738 Y-30.5387
G01 X5.7753 Y-30.5313
G01 X5.7769 Y-30.5258
G01 X5.7796 Y-30.5188
G01 X5.7830 Y-30.5120
G01 X5.7870 Y-30.5057
G01 X5.7917 Y-30.4997
G01 X5.7969 Y-30.4942
G01 X5.8012 Y-30.4905
G01 X5.8072 Y-30.4860
G01 X5.8137 Y-30.4821
G01 X5.8205 Y-30.4789
G01 X5.8276 Y-30.4763
G01 X5.8350 Y-30.4745
G01 X5.8425 Y-30.4734
G01 X5.8500 Y-30.4730
G01 X5.8500 Y-30.4114
G01 X7.5526 Y-30.4114
G01 X7.5677 Y-30.4125
G01 X7.5811 Y-30.4149
G01 X7.5942 Y-30.4186
G01 X7.6069 Y-30.4236
G01 X7.6190 Y-30.4298
G01 X7.6304 Y-30.4371
G01 X7.6411 Y-30.4455
G01 X7.6509 Y-30.4550
G01 X7.6588 Y-30.4641
G01 X7.6667 Y-30.4752
G01 X7.6735 Y-30.4870
G01 X7.6783 Y-30.4977
G01 X7.6828 Y-30.5105
G01 X7.6858 Y-30.5222
G01 X7.6879 Y-30.5357
G01 X7.6886 Y-30.5474
G01 X7.6886 Y-32.2526
G01 X7.6882 Y-32.2609
G01 X7.6870 Y-32.2711
G01 X7.6854 Y-32.2796
G01 X7.6828 Y-32.2895
G01 X7.6802 Y-32.2974
G01 X7.6764 Y-32.3069
G01 X7.6719 Y-32.3160
G01 X7.6675 Y-32.3235
G01 X7.6618 Y-32.3320
G01 X7.6567 Y-32.3385
G01 X7.6509 Y-32.3450
G01 X7.6450 Y-32.3509
G01 X7.6373 Y-32.3576
G01 X7.6304 Y-32.3629
G01 X7.6235 Y-32.3675
G01 X7.6147 Y-32.3726
G01 X7.6069 Y-32.3764
G01 X7.5992 Y-32.3796
G01 X7.5910 Y-32.3824
G01 X7.5829 Y-32.3846
G01 X7.5744 Y-32.3864
G01 X7.5662 Y-32.3876
G01 X7.5508 Y-32.3886
G01 X5.8440 Y-32.3885
G01 X5.8323 Y-32.3875
G01 X5.8222 Y-32.3858
G01 X5.8123 Y-32.3834
G01 X5.8008 Y-32.3796
G01 X5.7901 Y-32.3750
G01 X5.7810 Y-32.3702
G01 X5.7724 Y-32.3648
G01 X5.7627 Y-32.3576
G01 X5.7550 Y-32.3509
G01 X5.7468 Y-32.3425
G01 X5.7391 Y-32.3332
G01 X5.7333 Y-32.3248
G01 X5.7274 Y-32.3147
G01 X5.7230 Y-32.3055
G01 X5.7186 Y-32.2942
G01 X5.7157 Y-32.2844
G01 X5.7139 Y-32.2763
G01 X5.7125 Y-32.2677
G01 X5.7117 Y-32.2594
G01 X5.7114 Y-32.2500
G01 X5.7114 Y-30.5492
G01 X5.7117 Y-30.5406
G01 X5.7125 Y-30.5323
G01 X5.7139 Y-30.5237
G01 X5.7157 Y-30.5156
G01 X5.7182 Y-30.5072
G01 X5.7210 Y-30.4994
G01 X5.7274 Y-30.4853
G01 X5.7343 Y-30.4736
G01 X5.7433 Y-30.4615
G01 X5.7525 Y-30.4515
G01 X5.7641 Y-30.4412
G01 X5.7765 Y-30.4325
G01 X5.7884 Y-30.4259
G01 X5.8008 Y-30.4204
G01 X5.8156 Y-30.4157
G01 X5.8237 Y-30.4139
G01 X5.8323 Y-30.4125
G01 X5.8406 Y-30.4117
G01 X5.8500 Y-30.4114
G01 X6.4776 Y-30.2882
G01 X6.9224 Y-30.2882
G01 X6.9145 Y-30.2759
G01 X6.9013 Y-30.2530
G01 X6.8901 Y-30.2299
G01 X6.8839 Y-30.2156
G01 X6.8753 Y-30.1918
G01 X6.8710 Y-30.1781
G01 X6.8645 Y-30.1521
G01 X6.8612 Y-30.1341
G01 X6.8577 Y-30.1081
G01 X6.8562 Y-30.0828
G01 X6.8559 Y-30.0650
G01 X6.8571 Y-30.0409
G01 X6.8588 Y-30.0239
G01 X6.8629 Y-29.9971
G01 X6.8661 Y-29.9825
G01 X6.8662 Y-29.9823
G01 X6.8692 Y-29.9702
G01 X6.8692 Y-29.9700
G01 X6.8702 Y-29.9662
G01 X6.8728 Y-29.9573
G01 X6.8200 Y-29.9651
G01 X6.8048 Y-29.9668
G01 X6.7128 Y-29.9715
G01 X6.7008 Y-29.9718
G01 X6.6873 Y-29.9715
G01 X6.5952 Y-29.9668
G01 X6.5800 Y-29.9651
G01 X6.5272 Y-29.9573
G01 X6.5339 Y-29.9825
G01 X6.5371 Y-29.9971
G01 X6.5412 Y-30.0239
G01 X6.5429 Y-30.0409
G01 X6.5441 Y-30.0650
G01 X6.5438 Y-30.0828
G01 X6.5423 Y-30.1081
G01 X6.5388 Y-30.1341
G01 X6.5355 Y-30.1521
G01 X6.5290 Y-30.1781
G01 X6.5247 Y-30.1918
G01 X6.5161 Y-30.2156
G01 X6.5099 Y-30.2299
G01 X6.4987 Y-30.2530
G01 X6.4855 Y-30.2759
G01 X6.4776 Y-30.2882
G01 X6.5777 Y-30.2266
G01 X6.8223 Y-30.2266
G01 X6.8133 Y-30.2002
G01 X6.8059 Y-30.1721
G01 X6.8017 Y-30.1521
G01 X6.7976 Y-30.1252
G01 X6.7956 Y-30.1047
G01 X6.7943 Y-30.0758
G01 X6.7946 Y-30.0571
G01 X6.7953 Y-30.0424
G01 X6.7953 Y-30.0420
G01 X6.7953 Y-30.0416
G01 X6.7953 Y-30.0415
G01 X6.7953 Y-30.0412
G01 X6.7954 Y-30.0397
G01 X6.7962 Y-30.0291
G01 X6.7151 Y-30.0330
G01 X6.7008 Y-30.0334
G01 X6.6850 Y-30.0331
G01 X6.6038 Y-30.0291
G01 X6.6054 Y-30.0571
G01 X6.6057 Y-30.0758
G01 X6.6044 Y-30.1047
G01 X6.6024 Y-30.1252
G01 X6.5983 Y-30.1521
G01 X6.5941 Y-30.1721
G01 X6.5867 Y-30.2002
G01 X6.5777 Y-30.2266
G01 X6.6585 Y-30.1650
G01 X6.7415 Y-30.1650
G01 X6.7358 Y-30.1269
G01 X6.7343 Y-30.1107
G01 X6.7338 Y-30.1035
G01 X6.7338 Y-30.1020
G01 X6.7334 Y-30.0938
G01 X6.7009 Y-30.0950
G01 X6.6666 Y-30.0939
G01 X6.6656 Y-30.1122
G01 X6.6642 Y-30.1269
G01 X6.6585 Y-30.1650
G01 X6.9865 Y-29.8698
G01 X6.9041 Y-29.8902
G01 X6.8116 Y-29.9041
G01 X6.7935 Y-29.9058
G01 X6.7008 Y-29.9102
G01 X6.6902 Y-29.9100
G01 X6.6065 Y-29.9058
G01 X6.5884 Y-29.9041
G01 X6.4959 Y-29.8902
G01 X6.4135 Y-29.8698
G01 X6.4241 Y-29.8842
G01 X6.4304 Y-29.8936
G01 X6.4419 Y-29.9128
G01 X6.4483 Y-29.9252
G01 X6.4573 Y-29.9448
G01 X6.4653 Y-29.9664
G01 X6.4696 Y-29.9797
G01 X6.4743 Y-29.9984
G01 X6.4773 Y-30.0124
G01 X6.4805 Y-30.0345
G01 X6.4815 Y-30.0450
G01 X6.4825 Y-30.0665
G01 X6.4823 Y-30.0794
G01 X6.4811 Y-30.1013
G01 X6.4769 Y-30.1312
G01 X6.4743 Y-30.1430
G01 X6.4689 Y-30.1642
G01 X6.4655 Y-30.1747
G01 X6.4579 Y-30.1952
G01 X6.4483 Y-30.2162
G01 X6.4435 Y-30.2256
G01 X6.4320 Y-30.2452
G01 X6.4254 Y-30.2553
G01 X6.4134 Y-30.2718
G01 X6.4060 Y-30.2809
G01 X6.3911 Y-30.2975
G01 X6.3826 Y-30.3061
G01 X6.3820 Y-30.3066
G01 X6.3807 Y-30.3079
G01 X6.3795 Y-30.3089
G01 X6.3678 Y-30.3195
G01 X6.3584 Y-30.3272
G01 X6.3399 Y-30.3409
G01 X6.3259 Y-30.3498
G01 X7.0741 Y-30.3498
G01 X7.0601 Y-30.3409
G01 X7.0416 Y-30.3272
G01 X7.0322 Y-30.3195
G01 X7.0174 Y-30.3061
G01 X7.0089 Y-30.2975
G01 X6.9940 Y-30.2809
G01 X6.9866 Y-30.2718
G01 X6.9746 Y-30.2553
G01 X6.9680 Y-30.2452
G01 X6.9565 Y-30.2256
G01 X6.9517 Y-30.2162
G01 X6.9421 Y-30.1952
G01 X6.9345 Y-30.1747
G01 X6.9311 Y-30.1642
G01 X6.9257 Y-30.1430
G01 X6.9231 Y-30.1312
G01 X6.9189 Y-30.1013
G01 X6.9177 Y-30.0794
G01 X6.9175 Y-30.0665
G01 X6.9185 Y-30.0450
G01 X6.9195 Y-30.0345
G01 X6.9227 Y-30.0124
G01 X6.9257 Y-29.9984
G01 X6.9304 Y-29.9797
G01 X6.9347 Y-29.9664
G01 X6.9421 Y-29.9462
G01 X6.9517 Y-29.9252
G01 X6.9581 Y-29.9128
G01 X6.9696 Y-29.8936
G01 X6.9759 Y-29.8842
G01 X6.9865 Y-29.8698
G00 Z1.0000
G00 X6.7038 Y-27.9331
G01 F25.00
G01 Z-0.1000
G01 F120.00
G01 X6.7871 Y-27.9372
G01 X6.7946 Y-27.9379
G01 X6.8808 Y-27.9508
G01 X6.9655 Y-27.9719
G01 X6.9727 Y-27.9741
G01 X7.0547 Y-28.0036
G01 X7.1370 Y-28.0425
G01 X7.2118 Y-28.0872
G01 X7.2181 Y-28.0914
G01 X7.2881 Y-28.1434
G01 X7.3528 Y-28.2019
G01 X7.3581 Y-28.2072
G01 X7.4166 Y-28.2719
G01 X7.4708 Y-28.3450
G01 X7.5175 Y-28.4230
G01 X7.5549 Y-28.5018
G01 X7.5578 Y-28.5088
G01 X7.5871 Y-28.5909
G01 X7.6084 Y-28.6755
G01 X7.6098 Y-28.6829
G01 X7.6225 Y-28.7691
G01 X7.6270 Y-28.8600
G01 X7.6228 Y-28.9471
G01 X7.6221 Y-28.9546
G01 X7.6092 Y-29.0408
G01 X7.5881 Y-29.1255
G01 X7.5859 Y-29.1327
G01 X7.5564 Y-29.2147
G01 X7.5175 Y-29.2970
G01 X7.4728 Y-29.3718
G01 X7.4686 Y-29.3781
G01 X7.4166 Y-29.4481
G01 X7.3581 Y-29.5128
G01 X7.3528 Y-29.5181
G01 X7.2881 Y-29.5766
G01 X7.2181 Y-29.6286
G01 X7.2118 Y-29.6328
G01 X7.1370 Y-29.6775
G01 X7.0582 Y-29.7149
G01 X7.0512 Y-29.7178
G01 X6.9691 Y-29.7471
G01 X6.8808 Y-29.7692
G01 X6.7909 Y-29.7825
G01 X6.7038 Y-29.7869
G01 X6.6962 Y-29.7869
G01 X6.6091 Y-29.7825
G01 X6.5229 Y-29.7698
G01 X6.5155 Y-29.7684
G01 X6.4309 Y-29.7471
G01 X6.3453 Y-29.7164
G01 X6.2664 Y-29.6792
G01 X6.2597 Y-29.6757
G01 X6.1850 Y-29.6308
G01 X6.1149 Y-29.5789
G01 X6.1091 Y-29.5741
G01 X6.0459 Y-29.5168
G01 X5.9834 Y-29.4481
G01 X5.9314 Y-29.3781
G01 X5.9272 Y-29.3718
G01 X5.8825 Y-29.2970
G01 X5.8451 Y-29.2182
G01 X5.8422 Y-29.2112
G01 X5.8129 Y-29.1291
G01 X5.7916 Y-29.0445
G01 X5.7902 Y-29.0371
G01 X5.7775 Y-28.9509
G01 X5.7731 Y-28.8638
G01 X5.7731 Y-28.8562
G01 X5.7775 Y-28.7691
G01 X5.7908 Y-28.6792
G01 X5.8119 Y-28.5945
G01 X5.8141 Y-28.5873
G01 X5.8436 Y-28.5053
G01 X5.8808 Y-28.4264
G01 X5.8843 Y-28.4197
G01 X5.9292 Y-28.3450
G01 X5.9834 Y-28.2719
G01 X6.0419 Y-28.2072
G01 X6.0472 Y-28.2019
G01 X6.1119 Y-28.1434
G01 X6.1819 Y-28.0914
G01 X6.1882 Y-28.0872
G01 X6.2630 Y-28.0425
G01 X6.3470 Y-28.0029
G01 X6.4309 Y-27.9729
G01 X6.5192 Y-27.9508
G01 X6.6091 Y-27.9375
G01 X6.6962 Y-27.9331
G01 X6.7038 Y-27.9331
G01 X6.7068 Y-27.8716
G01 X6.7961 Y-27.8761
G01 X6.8862 Y-27.8892
G01 X6.8995 Y-27.8919
G01 X6.9877 Y-27.9142
G01 X7.0720 Y-27.9442
G01 X7.0845 Y-27.9494
G01 X7.1667 Y-27.9885
G01 X7.2470 Y-28.0366
G01 X7.2548 Y-28.0419
G01 X7.3277 Y-28.0963
G01 X7.3941 Y-28.1563
G01 X7.4037 Y-28.1659
G01 X7.4647 Y-28.2334
G01 X7.5181 Y-28.3052
G01 X7.5256 Y-28.3165
G01 X7.5715 Y-28.3933
G01 X7.6136 Y-28.4824
G01 X7.6439 Y-28.5666
G01 X7.6478 Y-28.5796
G01 X7.6695 Y-28.6664
G01 X7.6830 Y-28.7563
G01 X7.6843 Y-28.7699
G01 X7.6886 Y-28.8608
G01 X7.6838 Y-28.9577
G01 X7.6695 Y-29.0536
G01 X7.6458 Y-29.1477
G01 X7.6131 Y-29.2390
G01 X7.5715 Y-29.3267
G01 X7.5216 Y-29.4099
G01 X7.4637 Y-29.4877
G01 X7.3985 Y-29.5596
G01 X7.3266 Y-29.6247
G01 X7.2486 Y-29.6824
G01 X7.1654 Y-29.7322
G01 X7.0776 Y-29.7736
G01 X6.9863 Y-29.8062
G01 X6.8921 Y-29.8297
G01 X6.7961 Y-29.8439
G01 X6.6992 Y-29.8486
G01 X6.6023 Y-29.8438
G01 X6.5064 Y-29.8295
G01 X6.4137 Y-29.8062
G01 X6.3224 Y-29.7736
G01 X6.2346 Y-29.7322
G01 X6.1514 Y-29.6824
G01 X6.0734 Y-29.6247
G01 X6.0059 Y-29.5637
G01 X5.9963 Y-29.5541
G01 X5.9363 Y-29.4877
G01 X5.8819 Y-29.4148
G01 X5.8744 Y-29.4035
G01 X5.8311 Y-29.3313
G01 X5.8251 Y-29.3199
G01 X5.7864 Y-29.2376
G01 X5.7538 Y-29.1463
G01 X5.7303 Y-29.0521
G01 X5.7170 Y-28.9637
G01 X5.7158 Y-28.9528
G01 X5.7114 Y-28.8592
G01 X5.7162 Y-28.7623
G01 X5.7305 Y-28.6664
G01 X5.7522 Y-28.5796
G01 X5.7561 Y-28.5666
G01 X5.7869 Y-28.4810
G01 X5.8251 Y-28.4001
G01 X5.8315 Y-28.3881
G01 X5.8748 Y-28.3159
G01 X5.8819 Y-28.3052
G01 X5.9363 Y-28.2323
G01 X5.9963 Y-28.1659
G01 X6.0059 Y-28.1563
G01 X6.0723 Y-28.0963
G01 X6.1501 Y-28.0384
G01 X6.2333 Y-27.9885
G01 X6.3210 Y-27.9469
G01 X6.4137 Y-27.9138
G01 X6.5079 Y-27.8903
G01 X6.6039 Y-27.8761
G01 X6.6932 Y-27.8716
G01 X6.7068 Y-27.8716
G01 X6.6527 Y-27.4298
G01 X6.6598 Y-27.4465
G01 X6.6688 Y-27.4717
G01 X6.6729 Y-27.4855
G01 X6.6789 Y-27.5097
G01 X6.6818 Y-27.5251
G01 X6.6852 Y-27.5500
G01 X6.6863 Y-27.5641
G01 X6.6873 Y-27.5892
G01 X6.6864 Y-27.6153
G01 X6.6853 Y-27.6292
G01 X6.6818 Y-27.6547
G01 X6.6812 Y-27.6584
G01 X6.6811 Y-27.6588
G01 X6.6809 Y-27.6603
G01 X6.6806 Y-27.6618
G01 X6.6789 Y-27.6703
G01 X6.6729 Y-27.6945
G01 X6.6688 Y-27.7083
G01 X6.6598 Y-27.7335
G01 X6.6527 Y-27.7502
G01 X6.6879 Y-27.7485
G01 X6.6917 Y-27.7483
G01 X6.6924 Y-27.7483
G01 X6.6928 Y-27.7483
G01 X6.6943 Y-27.7483
G01 X6.6992 Y-27.7482
G01 X6.7113 Y-27.7484
G01 X6.7473 Y-27.7502
G01 X6.7402 Y-27.7335
G01 X6.7312 Y-27.7083
G01 X6.7271 Y-27.6945
G01 X6.7211 Y-27.6703
G01 X6.7182 Y-27.6549
G01 X6.7148 Y-27.6300
G01 X6.7137 Y-27.6159
G01 X6.7127 Y-27.5908
G01 X6.7136 Y-27.5647
G01 X6.7147 Y-27.5508
G01 X6.7182 Y-27.5253
G01 X6.7211 Y-27.5097
G01 X6.7271 Y-27.4855
G01 X6.7312 Y-27.4717
G01 X6.7402 Y-27.4465
G01 X6.7473 Y-27.4298
G01 X6.7008 Y-27.4318
G01 X6.6887 Y-27.4316
G01 X6.6527 Y-27.4298
G01 X6.5260 Y-27.3548
G01 X6.5356 Y-27.3646
G01 X6.5504 Y-27.3812
G01 X6.5572 Y-27.3898
G01 X6.5697 Y-27.4069
G01 X6.5756 Y-27.4162
G01 X6.5867 Y-27.4351
G01 X6.6002 Y-27.4634
G01 X6.6042 Y-27.4736
G01 X6.6114 Y-27.4943
G01 X6.6142 Y-27.5045
G01 X6.6193 Y-27.5254
G01 X6.6211 Y-27.5358
G01 X6.6240 Y-27.5572
G01 X6.6248 Y-27.5677
G01 X6.6257 Y-27.5892
G01 X6.6255 Y-27.5998
G01 X6.6242 Y-27.6213
G01 X6.6211 Y-27.6442
G01 X6.6193 Y-27.6546
G01 X6.6142 Y-27.6755
G01 X6.6114 Y-27.6857
G01 X6.6042 Y-27.7064
G01 X6.6002 Y-27.7166
G01 X6.5867 Y-27.7449
G01 X6.5756 Y-27.7638
G01 X6.5697 Y-27.7731
G01 X6.5572 Y-27.7902
G01 X6.5504 Y-27.7988
G01 X6.5356 Y-27.8154
G01 X6.5260 Y-27.8252
G01 X6.5877 Y-27.8160
G01 X6.5986 Y-27.8147
G01 X6.6902 Y-27.8100
G01 X6.6943 Y-27.8099
G01 X6.6966 Y-27.8098
G01 X6.6985 Y-27.8098
G01 X6.6992 Y-27.8098
G01 X6.7098 Y-27.8100
G01 X6.8014 Y-27.8147
G01 X6.8123 Y-27.8160
G01 X6.8740 Y-27.8252
G01 X6.8644 Y-27.8154
G01 X6.8496 Y-27.7988
G01 X6.8428 Y-27.7902
G01 X6.8303 Y-27.7731
G01 X6.8244 Y-27.7638
G01 X6.8133 Y-27.7449
G01 X6.7998 Y-27.7166
G01 X6.7958 Y-27.7064
G01 X6.7886 Y-27.6857
G01 X6.7858 Y-27.6755
G01 X6.7807 Y-27.6546
G01 X6.7789 Y-27.6442
G01 X6.7760 Y-27.6228
G01 X6.7752 Y-27.6123
G01 X6.7743 Y-27.5908
G01 X6.7745 Y-27.5802
G01 X6.7758 Y-27.5587
G01 X6.7789 Y-27.5358
G01 X6.7807 Y-27.5254
G01 X6.7858 Y-27.5045
G01 X6.7886 Y-27.4943
G01 X6.7958 Y-27.4736
G01 X6.7998 Y-27.4634
G01 X6.8133 Y-27.4351
G01 X6.8244 Y-27.4162
G01 X6.8303 Y-27.4069
G01 X6.8428 Y-27.3898
G01 X6.8496 Y-27.3812
G01 X6.8644 Y-27.3646
G01 X6.8740 Y-27.3548
G01 X6.8123 Y-27.3640
G01 X6.8014 Y-27.3653
G01 X6.7008 Y-27.3702
G01 X6.6902 Y-27.3700
G01 X6.5986 Y-27.3653
G01 X6.5877 Y-27.3640
G01 X6.5260 Y-27.3548
G00 Z1.0000
G00 X6.7038 Y-25.3931
G01 F25.00
G01 Z-0.1000
G01 F120.00
G01 X6.7871 Y-25.3972
G01 X6.7946 Y-25.3979
G01 X6.8808 Y-25.4108
G01 X6.9655 Y-25.4319
G01 X6.9727 Y-25.4341
G01 X7.0547 Y-25.4636
G01 X7.1370 Y-25.5025
G01 X7.2118 Y-25.5472
G01 X7.2181 Y-25.5514
G01 X7.2881 Y-25.6034
G01 X7.3528 Y-25.6619
G01 X7.3581 Y-25.6672
G01 X7.4166 Y-25.7319
G01 X7.4708 Y-25.8050
G01 X7.5175 Y-25.8830
G01 X7.5549 Y-25.9618
G01 X7.5578 Y-25.9688
G01 X7.5871 Y-26.0509
G01 X7.6084 Y-26.1355
G01 X7.6098 Y-26.1429
G01 X7.6225 Y-26.2291
G01 X7.6270 Y-26.3200
G01 X7.6228 Y-26.4071
G01 X7.6221 Y-26.4146
G01 X7.6092 Y-26.5008
G01 X7.5881 Y-26.5855
G01 X7.5859 Y-26.5927
G01 X7.5564 Y-26.6747
G01 X7.5175 Y-26.7570
G01 X7.4728 Y-26.8318
G01 X7.4686 Y-26.8381
G01 X7.4166 Y-26.9081
G01 X7.3581 Y-26.9728
G01 X7.3528 Y-26.9781
G01 X7.2881 Y-27.0366
G01 X7.2181 Y-27.0886
G01 X7.2118 Y-27.0928
G01 X7.1370 Y-27.1375
G01 X7.0582 Y-27.1749
G01 X7.0512 Y-27.1778
G01 X6.9691 Y-27.2071
G01 X6.8808 Y-27.2292
G01 X6.7909 Y-27.2425
G01 X6.7038 Y-27.2469
G01 X6.6962 Y-27.2469
G01 X6.6091 Y-27.2425
G01 X6.5229 Y-27.2298
G01 X6.5155 Y-27.2284
G01 X6.4309 Y-27.2071
G01 X6.3453 Y-27.1764
G01 X6.2664 Y-27.1392
G01 X6.2597 Y-27.1357
G01 X6.1850 Y-27.0908
G01 X6.1149 Y-27.0389
G01 X6.1091 Y-27.0341
G01 X6.0459 Y-26.9768
G01 X5.9834 Y-26.9081
G01 X5.9314 Y-26.8381
G01 X5.9272 Y-26.8318
G01 X5.8825 Y-26.7570
G01 X5.8451 Y-26.6782
G01 X5.8422 Y-26.6712
G01 X5.8129 Y-26.5891
G01 X5.7916 Y-26.5045
G01 X5.7902 Y-26.4971
G01 X5.7775 Y-26.4109
G01 X5.7731 Y-26.3238
G01 X5.7731 Y-26.3162
G01 X5.7775 Y-26.2291
G01 X5.7908 Y-26.1392
G01 X5.8119 Y-26.0545
G01 X5.8141 Y-26.0473
G01 X5.8436 Y-25.9653
G01 X5.8808 Y-25.8864
G01 X5.8843 Y-25.8797
G01 X5.9292 Y-25.8050
G01 X5.9834 Y-25.7319
G01 X6.0419 Y-25.6672
G01 X6.0472 Y-25.6619
G01 X6.1119 Y-25.6034
G01 X6.1819 Y-25.5514
G01 X6.1882 Y-25.5472
G01 X6.2630 Y-25.5025
G01 X6.3470 Y-25.4629
G01 X6.4309 Y-25.4329
G01 X6.5192 Y-25.4108
G01 X6.6091 Y-25.3975
G01 X6.6962 Y-25.3931
G01 X6.7038 Y-25.3931
G01 X6.7068 Y-25.3316
G01 X6.7961 Y-25.3361
G01 X6.8862 Y-25.3492
G01 X6.8995 Y-25.3519
G01 X6.9877 Y-25.3742
G01 X7.0720 Y-25.4042
G01 X7.0845 Y-25.4094
G01 X7.1667 Y-25.4485
G01 X7.2470 Y-25.4966
G01 X7.2548 Y-25.5019
G01 X7.3277 Y-25.5563
G01 X7.3941 Y-25.6163
G01 X7.4037 Y-25.6259
G01 X7.4647 Y-25.6934
G01 X7.5181 Y-25.7652
G01 X7.5256 Y-25.7765
G01 X7.5715 Y-25.8533
G01 X7.6136 Y-25.9424
G01 X7.6439 Y-26.0266
G01 X7.6478 Y-26.0396
G01 X7.6695 Y-26.1264
G01 X7.6830 Y-26.2163
G01 X7.6843 Y-26.2299
G01 X7.6886 Y-26.3208
G01 X7.6838 Y-26.4177
G01 X7.6695 Y-26.5136
G01 X7.6458 Y-26.6077
G01 X7.6131 Y-26.6990
G01 X7.5715 Y-26.7867
G01 X7.5216 Y-26.8699
G01 X7.4637 Y-26.9477
G01 X7.3985 Y-27.0196
G01 X7.3266 Y-27.0847
G01 X7.2486 Y-27.1424
G01 X7.1654 Y-27.1922
G01 X7.0776 Y-27.2336
G01 X6.9863 Y-27.2662
G01 X6.8921 Y-27.2897
G01 X6.7961 Y-27.3039
G01 X6.6992 Y-27.3086
G01 X6.6023 Y-27.3038
G01 X6.5064 Y-27.2895
G01 X6.4123 Y-27.2658
G01 X6.3280 Y-27.2358
G01 X6.3155 Y-27.2306
G01 X6.2394 Y-27.1946
G01 X6.2281 Y-27.1885
G01 X6.1514 Y-27.1424
G01 X6.0782 Y-27.0884
G01 X6.0677 Y-27.0798
G01 X6.0015 Y-27.0196
G01 X5.9402 Y-26.9523
G01 X5.9316 Y-26.9418
G01 X5.8784 Y-26.8699
G01 X5.8285 Y-26.7867
G01 X5.7869 Y-26.6990
G01 X5.7542 Y-26.6077
G01 X5.7305 Y-26.5136
G01 X5.7161 Y-26.4161
G01 X5.7114 Y-26.3192
G01 X5.7157 Y-26.2299
G01 X5.7170 Y-26.2163
G01 X5.7305 Y-26.1264
G01 X5.7542 Y-26.0323
G01 X5.7869 Y-25.9410
G01 X5.8285 Y-25.8533
G01 X5.8784 Y-25.7701
G01 X5.9353 Y-25.6934
G01 X6.0004 Y-25.6215
G01 X6.0683 Y-25.5597
G01 X6.0782 Y-25.5516
G01 X6.1501 Y-25.4984
G01 X6.2333 Y-25.4485
G01 X6.3210 Y-25.4069
G01 X6.4066 Y-25.3761
G01 X6.4196 Y-25.3722
G01 X6.5012 Y-25.3517
G01 X6.5138 Y-25.3492
G01 X6.6039 Y-25.3361
G01 X6.6932 Y-25.3316
G01 X6.7068 Y-25.3316
G01 X6.5929 Y-25.0102
G01 X6.5979 Y-25.0324
G01 X6.6009 Y-25.0486
G01 X6.6032 Y-25.0641
G01 X6.6061 Y-25.0891
G01 X6.6812 Y-25.0855
G01 X6.6825 Y-25.0854
G01 X6.7008 Y-25.0850
G01 X6.7176 Y-25.0854
G01 X6.7939 Y-25.0891
G01 X6.7968 Y-25.0640
G01 X6.7991 Y-25.0486
G01 X6.8021 Y-25.0324
G01 X6.8071 Y-25.0102
G01 X6.7179 Y-25.0146
G01 X6.7008 Y-25.0150
G01 X6.6822 Y-25.0146
G01 X6.5929 Y-25.0102
G01 X6.5005 Y-24.9356
G01 X6.5134 Y-24.9646
G01 X6.5216 Y-24.9864
G01 X6.5309 Y-25.0164
G01 X6.5381 Y-25.0476
G01 X6.5419 Y-25.0702
G01 X6.5454 Y-25.1020
G01 X6.5465 Y-25.1346
G01 X6.5458 Y-25.1577
G01 X6.5756 Y-25.1533
G01 X6.5938 Y-25.1515
G01 X6.6007 Y-25.1511
G01 X6.6008 Y-25.1511
G01 X6.6841 Y-25.1470
G01 X6.6845 Y-25.1470
G01 X6.6992 Y-25.1466
G01 X6.7151 Y-25.1470
G01 X6.8062 Y-25.1515
G01 X6.8244 Y-25.1533
G01 X6.8542 Y-25.1577
G01 X6.8535 Y-25.1346
G01 X6.8546 Y-25.1020
G01 X6.8581 Y-25.0702
G01 X6.8619 Y-25.0476
G01 X6.8691 Y-25.0164
G01 X6.8784 Y-24.9864
G01 X6.8866 Y-24.9646
G01 X6.8995 Y-24.9356
G01 X6.8296 Y-24.9460
G01 X6.8126 Y-24.9480
G01 X6.7159 Y-24.9530
G01 X6.7008 Y-24.9534
G01 X6.6842 Y-24.9530
G01 X6.5878 Y-24.9480
G01 X6.5711 Y-24.9461
G01 X6.5005 Y-24.9356
G01 X6.3394 Y-24.8307
G01 X6.3575 Y-24.8461
G01 X6.3795 Y-24.8676
G01 X6.3867 Y-24.8756
G01 X6.3998 Y-24.8912
G01 X6.4114 Y-24.9064
G01 X6.4270 Y-24.9296
G01 X6.4422 Y-24.9568
G01 X6.4478 Y-24.9681
G01 X6.4556 Y-24.9859
G01 X6.4635 Y-25.0069
G01 X6.4716 Y-25.0331
G01 X6.4783 Y-25.0624
G01 X6.4804 Y-25.0752
G01 X6.4827 Y-25.0931
G01 X6.4843 Y-25.1136
G01 X6.4848 Y-25.1436
G01 X6.4827 Y-25.1754
G01 X6.4811 Y-25.1879
G01 X6.4776 Y-25.2088
G01 X6.4751 Y-25.2207
G01 X6.4722 Y-25.2320
G01 X6.4943 Y-25.2276
G01 X6.5891 Y-25.2137
G01 X6.6038 Y-25.2126
G01 X6.6872 Y-25.2085
G01 X6.6873 Y-25.2085
G01 X6.6992 Y-25.2082
G01 X6.7123 Y-25.2085
G01 X6.7962 Y-25.2126
G01 X6.8101 Y-25.2137
G01 X6.9057 Y-25.2276
G01 X6.9278 Y-25.2320
G01 X6.9249 Y-25.2207
G01 X6.9224 Y-25.2088
G01 X6.9189 Y-25.1879
G01 X6.9173 Y-25.1754
G01 X6.9152 Y-25.1436
G01 X6.9157 Y-25.1136
G01 X6.9173 Y-25.0931
G01 X6.9196 Y-25.0752
G01 X6.9217 Y-25.0624
G01 X6.9284 Y-25.0331
G01 X6.9365 Y-25.0069
G01 X6.9444 Y-24.9859
G01 X6.9522 Y-24.9681
G01 X6.9578 Y-24.9568
G01 X6.9730 Y-24.9296
G01 X6.9886 Y-24.9064
G01 X7.0002 Y-24.8912
G01 X7.0133 Y-24.8756
G01 X7.0205 Y-24.8676
G01 X7.0425 Y-24.8461
G01 X7.0606 Y-24.8307
G01 X7.0307 Y-24.8414
G01 X7.0155 Y-24.8460
G01 X6.9280 Y-24.8680
G01 X6.9095 Y-24.8718
G01 X6.8215 Y-24.8849
G01 X6.8082 Y-24.8865
G01 X6.7962 Y-24.8874
G01 X6.7008 Y-24.8918
G01 X6.6872 Y-24.8915
G01 X6.5922 Y-24.8866
G01 X6.5788 Y-24.8850
G01 X6.4905 Y-24.8718
G01 X6.4720 Y-24.8680
G01 X6.3845 Y-24.8460
G01 X6.3693 Y-24.8414
G01 X6.3394 Y-24.8307
G01 X5.6419 Y-24.2343
G01 X5.7100 Y-24.3771
G01 X5.8455 Y-24.5588
G01 X6.0138 Y-24.7105
G01 X6.2087 Y-24.8266
G01 X6.2332 Y-24.8367
G01 X6.2554 Y-24.8481
G01 X6.2697 Y-24.8565
G01 X6.2915 Y-24.8714
G01 X6.3139 Y-24.8896
G01 X6.3354 Y-24.9106
G01 X6.3553 Y-24.9341
G01 X6.3711 Y-24.9565
G01 X6.3769 Y-24.9660
G01 X6.3851 Y-24.9805
G01 X6.3928 Y-24.9961
G01 X6.4025 Y-25.0190
G01 X6.4113 Y-25.0461
G01 X6.4174 Y-25.0721
G01 X6.4200 Y-25.0879
G01 X6.4226 Y-25.1129
G01 X6.4232 Y-25.1426
G01 X6.4212 Y-25.1711
G01 X6.4174 Y-25.1952
G01 X6.4138 Y-25.2119
G01 X6.4094 Y-25.2280
G01 X6.4063 Y-25.2379
G01 X6.3968 Y-25.2629
G01 X6.3852 Y-25.2869
G01 X6.3799 Y-25.2967
G01 X6.3706 Y-25.3118
G01 X6.3598 Y-25.3274
G01 X6.3890 Y-25.3170
G01 X6.4006 Y-25.3135
G01 X6.4859 Y-25.2920
G01 X6.5007 Y-25.2890
G01 X6.5873 Y-25.2761
G01 X6.5978 Y-25.2748
G01 X6.6069 Y-25.2741
G01 X6.6902 Y-25.2700
G01 X6.6992 Y-25.2698
G01 X6.7098 Y-25.2700
G01 X6.8022 Y-25.2748
G01 X6.8127 Y-25.2761
G01 X6.8993 Y-25.2890
G01 X6.9141 Y-25.2920
G01 X6.9994 Y-25.3135
G01 X7.0110 Y-25.3170
G01 X7.0402 Y-25.3274
G01 X7.0294 Y-25.3118
G01 X7.0201 Y-25.2967
G01 X7.0148 Y-25.2869
G01 X7.0032 Y-25.2629
G01 X6.9937 Y-25.2379
G01 X6.9906 Y-25.2280
G01 X6.9862 Y-25.2119
G01 X6.9826 Y-25.1952
G01 X6.9788 Y-25.1711
G01 X6.9768 Y-25.1426
G01 X6.9774 Y-25.1129
G01 X6.9800 Y-25.0879
G01 X6.9826 Y-25.0721
G01 X6.9887 Y-25.0461
G01 X6.9975 Y-25.0190
G01 X7.0072 Y-24.9961
G01 X7.0149 Y-24.9805
G01 X7.0231 Y-24.9660
G01 X7.0289 Y-24.9565
G01 X7.0447 Y-24.9341
G01 X7.0646 Y-24.9106
G01 X7.0861 Y-24.8896
G01 X7.1085 Y-24.8714
G01 X7.1303 Y-24.8565
G01 X7.1446 Y-24.8481
G01 X7.1668 Y-24.8367
G01 X7.1913 Y-24.8266
G01 X7.3862 Y-24.7105
G01 X7.5545 Y-24.5588
G01 X7.6900 Y-24.3771
G01 X7.7581 Y-24.2343
G01 X7.6458 Y-24.2343
G01 X7.6300 Y-24.2676
G01 X7.6242 Y-24.2787
G01 X7.5783 Y-24.3555
G01 X7.5709 Y-24.3669
G01 X7.5123 Y-24.4457
G01 X7.5054 Y-24.4537
G01 X7.4466 Y-24.5185
G01 X7.4358 Y-24.5291
G01 X7.3737 Y-24.5854
G01 X7.3588 Y-24.5976
G01 X7.2915 Y-24.6476
G01 X7.2828 Y-24.6536
G01 X7.1987 Y-24.7042
G01 X7.1866 Y-24.7104
G01 X7.1105 Y-24.7464
G01 X7.0938 Y-24.7534
G01 X7.0056 Y-24.7848
G01 X6.9954 Y-24.7876
G01 X6.9145 Y-24.8079
G01 X6.8963 Y-24.8115
G01 X6.8037 Y-24.8251
G01 X6.7931 Y-24.8259
G01 X6.7098 Y-24.8300
G01 X6.6943 Y-24.8301
G01 X6.6057 Y-24.8258
G01 X6.5873 Y-24.8239
G01 X6.5048 Y-24.8117
G01 X6.4944 Y-24.8099
G01 X6.4042 Y-24.7875
G01 X6.3869 Y-24.7823
G01 X6.2988 Y-24.7505
G01 X6.2891 Y-24.7463
G01 X6.2137 Y-24.7106
G01 X6.2000 Y-24.7034
G01 X6.1964 Y-24.7014
G01 X6.1248 Y-24.6585
G01 X6.1172 Y-24.6536
G01 X6.1085 Y-24.6476
G01 X6.0412 Y-24.5976
G01 X6.0263 Y-24.5854
G01 X5.9642 Y-24.5291
G01 X5.9534 Y-24.5185
G01 X5.8946 Y-24.4537
G01 X5.8877 Y-24.4457
G01 X5.8861 Y-24.4436
G01 X5.8856 Y-24.4430
G01 X5.8847 Y-24.4418
G01 X5.8821 Y-24.4385
G01 X5.8291 Y-24.3669
G01 X5.8217 Y-24.3555
G01 X5.7758 Y-24.2787
G01 X5.7700 Y-24.2676
G01 X5.7542 Y-24.2343
G01 X5.6419 Y-24.2343
G01 X5.5470 Y-24.1727
G01 X5.5516 Y-24.1879
G01 X5.6570 Y-24.4091
G01 X5.7997 Y-24.6005
G01 X5.9771 Y-24.7603
G01 X6.1822 Y-24.8825
G01 X6.2078 Y-24.8928
G01 X6.2318 Y-24.9055
G01 X6.2531 Y-24.9196
G01 X6.2679 Y-24.9313
G01 X6.2744 Y-24.9369
G01 X6.2912 Y-24.9536
G01 X6.3076 Y-24.9732
G01 X6.3221 Y-24.9943
G01 X6.3345 Y-25.0167
G01 X6.3446 Y-25.0402
G01 X6.3525 Y-25.0645
G01 X6.3580 Y-25.0895
G01 X6.3604 Y-25.1083
G01 X6.3611 Y-25.1168
G01 X6.3616 Y-25.1405
G01 X6.3597 Y-25.1660
G01 X6.3554 Y-25.1912
G01 X6.3487 Y-25.2159
G01 X6.3396 Y-25.2398
G01 X6.3283 Y-25.2627
G01 X6.3148 Y-25.2845
G01 X6.3035 Y-25.2996
G01 X6.2981 Y-25.3062
G01 X6.2854 Y-25.3202
G01 X6.2776 Y-25.3276
G01 X6.2628 Y-25.3406
G01 X6.2450 Y-25.3538
G01 X6.2378 Y-25.3584
G01 X6.2215 Y-25.3680
G01 X6.1973 Y-25.3795
G01 X6.0234 Y-25.4956
G01 X5.8756 Y-25.6434
G01 X5.7595 Y-25.8173
G01 X5.6795 Y-26.0104
G01 X5.6387 Y-26.2155
G01 X5.6387 Y-26.4245
G01 X5.6795 Y-26.6296
G01 X5.7595 Y-26.8227
G01 X5.8756 Y-26.9966
G01 X6.0234 Y-27.1444
G01 X6.1973 Y-27.2605
G01 X6.4056 Y-27.3470
G01 X6.4243 Y-27.3561
G01 X6.4425 Y-27.3669
G01 X6.4516 Y-27.3730
G01 X6.4690 Y-27.3863
G01 X6.4868 Y-27.4027
G01 X6.4999 Y-27.4169
G01 X6.5055 Y-27.4235
G01 X6.5208 Y-27.4446
G01 X6.5307 Y-27.4611
G01 X6.5358 Y-27.4708
G01 X6.5428 Y-27.4859
G01 X6.5463 Y-27.4947
G01 X6.5529 Y-27.5136
G01 X6.5575 Y-27.5315
G01 X6.5597 Y-27.5423
G01 X6.5625 Y-27.5613
G01 X6.5640 Y-27.5858
G01 X6.5640 Y-27.5960
G01 X6.5629 Y-27.6153
G01 X6.5591 Y-27.6411
G01 X6.5524 Y-27.6678
G01 X6.5461 Y-27.6860
G01 X6.5422 Y-27.6955
G01 X6.5315 Y-27.7176
G01 X6.5216 Y-27.7341
G01 X6.5154 Y-27.7432
G01 X6.5043 Y-27.7579
G01 X6.4910 Y-27.7729
G01 X6.4833 Y-27.7807
G01 X6.4701 Y-27.7927
G01 X6.4616 Y-27.7995
G01 X6.4494 Y-27.8085
G01 X6.4425 Y-27.8131
G01 X6.4243 Y-27.8239
G01 X6.4056 Y-27.8330
G01 X6.1973 Y-27.9195
G01 X6.0234 Y-28.0356
G01 X5.8756 Y-28.1834
G01 X5.7595 Y-28.3573
G01 X5.6795 Y-28.5504
G01 X5.6387 Y-28.7555
G01 X5.6387 Y-28.9645
G01 X5.6795 Y-29.1696
G01 X5.7595 Y-29.3627
G01 X5.8756 Y-29.5366
G01 X6.0234 Y-29.6844
G01 X6.1973 Y-29.8005
G01 X6.2625 Y-29.8277
G01 X6.2812 Y-29.8368
G01 X6.2994 Y-29.8475
G01 X6.3078 Y-29.8533
G01 X6.3232 Y-29.8649
G01 X6.3387 Y-29.8787
G01 X6.3460 Y-29.8858
G01 X6.3611 Y-29.9027
G01 X6.3766 Y-29.9237
G01 X6.3899 Y-29.9461
G01 X6.4004 Y-29.9683
G01 X6.4093 Y-29.9929
G01 X6.4153 Y-30.0163
G01 X6.4194 Y-30.0420
G01 X6.4208 Y-30.0639
G01 X6.4209 Y-30.0748
G01 X6.4196 Y-30.0975
G01 X6.4166 Y-30.1184
G01 X6.4143 Y-30.1292
G01 X6.4093 Y-30.1485
G01 X6.4022 Y-30.1685
G01 X6.3979 Y-30.1786
G01 X6.3915 Y-30.1922
G01 X6.3875 Y-30.1996
G01 X6.3766 Y-30.2177
G01 X6.3643 Y-30.2345
G01 X6.3567 Y-30.2438
G01 X6.3426 Y-30.2591
G01 X6.3270 Y-30.2734
G01 X6.3184 Y-30.2802
G01 X6.3022 Y-30.2920
G01 X6.2841 Y-30.3030
G01 X6.2751 Y-30.3077
G01 X6.2576 Y-30.3158
G01 X6.2331 Y-30.3247
G01 X6.2078 Y-30.3311
G01 X6.1820 Y-30.3350
G01 X6.1553 Y-30.3364
G01 X5.8631 Y-30.3364
G01 X5.8086 Y-30.3417
G01 X5.7687 Y-30.3538
G01 X5.7320 Y-30.3734
G01 X5.6998 Y-30.3998
G01 X5.6734 Y-30.4320
G01 X5.6538 Y-30.4687
G01 X5.6417 Y-30.5086
G01 X5.6364 Y-30.5631
G01 X5.6364 Y-32.2369
G01 X5.6417 Y-32.2914
G01 X5.6538 Y-32.3313
G01 X5.6734 Y-32.3680
G01 X5.6998 Y-32.4002
G01 X5.7320 Y-32.4266
G01 X5.7687 Y-32.4462
G01 X5.8086 Y-32.4583
G01 X5.8631 Y-32.4636
G01 X7.5369 Y-32.4636
G01 X7.5914 Y-32.4583
G01 X7.6313 Y-32.4462
G01 X7.6680 Y-32.4266
G01 X7.7002 Y-32.4002
G01 X7.7266 Y-32.3680
G01 X7.7462 Y-32.3313
G01 X7.7583 Y-32.2914
G01 X7.7636 Y-32.2369
G01 X7.7636 Y-30.5631
G01 X7.7583 Y-30.5086
G01 X7.7462 Y-30.4687
G01 X7.7266 Y-30.4320
G01 X7.7002 Y-30.3998
G01 X7.6680 Y-30.3734
G01 X7.6313 Y-30.3538
G01 X7.5914 Y-30.3417
G01 X7.5369 Y-30.3364
G01 X7.2447 Y-30.3364
G01 X7.2213 Y-30.3353
G01 X7.2127 Y-30.3344
G01 X7.1937 Y-30.3314
G01 X7.1684 Y-30.3251
G01 X7.1438 Y-30.3164
G01 X7.1202 Y-30.3053
G01 X7.1023 Y-30.2948
G01 X7.0922 Y-30.2881
G01 X7.0756 Y-30.2756
G01 X7.0613 Y-30.2627
G01 X7.0527 Y-30.2542
G01 X7.0389 Y-30.2386
G01 X7.0262 Y-30.2217
G01 X7.0202 Y-30.2125
G01 X7.0101 Y-30.1953
G01 X7.0010 Y-30.1762
G01 X6.9969 Y-30.1660
G01 X6.9898 Y-30.1453
G01 X6.9843 Y-30.1233
G01 X6.9811 Y-30.1027
G01 X6.9799 Y-30.0907
G01 X6.9791 Y-30.0699
G01 X6.9804 Y-30.0439
G01 X6.9840 Y-30.0196
G01 X6.9903 Y-29.9943
G01 X6.9990 Y-29.9697
G01 X7.0101 Y-29.9461
G01 X7.0234 Y-29.9237
G01 X7.0389 Y-29.9027
G01 X7.0540 Y-29.8858
G01 X7.0613 Y-29.8787
G01 X7.0768 Y-29.8649
G01 X7.0922 Y-29.8533
G01 X7.1006 Y-29.8475
G01 X7.1188 Y-29.8368
G01 X7.1375 Y-29.8277
G01 X7.2027 Y-29.8005
G01 X7.3766 Y-29.6844
G01 X7.5244 Y-29.5366
G01 X7.6405 Y-29.3627
G01 X7.7205 Y-29.1696
G01 X7.7613 Y-28.9645
G01 X7.7613 Y-28.7555
G01 X7.7205 Y-28.5504
G01 X7.6405 Y-28.3573
G01 X7.5244 Y-28.1834
G01 X7.3766 Y-28.0356
G01 X7.2027 Y-27.9195
G01 X6.9944 Y-27.8330
G01 X6.9757 Y-27.8239
G01 X6.9575 Y-27.8131
G01 X6.9484 Y-27.8070
G01 X6.9363 Y-27.7979
G01 X6.9299 Y-27.7927
G01 X6.9119 Y-27.7760
G01 X6.8989 Y-27.7617
G01 X6.8920 Y-27.7532
G01 X6.8811 Y-27.7382
G01 X6.8706 Y-27.7212
G01 X6.8661 Y-27.7129
G01 X6.8586 Y-27.6972
G01 X6.8546 Y-27.6878
G01 X6.8481 Y-27.6696
G01 X6.8457 Y-27.6613
G01 X6.8412 Y-27.6426
G01 X6.8371 Y-27.6153
G01 X6.8359 Y-27.5892
G01 X6.8373 Y-27.5632
G01 X6.8400 Y-27.5441
G01 X6.8416 Y-27.5356
G01 X6.8481 Y-27.5104
G01 X6.8546 Y-27.4922
G01 X6.8589 Y-27.4821
G01 X6.8676 Y-27.4641
G01 X6.8770 Y-27.4482
G01 X6.8822 Y-27.4402
G01 X6.8925 Y-27.4262
G01 X6.8989 Y-27.4183
G01 X6.9119 Y-27.4040
G01 X6.9310 Y-27.3863
G01 X6.9484 Y-27.3730
G01 X6.9575 Y-27.3669
G01 X6.9757 Y-27.3561
G01 X6.9944 Y-27.3470
G01 X7.2027 Y-27.2605
G01 X7.3766 Y-27.1444
G01 X7.5244 Y-26.9966
G01 X7.6405 Y-26.8227
G01 X7.7205 Y-26.6296
G01 X7.7613 Y-26.4245
G01 X7.7613 Y-26.2155
G01 X7.7205 Y-26.0104
G01 X7.6405 Y-25.8173
G01 X7.5244 Y-25.6434
G01 X7.3766 Y-25.4956
G01 X7.2027 Y-25.3795
G01 X7.1785 Y-25.3680
G01 X7.1622 Y-25.3584
G01 X7.1550 Y-25.3538
G01 X7.1398 Y-25.3427
G01 X7.1315 Y-25.3358
G01 X7.1170 Y-25.3226
G01 X7.1019 Y-25.3062
G01 X7.0965 Y-25.2996
G01 X7.0852 Y-25.2845
G01 X7.0717 Y-25.2627
G01 X7.0604 Y-25.2398
G01 X7.0513 Y-25.2159
G01 X7.0446 Y-25.1912
G01 X7.0403 Y-25.1660
G01 X7.0384 Y-25.1405
G01 X7.0389 Y-25.1168
G01 X7.0396 Y-25.1083
G01 X7.0420 Y-25.0895
G01 X7.0475 Y-25.0645
G01 X7.0554 Y-25.0402
G01 X7.0655 Y-25.0167
G01 X7.0779 Y-24.9943
G01 X7.0924 Y-24.9732
G01 X7.1088 Y-24.9536
G01 X7.1256 Y-24.9369
G01 X7.1321 Y-24.9313
G01 X7.1469 Y-24.9196
G01 X7.1682 Y-24.9055
G01 X7.1922 Y-24.8928
G01 X7.2178 Y-24.8825
G01 X7.4229 Y-24.7603
G01 X7.6003 Y-24.6005
G01 X7.7430 Y-24.4091
G01 X7.8484 Y-24.1879
G01 X7.8530 Y-24.1727
G01 X7.6067 Y-24.1727
G01 X7.5715 Y-24.2467
G01 X7.5252 Y-24.3241
G01 X7.5181 Y-24.3348
G01 X7.4637 Y-24.4077
G01 X7.3996 Y-24.4785
G01 X7.3323 Y-24.5398
G01 X7.3218 Y-24.5484
G01 X7.2486 Y-24.6024
G01 X7.1667 Y-24.6515
G01 X7.0845 Y-24.6906
G01 X7.0720 Y-24.6958
G01 X6.9863 Y-24.7262
G01 X6.8995 Y-24.7481
G01 X6.8862 Y-24.7508
G01 X6.7961 Y-24.7639
G01 X6.7008 Y-24.7686
G01 X6.6099 Y-24.7643
G01 X6.5963 Y-24.7630
G01 X6.5064 Y-24.7495
G01 X6.4137 Y-24.7262
G01 X6.3280 Y-24.6958
G01 X6.3155 Y-24.6906
G01 X6.2333 Y-24.6515
G01 X6.1514 Y-24.6024
G01 X6.0782 Y-24.5484
G01 X6.0677 Y-24.5398
G01 X6.0004 Y-24.4785
G01 X5.9363 Y-24.4077
G01 X5.8819 Y-24.3348
G01 X5.8748 Y-24.3241
G01 X5.8285 Y-24.2467
G01 X5.7933 Y-24.1727
G01 X5.5470 Y-24.1727
G00 Z1.0000
G00 X7.5650 Y-24.1111
G01 F25.00
G01 Z-0.1000
G01 F120.00
G01 X7.8971 Y-24.1111
G01 X7.9218 Y-24.1579
G01 X7.9060 Y-24.2102
G01 X7.7961 Y-24.4410
G01 X7.6460 Y-24.6422
G01 X7.4597 Y-24.8101
G01 X7.2441 Y-24.9386
G01 X7.2340 Y-24.9422
G01 X7.2193 Y-24.9482
G01 X7.2002 Y-24.9581
G01 X7.1838 Y-24.9689
G01 X7.1671 Y-24.9825
G01 X7.1520 Y-24.9978
G01 X7.1418 Y-25.0100
G01 X7.1326 Y-25.0231
G01 X7.1287 Y-25.0294
G01 X7.1211 Y-25.0434
G01 X7.1132 Y-25.0614
G01 X7.1082 Y-25.0765
G01 X7.1062 Y-25.0836
G01 X7.1029 Y-25.0992
G01 X7.1008 Y-25.1150
G01 X7.1003 Y-25.1224
G01 X7.1000 Y-25.1384
G01 X7.1013 Y-25.1580
G01 X7.1046 Y-25.1773
G01 X7.1087 Y-25.1928
G01 X7.1152 Y-25.2113
G01 X7.1182 Y-25.2181
G01 X7.1253 Y-25.2324
G01 X7.1356 Y-25.2491
G01 X7.1474 Y-25.2647
G01 X7.1582 Y-25.2765
G01 X7.1634 Y-25.2817
G01 X7.1754 Y-25.2923
G01 X7.1912 Y-25.3039
G01 X7.2097 Y-25.3148
G01 X7.2242 Y-25.3216
G01 X7.2319 Y-25.3249
G01 X7.4158 Y-25.4478
G01 X7.5722 Y-25.6042
G01 X7.6951 Y-25.7881
G01 X7.7798 Y-25.9925
G01 X7.8229 Y-26.2094
G01 X7.8229 Y-26.4306
G01 X7.7798 Y-26.6475
G01 X7.6951 Y-26.8519
G01 X7.5722 Y-27.0358
G01 X7.4158 Y-27.1922
G01 X7.2319 Y-27.3151
G01 X7.0217 Y-27.4022
G01 X7.0054 Y-27.4100
G01 X6.9914 Y-27.4183
G01 X6.9851 Y-27.4225
G01 X6.9721 Y-27.4323
G01 X6.9573 Y-27.4457
G01 X6.9463 Y-27.4577
G01 X6.9415 Y-27.4635
G01 X6.9319 Y-27.4766
G01 X6.9235 Y-27.4905
G01 X6.9146 Y-27.5085
G01 X6.9117 Y-27.5154
G01 X6.9063 Y-27.5308
G01 X6.9014 Y-27.5502
G01 X6.8985 Y-27.5700
G01 X6.8975 Y-27.5919
G01 X6.8987 Y-27.6119
G01 X6.9011 Y-27.6280
G01 X6.9023 Y-27.6335
G01 X6.9063 Y-27.6492
G01 X6.9117 Y-27.6646
G01 X6.9199 Y-27.6828
G01 X6.9235 Y-27.6895
G01 X6.9319 Y-27.7034
G01 X6.9438 Y-27.7195
G01 X6.9573 Y-27.7343
G01 X6.9721 Y-27.7477
G01 X6.9851 Y-27.7575
G01 X6.9914 Y-27.7617
G01 X7.0054 Y-27.7700
G01 X7.0217 Y-27.7778
G01 X7.2319 Y-27.8649
G01 X7.4158 Y-27.9878
G01 X7.5722 Y-28.1442
G01 X7.6951 Y-28.3281
G01 X7.7798 Y-28.5325
G01 X7.8229 Y-28.7494
G01 X7.8229 Y-28.9706
G01 X7.7798 Y-29.1875
G01 X7.6951 Y-29.3919
G01 X7.5722 Y-29.5758
G01 X7.4158 Y-29.7322
G01 X7.2319 Y-29.8551
G01 X7.1667 Y-29.8822
G01 X7.1486 Y-29.8907
G01 X7.1314 Y-29.9010
G01 X7.1183 Y-29.9106
G01 X7.1124 Y-29.9154
G01 X7.0991 Y-29.9278
G01 X7.0870 Y-29.9412
G01 X7.0751 Y-29.9573
G01 X7.0648 Y-29.9745
G01 X7.0562 Y-29.9926
G01 X7.0495 Y-30.0115
G01 X7.0446 Y-30.0309
G01 X7.0417 Y-30.0507
G01 X7.0407 Y-30.0707
G01 X7.0414 Y-30.0869
G01 X7.0421 Y-30.0944
G01 X7.0446 Y-30.1105
G01 X7.0495 Y-30.1299
G01 X7.0549 Y-30.1453
G01 X7.0577 Y-30.1522
G01 X7.0648 Y-30.1669
G01 X7.0731 Y-30.1809
G01 X7.0772 Y-30.1872
G01 X7.0870 Y-30.2001
G01 X7.0978 Y-30.2123
G01 X7.1032 Y-30.2176
G01 X7.1153 Y-30.2284
G01 X7.1298 Y-30.2393
G01 X7.1502 Y-30.2515
G01 X7.1667 Y-30.2592
G01 X7.1855 Y-30.2660
G01 X7.2049 Y-30.2708
G01 X7.2266 Y-30.2739
G01 X7.2447 Y-30.2748
G01 X7.5400 Y-30.2748
G01 X7.6035 Y-30.2810
G01 X7.6550 Y-30.2966
G01 X7.7024 Y-30.3220
G01 X7.7439 Y-30.3561
G01 X7.7780 Y-30.3976
G01 X7.8034 Y-30.4450
G01 X7.8190 Y-30.4965
G01 X7.8252 Y-30.5600
G01 X7.8252 Y-32.2400
G01 X7.8190 Y-32.3035
G01 X7.8034 Y-32.3550
G01 X7.7780 Y-32.4024
G01 X7.7439 Y-32.4439
G01 X7.7024 Y-32.4780
G01 X7.6550 Y-32.5034
G01 X7.6035 Y-32.5190
G01 X7.5400 Y-32.5252
G01 X5.8600 Y-32.5252
G01 X5.7965 Y-32.5190
G01 X5.7450 Y-32.5034
G01 X5.6976 Y-32.4780
G01 X5.6561 Y-32.4439
G01 X5.6220 Y-32.4024
G01 X5.5966 Y-32.3550
G01 X5.5810 Y-32.3035
G01 X5.5748 Y-32.2400
G01 X5.5748 Y-30.5600
G01 X5.5810 Y-30.4965
G01 X5.5966 Y-30.4450
G01 X5.6220 Y-30.3976
G01 X5.6561 Y-30.3561
G01 X5.6976 Y-30.3220
G01 X5.7450 Y-30.2966
G01 X5.7965 Y-30.2810
G01 X5.8600 Y-30.2748
G01 X6.1553 Y-30.2748
G01 X6.1753 Y-30.2738
G01 X6.1951 Y-30.2708
G01 X6.2145 Y-30.2660
G01 X6.2333 Y-30.2592
G01 X6.2531 Y-30.2497
G01 X6.2686 Y-30.2404
G01 X6.2817 Y-30.2308
G01 X6.2876 Y-30.2260
G01 X6.2995 Y-30.2150
G01 X6.3105 Y-30.2030
G01 X6.3153 Y-30.1972
G01 X6.3249 Y-30.1841
G01 X6.3352 Y-30.1669
G01 X6.3438 Y-30.1488
G01 X6.3493 Y-30.1335
G01 X6.3515 Y-30.1263
G01 X6.3554 Y-30.1105
G01 X6.3579 Y-30.0944
G01 X6.3586 Y-30.0869
G01 X6.3593 Y-30.0707
G01 X6.3586 Y-30.0545
G01 X6.3581 Y-30.0488
G01 X6.3557 Y-30.0327
G01 X6.3515 Y-30.0151
G01 X6.3451 Y-29.9961
G01 X6.3423 Y-29.9891
G01 X6.3352 Y-29.9745
G01 X6.3249 Y-29.9573
G01 X6.3130 Y-29.9412
G01 X6.2995 Y-29.9264
G01 X6.2876 Y-29.9154
G01 X6.2817 Y-29.9106
G01 X6.2686 Y-29.9010
G01 X6.2514 Y-29.8907
G01 X6.2333 Y-29.8822
G01 X6.1681 Y-29.8551
G01 X5.9842 Y-29.7322
G01 X5.8278 Y-29.5758
G01 X5.7049 Y-29.3919
G01 X5.6202 Y-29.1875
G01 X5.5771 Y-28.9706
G01 X5.5771 Y-28.7494
G01 X5.6202 Y-28.5325
G01 X5.7049 Y-28.3281
G01 X5.8278 Y-28.1442
G01 X5.9842 Y-27.9878
G01 X6.1681 Y-27.8649
G01 X6.3783 Y-27.7778
G01 X6.3946 Y-27.7700
G01 X6.4086 Y-27.7617
G01 X6.4149 Y-27.7575
G01 X6.4279 Y-27.7477
G01 X6.4427 Y-27.7343
G01 X6.4537 Y-27.7223
G01 X6.4585 Y-27.7165
G01 X6.4681 Y-27.7034
G01 X6.4765 Y-27.6895
G01 X6.4854 Y-27.6715
G01 X6.4883 Y-27.6646
G01 X6.4937 Y-27.6492
G01 X6.4986 Y-27.6298
G01 X6.5015 Y-27.6100
G01 X6.5024 Y-27.5938
G01 X6.5024 Y-27.5862
G01 X6.5011 Y-27.5662
G01 X6.4986 Y-27.5502
G01 X6.4947 Y-27.5344
G01 X6.4931 Y-27.5290
G01 X6.4877 Y-27.5137
G01 X6.4801 Y-27.4972
G01 X6.4765 Y-27.4905
G01 X6.4681 Y-27.4766
G01 X6.4562 Y-27.4605
G01 X6.4427 Y-27.4457
G01 X6.4279 Y-27.4323
G01 X6.4149 Y-27.4225
G01 X6.4086 Y-27.4183
G01 X6.3946 Y-27.4100
G01 X6.3783 Y-27.4022
G01 X6.1681 Y-27.3151
G01 X5.9842 Y-27.1922
G01 X5.8278 Y-27.0358
G01 X5.7049 Y-26.8519
G01 X5.6202 Y-26.6475
G01 X5.5771 Y-26.4306
G01 X5.5771 Y-26.2094
G01 X5.6202 Y-25.9925
G01 X5.7049 Y-25.7881
G01 X5.8278 Y-25.6042
G01 X5.9842 Y-25.4478
G01 X6.1681 Y-25.3249
G01 X6.1758 Y-25.3216
G01 X6.1903 Y-25.3148
G01 X6.2088 Y-25.3039
G01 X6.2217 Y-25.2946
G01 X6.2274 Y-25.2899
G01 X6.2393 Y-25.2792
G01 X6.2514 Y-25.2662
G01 X6.2644 Y-25.2491
G01 X6.2747 Y-25.2324
G01 X6.2834 Y-25.2147
G01 X6.2903 Y-25.1963
G01 X6.2954 Y-25.1773
G01 X6.2987 Y-25.1580
G01 X6.3000 Y-25.1384
G01 X6.2997 Y-25.1206
G01 X6.2971 Y-25.0992
G01 X6.2929 Y-25.0801
G01 X6.2868 Y-25.0614
G01 X6.2789 Y-25.0434
G01 X6.2694 Y-25.0262
G01 X6.2582 Y-25.0100
G01 X6.2456 Y-24.9950
G01 X6.2315 Y-24.9813
G01 X6.2162 Y-24.9689
G01 X6.1998 Y-24.9581
G01 X6.1807 Y-24.9482
G01 X6.1660 Y-24.9422
G01 X6.1559 Y-24.9386
G01 X5.9403 Y-24.8101
G01 X5.7540 Y-24.6422
G01 X5.6039 Y-24.4410
G01 X5.4940 Y-24.2102
G01 X5.4782 Y-24.1579
G01 X5.5029 Y-24.1111
G01 X5.8350 Y-24.1111
G01 X5.8443 Y-24.1365
G01 X5.8834 Y-24.2186
G01 X5.9292 Y-24.2950
G01 X5.9822 Y-24.3666
G01 X6.0419 Y-24.4328
G01 X6.0472 Y-24.4381
G01 X6.1119 Y-24.4966
G01 X6.1834 Y-24.5497
G01 X6.2597 Y-24.5957
G01 X6.2664 Y-24.5992
G01 X6.3453 Y-24.6364
G01 X6.4309 Y-24.6671
G01 X6.5192 Y-24.6892
G01 X6.6054 Y-24.7021
G01 X6.6129 Y-24.7028
G01 X6.7019 Y-24.7070
G01 X6.7909 Y-24.7025
G01 X6.8771 Y-24.6898
G01 X6.8845 Y-24.6884
G01 X6.9691 Y-24.6671
G01 X7.0547 Y-24.6364
G01 X7.1336 Y-24.5992
G01 X7.1403 Y-24.5957
G01 X7.2166 Y-24.5497
G01 X7.2881 Y-24.4966
G01 X7.3528 Y-24.4381
G01 X7.3581 Y-24.4328
G01 X7.4178 Y-24.3666
G01 X7.4708 Y-24.2950
G01 X7.5166 Y-24.2186
G01 X7.5557 Y-24.1365
G01 X7.5650 Y-24.1111
G00 Z1.0000
G00 X7.5650 Y-23.4489
G01 F25.00
G01 Z-0.1000
G01 F120.00
G01 X7.5557 Y-23.4235
G01 X7.5184 Y-23.3447
G01 X7.4718 Y-23.2666
G01 X7.4166 Y-23.1919
G01 X7.3555 Y-23.1245
G01 X7.2881 Y-23.0634
G01 X7.2134 Y-23.0082
G01 X7.1353 Y-22.9616
G01 X7.0565 Y-22.9243
G01 X7.0311 Y-22.9150
G01 X7.0311 Y-22.5825
G01 X7.0727 Y-22.5607
G01 X7.2441 Y-22.6214
G01 X7.4597 Y-22.7499
G01 X7.6460 Y-22.9178
G01 X7.7961 Y-23.1190
G01 X7.9060 Y-23.3498
G01 X7.9218 Y-23.4021
G01 X7.8971 Y-23.4489
G01 X7.5650 Y-23.4489
G00 Z1.0000
G00 X7.1543 Y-22.7203
G01 F25.00
G01 Z-0.1000
G01 F120.00
G01 X7.1543 Y-22.8342
G01 X7.1876 Y-22.8500
G01 X7.1987 Y-22.8558
G01 X7.2755 Y-22.9017
G01 X7.2881 Y-22.9100
G01 X7.3585 Y-22.9621
G01 X7.3668 Y-22.9687
G01 X7.4355 Y-23.0306
G01 X7.4431 Y-23.0379
G01 X7.5113 Y-23.1132
G01 X7.5179 Y-23.1215
G01 X7.5709 Y-23.1931
G01 X7.5783 Y-23.2045
G01 X7.6242 Y-23.2813
G01 X7.6300 Y-23.2924
G01 X7.6458 Y-23.3257
G01 X7.7581 Y-23.3257
G01 X7.6900 Y-23.1829
G01 X7.5545 Y-23.0012
G01 X7.3862 Y-22.8495
G01 X7.1915 Y-22.7335
G01 X7.1543 Y-22.7203
G01 X7.0927 Y-22.6331
G01 X7.0927 Y-22.8733
G01 X7.1667 Y-22.9085
G01 X7.2499 Y-22.9584
G01 X7.3277 Y-23.0163
G01 X7.3996 Y-23.0815
G01 X7.4647 Y-23.1534
G01 X7.5216 Y-23.2301
G01 X7.5715 Y-23.3133
G01 X7.6067 Y-23.3873
G01 X7.8530 Y-23.3873
G01 X7.8484 Y-23.3721
G01 X7.7430 Y-23.1509
G01 X7.6003 Y-22.9595
G01 X7.4229 Y-22.7997
G01 X7.2178 Y-22.6775
G01 X7.0927 Y-22.6331
G00 Z1.0000
G00 X5.8350 Y-23.4489
G01 F25.00
G01 Z-0.1000
G01 F120.00
G01 X5.8443 Y-23.4235
G01 X5.8816 Y-23.3447
G01 X5.9282 Y-23.2666
G01 X5.9834 Y-23.1919
G01 X6.0445 Y-23.1245
G01 X6.1119 Y-23.0634
G01 X6.1866 Y-23.0082
G01 X6.2647 Y-22.9616
G01 X6.3435 Y-22.9243
G01 X6.3689 Y-22.9150
G01 X6.3689 Y-22.5825
G01 X6.3273 Y-22.5607
G01 X6.1559 Y-22.6214
G01 X5.9403 Y-22.7499
G01 X5.7540 Y-22.9178
G01 X5.6039 Y-23.1190
G01 X5.4940 Y-23.3498
G01 X5.4782 Y-23.4021
G01 X5.5029 Y-23.4489
G01 X5.8350 Y-23.4489
G01 X5.5470 Y-23.3873
G01 X5.7933 Y-23.3873
G01 X5.8285 Y-23.3133
G01 X5.8784 Y-23.2301
G01 X5.9363 Y-23.1523
G01 X6.0015 Y-23.0804
G01 X6.0734 Y-23.0153
G01 X6.1501 Y-22.9584
G01 X6.2333 Y-22.9085
G01 X6.3073 Y-22.8733
G01 X6.3073 Y-22.6331
G01 X6.1822 Y-22.6775
G01 X5.9771 Y-22.7997
G01 X5.7997 Y-22.9595
G01 X5.6570 Y-23.1509
G01 X5.5516 Y-23.3721
G01 X5.5470 Y-23.3873
G01 X5.6419 Y-23.3257
G01 X5.7542 Y-23.3257
G01 X5.7700 Y-23.2924
G01 X5.7758 Y-23.2813
G01 X5.8217 Y-23.2045
G01 X5.8300 Y-23.1919
G01 X5.8821 Y-23.1215
G01 X5.8887 Y-23.1132
G01 X5.9506 Y-23.0445
G01 X5.9579 Y-23.0369
G01 X6.0332 Y-22.9687
G01 X6.0415 Y-22.9621
G01 X6.1131 Y-22.9091
G01 X6.1245 Y-22.9017
G01 X6.2013 Y-22.8558
G01 X6.2124 Y-22.8500
G01 X6.2457 Y-22.8342
G01 X6.2457 Y-22.7203
G01 X6.2085 Y-22.7335
G01 X6.0138 Y-22.8495
G01 X5.8455 Y-23.0012
G01 X5.7100 Y-23.1829
G01 X5.6419 Y-23.3257
G00 Z1.0000
G00 X12.5144 Y-24.3457
G01 F25.00
G01 Z-0.1000
G01 F120.00
G01 X12.5241 Y-24.3181
G01 X12.5452 Y-24.2820
G01 X12.6089 Y-24.3457
G01 X12.5144 Y-24.3457
G01 X12.4276 Y-24.4073
G01 X12.4679 Y-24.2921
G01 X12.5323 Y-24.1820
G01 X12.6969 Y-24.3467
G01 X12.6683 Y-24.4073
G01 X12.4276 Y-24.4073
G01 X12.7735 Y-24.3361
G01 X12.7593 Y-24.3597
G01 X12.7558 Y-24.3664
G01 X12.7193 Y-24.4435
G01 X12.7100 Y-24.4689
G01 X12.3779 Y-24.4689
G01 X12.3555 Y-24.4266
G01 X12.4117 Y-24.2661
G01 X12.5047 Y-24.1071
G01 X12.5445 Y-24.1071
G01 X12.7735 Y-24.3361
G00 Z1.0000
G00 X12.4276 Y-25.1927
G01 F25.00
G01 Z-0.1000
G01 F120.00
G01 X12.6683 Y-25.1927
G01 X12.7035 Y-25.2667
G01 X12.7534 Y-25.3499
G01 X12.8113 Y-25.4277
G01 X12.8765 Y-25.4996
G01 X12.9484 Y-25.5647
G01 X13.0264 Y-25.6224
G01 X13.1096 Y-25.6722
G01 X13.1960 Y-25.7131
G01 X13.2816 Y-25.7439
G01 X13.2946 Y-25.7478
G01 X13.3829 Y-25.7697
G01 X13.4755 Y-25.7836
G01 X13.4849 Y-25.7843
G01 X13.5724 Y-25.7886
G01 X13.8250 Y-25.7886
G01 X13.9227 Y-25.7838
G01 X14.0112 Y-25.7708
G01 X14.0245 Y-25.7681
G01 X14.1127 Y-25.7458
G01 X14.1970 Y-25.7158
G01 X14.2095 Y-25.7106
G01 X14.2904 Y-25.6722
G01 X14.3736 Y-25.6224
G01 X14.4468 Y-25.5684
G01 X14.4573 Y-25.5598
G01 X14.5197 Y-25.5032
G01 X14.5282 Y-25.4947
G01 X14.5897 Y-25.4266
G01 X14.6466 Y-25.3499
G01 X14.6965 Y-25.2667
G01 X14.7317 Y-25.1927
G01 X14.9724 Y-25.1927
G01 X14.9321 Y-25.3079
G01 X14.8113 Y-25.5146
G01 X14.6530 Y-25.6933
G01 X14.4628 Y-25.8376
G01 X14.3434 Y-25.8957
G01 X14.3255 Y-25.9054
G01 X14.3166 Y-25.9108
G01 X14.2990 Y-25.9231
G01 X14.2827 Y-25.9366
G01 X14.2751 Y-25.9436
G01 X14.2592 Y-25.9603
G01 X14.2428 Y-25.9812
G01 X14.2286 Y-26.0036
G01 X14.2167 Y-26.0273
G01 X14.2072 Y-26.0521
G01 X14.2005 Y-26.0762
G01 X14.1960 Y-26.1023
G01 X14.1942 Y-26.1269
G01 X14.1947 Y-26.1534
G01 X14.1974 Y-26.1763
G01 X14.1992 Y-26.1865
G01 X14.2027 Y-26.2015
G01 X14.2063 Y-26.2141
G01 X14.2133 Y-26.2340
G01 X14.2245 Y-26.2581
G01 X14.2380 Y-26.2809
G01 X14.2527 Y-26.3011
G01 X14.2680 Y-26.3184
G01 X14.2759 Y-26.3263
G01 X14.2911 Y-26.3399
G01 X14.3111 Y-26.3548
G01 X14.3338 Y-26.3685
G01 X14.4175 Y-26.4133
G01 X14.5791 Y-26.5459
G01 X14.7117 Y-26.7075
G01 X14.8103 Y-26.8919
G01 X14.8710 Y-27.0919
G01 X14.8915 Y-27.3000
G01 X14.8710 Y-27.5081
G01 X14.8103 Y-27.7081
G01 X14.7117 Y-27.8925
G01 X14.5791 Y-28.0541
G01 X14.4175 Y-28.1867
G01 X14.2331 Y-28.2853
G01 X14.1960 Y-28.2966
G01 X14.1804 Y-28.3021
G01 X14.1702 Y-28.3062
G01 X14.1528 Y-28.3145
G01 X14.1445 Y-28.3191
G01 X14.1275 Y-28.3295
G01 X14.1119 Y-28.3409
G01 X14.1040 Y-28.3473
G01 X14.0860 Y-28.3640
G01 X14.0730 Y-28.3783
G01 X14.0661 Y-28.3868
G01 X14.0563 Y-28.4002
G01 X14.0511 Y-28.4082
G01 X14.0417 Y-28.4241
G01 X14.0330 Y-28.4421
G01 X14.0287 Y-28.4522
G01 X14.0222 Y-28.4704
G01 X14.0157 Y-28.4956
G01 X14.0141 Y-28.5041
G01 X14.0114 Y-28.5232
G01 X14.0100 Y-28.5474
G01 X14.0101 Y-28.5560
G01 X14.0112 Y-28.5753
G01 X14.0150 Y-28.6011
G01 X14.0217 Y-28.6278
G01 X14.0305 Y-28.6524
G01 X14.0417 Y-28.6759
G01 X14.0552 Y-28.6982
G01 X14.0708 Y-28.7191
G01 X14.0836 Y-28.7335
G01 X14.0908 Y-28.7407
G01 X14.1066 Y-28.7549
G01 X14.1231 Y-28.7674
G01 X14.1332 Y-28.7741
G01 X14.1511 Y-28.7846
G01 X14.1702 Y-28.7938
G01 X14.1796 Y-28.7976
G01 X14.1960 Y-28.8034
G01 X14.2331 Y-28.8147
G01 X14.4175 Y-28.9133
G01 X14.5791 Y-29.0459
G01 X14.7117 Y-29.2075
G01 X14.8103 Y-29.3919
G01 X14.8710 Y-29.5919
G01 X14.8915 Y-29.8000
G01 X14.8710 Y-30.0081
G01 X14.8103 Y-30.2081
G01 X14.7117 Y-30.3925
G01 X14.5791 Y-30.5541
G01 X14.4175 Y-30.6867
G01 X14.2331 Y-30.7853
G01 X14.0331 Y-30.8460
G01 X13.8771 Y-30.8613
G01 X13.5229 Y-30.8613
G01 X13.3669 Y-30.8460
G01 X13.1669 Y-30.7853
G01 X12.9825 Y-30.6867
G01 X12.8209 Y-30.5541
G01 X12.6883 Y-30.3925
G01 X12.5897 Y-30.2081
G01 X12.5290 Y-30.0081
G01 X12.5085 Y-29.8000
G01 X12.5290 Y-29.5919
G01 X12.5897 Y-29.3919
G01 X12.6883 Y-29.2075
G01 X12.8209 Y-29.0459
G01 X12.9825 Y-28.9133
G01 X13.1669 Y-28.8147
G01 X13.2040 Y-28.8034
G01 X13.2204 Y-28.7976
G01 X13.2298 Y-28.7938
G01 X13.2489 Y-28.7846
G01 X13.2668 Y-28.7741
G01 X13.2769 Y-28.7674
G01 X13.2934 Y-28.7549
G01 X13.3092 Y-28.7407
G01 X13.3164 Y-28.7335
G01 X13.3292 Y-28.7191
G01 X13.3448 Y-28.6982
G01 X13.3583 Y-28.6759
G01 X13.3695 Y-28.6524
G01 X13.3788 Y-28.6264
G01 X13.3850 Y-28.6011
G01 X13.3888 Y-28.5753
G01 X13.3899 Y-28.5560
G01 X13.3900 Y-28.5474
G01 X13.3886 Y-28.5232
G01 X13.3859 Y-28.5041
G01 X13.3843 Y-28.4956
G01 X13.3778 Y-28.4704
G01 X13.3713 Y-28.4522
G01 X13.3670 Y-28.4421
G01 X13.3590 Y-28.4254
G01 X13.3489 Y-28.4082
G01 X13.3437 Y-28.4002
G01 X13.3339 Y-28.3868
G01 X13.3270 Y-28.3783
G01 X13.3140 Y-28.3640
G01 X13.2960 Y-28.3473
G01 X13.2881 Y-28.3409
G01 X13.2725 Y-28.3295
G01 X13.2555 Y-28.3191
G01 X13.2472 Y-28.3145
G01 X13.2298 Y-28.3062
G01 X13.2196 Y-28.3021
G01 X13.2040 Y-28.2966
G01 X13.1669 Y-28.2853
G01 X12.9825 Y-28.1867
G01 X12.8209 Y-28.0541
G01 X12.6883 Y-27.8925
G01 X12.5897 Y-27.7081
G01 X12.5290 Y-27.5081
G01 X12.5085 Y-27.3000
G01 X12.5290 Y-27.0919
G01 X12.5897 Y-26.8919
G01 X12.6883 Y-26.7075
G01 X12.8209 Y-26.5459
G01 X12.9825 Y-26.4133
G01 X13.0662 Y-26.3685
G01 X13.0889 Y-26.3548
G01 X13.1089 Y-26.3399
G01 X13.1241 Y-26.3263
G01 X13.1320 Y-26.3184
G01 X13.1473 Y-26.3011
G01 X13.1629 Y-26.2796
G01 X13.1755 Y-26.2581
G01 X13.1867 Y-26.2340
G01 X13.1937 Y-26.2141
G01 X13.1967 Y-26.2041
G01 X13.2002 Y-26.1891
G01 X13.2026 Y-26.1763
G01 X13.2053 Y-26.1534
G01 X13.2058 Y-26.1269
G01 X13.2040 Y-26.1023
G01 X13.1995 Y-26.0762
G01 X13.1923 Y-26.0506
G01 X13.1833 Y-26.0273
G01 X13.1714 Y-26.0036
G01 X13.1572 Y-25.9812
G01 X13.1408 Y-25.9603
G01 X13.1249 Y-25.9436
G01 X13.1173 Y-25.9366
G01 X13.1010 Y-25.9231
G01 X13.0834 Y-25.9108
G01 X13.0745 Y-25.9054
G01 X13.0566 Y-25.8957
G01 X12.9372 Y-25.8376
G01 X12.7470 Y-25.6933
G01 X12.5887 Y-25.5146
G01 X12.4679 Y-25.3079
G01 X12.4276 Y-25.1927
G01 X12.5144 Y-25.2543
G01 X12.6292 Y-25.2543
G01 X12.6450 Y-25.2876
G01 X12.6508 Y-25.2987
G01 X12.6967 Y-25.3755
G01 X12.7041 Y-25.3869
G01 X12.7627 Y-25.4657
G01 X12.7696 Y-25.4737
G01 X12.8256 Y-25.5355
G01 X12.8284 Y-25.5385
G01 X12.8392 Y-25.5491
G01 X12.9013 Y-25.6054
G01 X12.9162 Y-25.6176
G01 X12.9835 Y-25.6676
G01 X12.9922 Y-25.6736
G01 X12.9998 Y-25.6785
G01 X13.0714 Y-25.7214
G01 X13.0743 Y-25.7231
G01 X13.0884 Y-25.7304
G01 X13.1641 Y-25.7663
G01 X13.1738 Y-25.7705
G01 X13.2619 Y-25.8023
G01 X13.2792 Y-25.8075
G01 X13.3694 Y-25.8299
G01 X13.3798 Y-25.8317
G01 X13.4623 Y-25.8439
G01 X13.4807 Y-25.8458
G01 X13.5693 Y-25.8501
G01 X13.8284 Y-25.8502
G01 X13.9185 Y-25.8458
G01 X13.9336 Y-25.8445
G01 X14.0291 Y-25.8302
G01 X14.0395 Y-25.8279
G01 X14.1208 Y-25.8075
G01 X14.1392 Y-25.8019
G01 X14.2188 Y-25.7734
G01 X14.2328 Y-25.7677
G01 X14.3113 Y-25.7306
G01 X14.3207 Y-25.7258
G01 X14.4002 Y-25.6785
G01 X14.4091 Y-25.6728
G01 X14.4907 Y-25.6123
G01 X14.4987 Y-25.6054
G01 X14.5646 Y-25.5455
G01 X14.5744 Y-25.5355
G01 X14.6363 Y-25.4668
G01 X14.6429 Y-25.4585
G01 X14.6950 Y-25.3881
G01 X14.7033 Y-25.3755
G01 X14.7492 Y-25.2987
G01 X14.7550 Y-25.2876
G01 X14.7708 Y-25.2543
G01 X14.8856 Y-25.2543
G01 X14.8759 Y-25.2819
G01 X14.7612 Y-25.4783
G01 X14.6109 Y-25.6479
G01 X14.4304 Y-25.7849
G01 X14.3113 Y-25.8429
G01 X14.2885 Y-25.8557
G01 X14.2656 Y-25.8712
G01 X14.2558 Y-25.8787
G01 X14.2391 Y-25.8929
G01 X14.2318 Y-25.8997
G01 X14.2201 Y-25.9119
G01 X14.2076 Y-25.9260
G01 X14.1965 Y-25.9402
G01 X14.1893 Y-25.9503
G01 X14.1758 Y-25.9717
G01 X14.1643 Y-25.9939
G01 X14.1574 Y-26.0094
G01 X14.1484 Y-26.0335
G01 X14.1406 Y-26.0621
G01 X14.1361 Y-26.0863
G01 X14.1341 Y-26.1023
G01 X14.1325 Y-26.1299
G01 X14.1334 Y-26.1595
G01 X14.1363 Y-26.1839
G01 X14.1391 Y-26.1999
G01 X14.1455 Y-26.2260
G01 X14.1553 Y-26.2547
G01 X14.1653 Y-26.2772
G01 X14.1726 Y-26.2916
G01 X14.1867 Y-26.3151
G01 X14.1388 Y-26.2980
G01 X14.1284 Y-26.2946
G01 X14.0362 Y-26.2713
G01 X14.0206 Y-26.2684
G01 X13.9294 Y-26.2550
G01 X13.9181 Y-26.2541
G01 X13.8284 Y-26.2498
G01 X13.5750 Y-26.2498
G01 X13.5652 Y-26.2500
G01 X13.4819 Y-26.2541
G01 X13.4728 Y-26.2548
G01 X13.4623 Y-26.2561
G01 X13.3735 Y-26.2693
G01 X13.3609 Y-26.2720
G01 X13.2734 Y-26.2941
G01 X13.2619 Y-26.2977
G01 X13.2133 Y-26.3151
G01 X13.2274 Y-26.2916
G01 X13.2347 Y-26.2772
G01 X13.2447 Y-26.2547
G01 X13.2545 Y-26.2260
G01 X13.2609 Y-26.1999
G01 X13.2637 Y-26.1839
G01 X13.2666 Y-26.1595
G01 X13.2675 Y-26.1299
G01 X13.2659 Y-26.1023
G01 X13.2639 Y-26.0863
G01 X13.2594 Y-26.0621
G01 X13.2516 Y-26.0335
G01 X13.2426 Y-26.0094
G01 X13.2357 Y-25.9939
G01 X13.2242 Y-25.9717
G01 X13.2107 Y-25.9503
G01 X13.2035 Y-25.9402
G01 X13.1924 Y-25.9260
G01 X13.1799 Y-25.9119
G01 X13.1682 Y-25.8997
G01 X13.1609 Y-25.8929
G01 X13.1442 Y-25.8787
G01 X13.1344 Y-25.8712
G01 X13.1115 Y-25.8557
G01 X13.0887 Y-25.8429
G01 X12.9696 Y-25.7849
G01 X12.7891 Y-25.6479
G01 X12.6388 Y-25.4783
G01 X12.5241 Y-25.2819
G01 X12.5144 Y-25.2543
G01 X13.2007 Y-25.8458
G01 X13.2408 Y-25.8601
G01 X13.2515 Y-25.8637
G01 X13.2630 Y-25.8669
G01 X13.3570 Y-25.8902
G01 X13.3702 Y-25.8925
G01 X13.4533 Y-25.9049
G01 X13.4683 Y-25.9067
G01 X13.5708 Y-25.9118
G01 X13.8292 Y-25.9118
G01 X13.9212 Y-25.9074
G01 X13.9332 Y-25.9065
G01 X13.9465 Y-25.9049
G01 X14.0367 Y-25.8914
G01 X14.0537 Y-25.8878
G01 X14.1427 Y-25.8654
G01 X14.1580 Y-25.8606
G01 X14.1993 Y-25.8458
G01 X14.1858 Y-25.8587
G01 X14.1661 Y-25.8796
G01 X14.1479 Y-25.9024
G01 X14.1364 Y-25.9187
G01 X14.1214 Y-25.9429
G01 X14.1080 Y-25.9689
G01 X14.1000 Y-25.9870
G01 X14.0933 Y-26.0044
G01 X14.0897 Y-26.0150
G01 X14.0819 Y-26.0427
G01 X14.0777 Y-26.0623
G01 X14.0735 Y-26.0896
G01 X14.0712 Y-26.1199
G01 X14.0709 Y-26.1388
G01 X14.0723 Y-26.1683
G01 X14.0760 Y-26.1973
G01 X14.0802 Y-26.2188
G01 X14.0500 Y-26.2113
G01 X14.0337 Y-26.2081
G01 X13.9450 Y-26.1949
G01 X13.9234 Y-26.1927
G01 X13.8292 Y-26.1882
G01 X13.5750 Y-26.1882
G01 X13.5627 Y-26.1885
G01 X13.5622 Y-26.1885
G01 X13.4788 Y-26.1926
G01 X13.4787 Y-26.1926
G01 X13.4608 Y-26.1941
G01 X13.3637 Y-26.2085
G01 X13.3496 Y-26.2114
G01 X13.3198 Y-26.2188
G01 X13.3240 Y-26.1973
G01 X13.3277 Y-26.1683
G01 X13.3291 Y-26.1388
G01 X13.3288 Y-26.1199
G01 X13.3265 Y-26.0896
G01 X13.3223 Y-26.0623
G01 X13.3181 Y-26.0427
G01 X13.3103 Y-26.0150
G01 X13.3067 Y-26.0044
G01 X13.3000 Y-25.9870
G01 X13.2920 Y-25.9689
G01 X13.2786 Y-25.9429
G01 X13.2636 Y-25.9187
G01 X13.2521 Y-25.9024
G01 X13.2339 Y-25.8796
G01 X13.2142 Y-25.8587
G01 X13.2007 Y-25.8458
G01 X13.3521 Y-25.9520
G01 X13.4512 Y-25.9668
G01 X13.4739 Y-25.9688
G01 X13.5693 Y-25.9733
G01 X13.8337 Y-25.9733
G01 X13.9249 Y-25.9689
G01 X13.9408 Y-25.9677
G01 X13.9555 Y-25.9658
G01 X14.0479 Y-25.9520
G01 X14.0371 Y-25.9790
G01 X14.0311 Y-25.9958
G01 X14.0231 Y-26.0238
G01 X14.0186 Y-26.0432
G01 X14.0138 Y-26.0709
G01 X14.0115 Y-26.0900
G01 X14.0095 Y-26.1193
G01 X14.0094 Y-26.1422
G01 X13.9538 Y-26.1339
G01 X13.9372 Y-26.1320
G01 X13.8360 Y-26.1268
G01 X13.5750 Y-26.1266
G01 X13.5594 Y-26.1270
G01 X13.5591 Y-26.1270
G01 X13.4758 Y-26.1311
G01 X13.4755 Y-26.1311
G01 X13.4651 Y-26.1318
G01 X13.4465 Y-26.1339
G01 X13.3906 Y-26.1422
G01 X13.3905 Y-26.1193
G01 X13.3885 Y-26.0900
G01 X13.3862 Y-26.0709
G01 X13.3814 Y-26.0432
G01 X13.3769 Y-26.0238
G01 X13.3689 Y-25.9958
G01 X13.3629 Y-25.9790
G01 X13.3521 Y-25.9520
G01 X13.4410 Y-26.0276
G01 X13.4437 Y-26.0279
G01 X13.4703 Y-26.0303
G01 X13.5674 Y-26.0349
G01 X13.8251 Y-26.0350
G01 X13.8428 Y-26.0346
G01 X13.9295 Y-26.0303
G01 X13.9443 Y-26.0292
G01 X13.9590 Y-26.0276
G01 X13.9539 Y-26.0552
G01 X13.9515 Y-26.0715
G01 X13.9286 Y-26.0696
G01 X13.8317 Y-26.0651
G01 X13.5750 Y-26.0650
G01 X13.5572 Y-26.0654
G01 X13.4723 Y-26.0696
G01 X13.4661 Y-26.0699
G01 X13.4626 Y-26.0702
G01 X13.4616 Y-26.0703
G01 X13.4615 Y-26.0703
G01 X13.4607 Y-26.0703
G01 X13.4604 Y-26.0704
G01 X13.4485 Y-26.0715
G01 X13.4461 Y-26.0553
G01 X13.4410 Y-26.0276
G01 X13.5750 Y-26.3114
G01 X13.4789 Y-26.3161
G01 X13.3829 Y-26.3303
G01 X13.2887 Y-26.3538
G01 X13.1974 Y-26.3864
G01 X13.1096 Y-26.4278
G01 X13.0264 Y-26.4776
G01 X12.9484 Y-26.5353
G01 X12.8765 Y-26.6004
G01 X12.8113 Y-26.6723
G01 X12.7534 Y-26.7501
G01 X12.7035 Y-26.8333
G01 X12.6619 Y-26.9210
G01 X12.6292 Y-27.0123
G01 X12.6055 Y-27.1064
G01 X12.5912 Y-27.2023
G01 X12.5865 Y-27.2940
G01 X12.5866 Y-27.3068
G01 X12.5912 Y-27.3977
G01 X12.6042 Y-27.4862
G01 X12.6069 Y-27.4995
G01 X12.6288 Y-27.5863
G01 X12.6592 Y-27.6720
G01 X12.6644 Y-27.6845
G01 X12.7028 Y-27.7654
G01 X12.7494 Y-27.8435
G01 X12.7569 Y-27.8548
G01 X12.8103 Y-27.9266
G01 X12.8713 Y-27.9941
G01 X12.8809 Y-28.0037
G01 X12.9473 Y-28.0637
G01 X13.0202 Y-28.1181
G01 X13.0293 Y-28.1242
G01 X13.1037 Y-28.1689
G01 X13.1151 Y-28.1749
G01 X13.1974 Y-28.2136
G01 X13.2816 Y-28.2439
G01 X13.2946 Y-28.2478
G01 X13.3814 Y-28.2695
G01 X13.4755 Y-28.2836
G01 X13.4849 Y-28.2843
G01 X13.5750 Y-28.2886
G01 X13.8276 Y-28.2886
G01 X13.9159 Y-28.2843
G01 X13.9287 Y-28.2830
G01 X14.0171 Y-28.2697
G01 X14.1094 Y-28.2468
G01 X14.1184 Y-28.2439
G01 X14.1970 Y-28.2158
G01 X14.2095 Y-28.2106
G01 X14.2917 Y-28.1715
G01 X14.3736 Y-28.1224
