(G-CODE GENERATED BY FLATCAM v8.994 - www.flatcam.org - Version Date: 2020/11/7)

(Name: LUCES-F_Cu.gbr_ncc_cnc)
(Type: G-code from Geometry)
(Units: MM)

(Created on Tuesday, 10 August 2021 at 16:13)

(This preprocessor is the default preprocessor used by FlatCAM.)
(It is made to work with MACH3 compatible motion controllers.)

(TOOL DIAMETER: 0.154 mm)
(Feedrate_XY: 100.0 mm/min)
(Feedrate_Z: 25.0 mm/min)
(Feedrate rapids 1500.0 mm/min)

(Z_Cut: -0.1 mm)
(Z_Move: 1.0 mm)
(Z Start: None mm)
(Z End: 15.0 mm)
(X,Y End: None mm)
(Steps per circle: 64)
(Preprocessor Geometry: default)

(X range:  -23.8331 ...   24.0218  mm)
(Y range:  -33.4228 ...   33.3631  mm)

(Spindle Speed: 1000.0 RPM)
G21
G90
G94

G01 F100.00

M5
G00 Z15.0000
G00 X0.0000 Y0.0000
T1
M6    
(MSG, Change to Tool Dia = 0.1540)
M0
G00 Z15.0000

M03 S1000.0
G01 F100.00
G00 X-0.3755 Y-1.0406
G01 F25.00
G01 Z-0.1000
G01 F100.00
G01 X-0.3726 Y-1.0706
G01 X-0.3681 Y-1.1005
G01 X-0.3630 Y-1.1264
G01 X-0.3566 Y-1.1521
G01 X-0.3479 Y-1.1810
G01 X-0.3376 Y-1.2094
G01 X-0.3275 Y-1.2338
G01 X-0.3162 Y-1.2577
G01 X-0.3020 Y-1.2844
G01 X-0.2864 Y-1.3103
G01 X-0.2717 Y-1.3322
G01 X-0.2560 Y-1.3535
G01 X-0.2369 Y-1.3769
G01 X-0.2166 Y-1.3992
G01 X-0.1978 Y-1.4179
G01 X-0.1783 Y-1.4356
G01 X-0.1535 Y-1.4560
G01 X-0.1322 Y-1.4717
G01 X-0.1103 Y-1.4864
G01 X-0.0844 Y-1.5020
G01 X-0.0577 Y-1.5162
G01 X-0.0338 Y-1.5275
G01 X-0.0094 Y-1.5376
G01 X0.0190 Y-1.5479
G01 X0.0479 Y-1.5566
G01 X0.0736 Y-1.5630
G01 X0.0995 Y-1.5681
G01 X0.1294 Y-1.5726
G01 X0.1594 Y-1.5755
G01 X0.1858 Y-1.5768
G01 X0.2123 Y-1.5768
G01 X0.2424 Y-1.5754
G01 X0.2725 Y-1.5724
G01 X0.2986 Y-1.5685
G01 X0.3246 Y-1.5633
G01 X0.3539 Y-1.5561
G01 X0.3828 Y-1.5472
G01 X0.4076 Y-1.5383
G01 X0.4321 Y-1.5282
G01 X0.4594 Y-1.5154
G01 X0.4860 Y-1.5011
G01 X0.5087 Y-1.4875
G01 X0.5322 Y-1.4717
G01 X0.5550 Y-1.4549
G01 X0.5754 Y-1.4381
G01 X0.5978 Y-1.4179
G01 X0.6192 Y-1.3965
G01 X0.6369 Y-1.3769
G01 X0.6537 Y-1.3564
G01 X0.6717 Y-1.3322
G01 X0.6885 Y-1.3071
G01 X0.7020 Y-1.2844
G01 X0.7145 Y-1.2611
G01 X0.7275 Y-1.2338
G01 X0.7390 Y-1.2059
G01 X0.7479 Y-1.1810
G01 X0.7555 Y-1.1557
G01 X0.7630 Y-1.1264
G01 X0.7688 Y-1.0968
G01 X0.7726 Y-1.0706
G01 X0.7752 Y-1.0443
G01 X0.7768 Y-1.0142
G01 X0.7767 Y-0.9839
G01 X0.7754 Y-0.9576
G01 X0.7728 Y-0.9312
G01 X0.7685 Y-0.9014
G01 X0.7625 Y-0.8717
G01 X0.7561 Y-0.8461
G01 X0.7484 Y-0.8208
G01 X0.7383 Y-0.7924
G01 X0.7267 Y-0.7645
G01 X0.7154 Y-0.7406
G01 X0.7029 Y-0.7173
G01 X0.6875 Y-0.6913
G01 X0.6706 Y-0.6662
G01 X0.6549 Y-0.6450
G01 X0.6381 Y-0.6246
G01 X0.6179 Y-0.6022
G01 X0.5965 Y-0.5808
G01 X0.5769 Y-0.5631
G01 X0.5564 Y-0.5463
G01 X0.5307 Y-0.5272
G01 X0.5087 Y-0.5125
G01 X0.4860 Y-0.4989
G01 X0.4594 Y-0.4846
G01 X0.4321 Y-0.4718
G01 X0.4076 Y-0.4617
G01 X0.3828 Y-0.4528
G01 X0.3539 Y-0.4439
G01 X0.3246 Y-0.4367
G01 X0.2986 Y-0.4315
G01 X0.2725 Y-0.4276
G01 X0.2424 Y-0.4246
G01 X0.2123 Y-0.4232
G01 X0.1858 Y-0.4232
G01 X0.1594 Y-0.4245
G01 X0.1294 Y-0.4274
G01 X0.1014 Y-0.4315
G01 X0.0754 Y-0.4367
G01 X0.0461 Y-0.4439
G01 X0.0172 Y-0.4528
G01 X-0.0076 Y-0.4617
G01 X-0.0321 Y-0.4718
G01 X-0.0594 Y-0.4846
G01 X-0.0860 Y-0.4989
G01 X-0.1087 Y-0.5125
G01 X-0.1307 Y-0.5272
G01 X-0.1550 Y-0.5451
G01 X-0.1769 Y-0.5631
G01 X-0.1992 Y-0.5834
G01 X-0.2179 Y-0.6022
G01 X-0.2356 Y-0.6217
G01 X-0.2537 Y-0.6436
G01 X-0.2717 Y-0.6678
G01 X-0.2875 Y-0.6913
G01 X-0.3020 Y-0.7156
G01 X-0.3162 Y-0.7423
G01 X-0.3275 Y-0.7662
G01 X-0.3376 Y-0.7906
G01 X-0.3472 Y-0.8172
G01 X-0.3561 Y-0.8461
G01 X-0.3633 Y-0.8754
G01 X-0.3685 Y-0.9014
G01 X-0.3724 Y-0.9275
G01 X-0.3754 Y-0.9576
G01 X-0.3768 Y-0.9877
G01 X-0.3768 Y-1.0142
G01 X-0.3755 Y-1.0406
G01 X-0.4524 Y-1.0443
G01 X-0.4485 Y-1.0838
G01 X-0.4442 Y-1.1127
G01 X-0.4383 Y-1.1424
G01 X-0.4292 Y-1.1781
G01 X-0.4213 Y-1.2042
G01 X-0.4115 Y-1.2318
G01 X-0.3982 Y-1.2642
G01 X-0.3824 Y-1.2974
G01 X-0.3695 Y-1.3215
G01 X-0.3545 Y-1.3467
G01 X-0.3352 Y-1.3758
G01 X-0.3132 Y-1.4053
G01 X-0.2958 Y-1.4264
G01 X-0.2762 Y-1.4482
G01 X-0.2710 Y-1.4536
G01 X-0.2536 Y-1.4710
G01 X-0.2516 Y-1.4730
G01 X-0.2243 Y-1.4976
G01 X-0.2031 Y-1.5150
G01 X-0.1796 Y-1.5325
G01 X-0.1507 Y-1.5520
G01 X-0.1190 Y-1.5708
G01 X-0.0949 Y-1.5837
G01 X-0.0685 Y-1.5963
G01 X-0.0362 Y-1.6098
G01 X-0.0015 Y-1.6221
G01 X0.0247 Y-1.6300
G01 X0.0530 Y-1.6372
G01 X0.0873 Y-1.6442
G01 X0.1237 Y-1.6495
G01 X0.1510 Y-1.6521
G01 X0.1802 Y-1.6536
G01 X0.2151 Y-1.6538
G01 X0.2519 Y-1.6519
G01 X0.2791 Y-1.6492
G01 X0.3081 Y-1.6449
G01 X0.3442 Y-1.6379
G01 X0.3781 Y-1.6292
G01 X0.4060 Y-1.6207
G01 X0.4345 Y-1.6105
G01 X0.4685 Y-1.5963
G01 X0.4949 Y-1.5837
G01 X0.5190 Y-1.5708
G01 X0.5507 Y-1.5520
G01 X0.5796 Y-1.5325
G01 X0.6031 Y-1.5150
G01 X0.6243 Y-1.4976
G01 X0.6503 Y-1.4743
G01 X0.6762 Y-1.4482
G01 X0.6958 Y-1.4264
G01 X0.7132 Y-1.4053
G01 X0.7352 Y-1.3758
G01 X0.7545 Y-1.3467
G01 X0.7695 Y-1.3215
G01 X0.7824 Y-1.2974
G01 X0.7982 Y-1.2642
G01 X0.8115 Y-1.2318
G01 X0.8213 Y-1.2042
G01 X0.8300 Y-1.1753
G01 X0.8389 Y-1.1396
G01 X0.8442 Y-1.1127
G01 X0.8485 Y-1.0838
G01 X0.8521 Y-1.0490
G01 X0.8538 Y-1.0123
G01 X0.8538 Y-0.9849
G01 X0.8524 Y-0.9557
G01 X0.8489 Y-0.9190
G01 X0.8445 Y-0.8891
G01 X0.8389 Y-0.8604
G01 X0.8305 Y-0.8265
G01 X0.8197 Y-0.7913
G01 X0.8098 Y-0.7638
G01 X0.7994 Y-0.7385
G01 X0.7837 Y-0.7051
G01 X0.7671 Y-0.6744
G01 X0.7520 Y-0.6493
G01 X0.7368 Y-0.6266
G01 X0.7150 Y-0.5969
G01 X0.6958 Y-0.5736
G01 X0.6762 Y-0.5518
G01 X0.6516 Y-0.5270
G01 X0.6243 Y-0.5024
G01 X0.6031 Y-0.4850
G01 X0.5796 Y-0.4675
G01 X0.5507 Y-0.4480
G01 X0.5190 Y-0.4292
G01 X0.4949 Y-0.4163
G01 X0.4685 Y-0.4037
G01 X0.4362 Y-0.3902
G01 X0.4015 Y-0.3779
G01 X0.3753 Y-0.3700
G01 X0.3470 Y-0.3628
G01 X0.3127 Y-0.3558
G01 X0.2838 Y-0.3515
G01 X0.2443 Y-0.3476
G01 X0.2151 Y-0.3462
G01 X0.1830 Y-0.3463
G01 X0.1510 Y-0.3479
G01 X0.1162 Y-0.3515
G01 X0.0873 Y-0.3558
G01 X0.0558 Y-0.3621
G01 X0.0247 Y-0.3700
G01 X-0.0060 Y-0.3793
G01 X-0.0362 Y-0.3902
G01 X-0.0659 Y-0.4025
G01 X-0.0949 Y-0.4163
G01 X-0.1256 Y-0.4329
G01 X-0.1507 Y-0.4480
G01 X-0.1773 Y-0.4659
G01 X-0.2031 Y-0.4850
G01 X-0.2279 Y-0.5054
G01 X-0.2516 Y-0.5270
G01 X-0.2743 Y-0.5497
G01 X-0.2958 Y-0.5736
G01 X-0.3161 Y-0.5984
G01 X-0.3352 Y-0.6242
G01 X-0.3530 Y-0.6509
G01 X-0.3695 Y-0.6785
G01 X-0.3846 Y-0.7068
G01 X-0.3982 Y-0.7358
G01 X-0.4105 Y-0.7655
G01 X-0.4213 Y-0.7958
G01 X-0.4310 Y-0.8283
G01 X-0.4379 Y-0.8558
G01 X-0.4437 Y-0.8845
G01 X-0.4495 Y-0.9237
G01 X-0.4523 Y-0.9528
G01 X-0.4537 Y-0.9830
G01 X-0.4538 Y-1.0151
G01 X-0.4524 Y-1.0443
G01 X-0.0542 Y-1.9169
G01 X-0.0485 Y-1.9024
G01 X-0.0403 Y-1.8788
G01 X-0.0361 Y-1.8648
G01 X-0.0307 Y-1.8430
G01 X-0.0273 Y-1.8264
G01 X-0.0240 Y-1.8049
G01 X-0.0223 Y-1.7916
G01 X-0.0212 Y-1.7771
G01 X0.0216 Y-1.7880
G01 X0.0605 Y-1.7958
G01 X0.1002 Y-1.8018
G01 X0.1392 Y-1.8057
G01 X0.1792 Y-1.8077
G01 X0.2189 Y-1.8077
G01 X0.2585 Y-1.8058
G01 X0.2966 Y-1.8022
G01 X0.3372 Y-1.7962
G01 X0.3761 Y-1.7885
G01 X0.4146 Y-1.7790
G01 X0.4521 Y-1.7676
G01 X0.4899 Y-1.7542
G01 X0.5261 Y-1.7392
G01 X0.5620 Y-1.7223
G01 X0.5941 Y-1.7053
G01 X0.6260 Y-1.6865
G01 X0.6380 Y-1.6789
G01 X0.6660 Y-1.6600
G01 X0.6952 Y-1.6384
G01 X0.7225 Y-1.6162
G01 X0.7327 Y-1.6074
G01 X0.7578 Y-1.5845
G01 X0.7806 Y-1.5619
G01 X0.7903 Y-1.5516
G01 X0.8153 Y-1.5236
G01 X0.8364 Y-1.4978
G01 X0.8566 Y-1.4708
G01 X0.8645 Y-1.4596
G01 X0.8834 Y-1.4311
G01 X0.9006 Y-1.4023
G01 X0.9090 Y-1.3873
G01 X0.9243 Y-1.3998
G01 X0.9481 Y-1.4172
G01 X0.9631 Y-1.4268
G01 X0.9875 Y-1.4410
G01 X0.9800 Y-1.4565
G01 X0.9689 Y-1.4821
G01 X0.9637 Y-1.4963
G01 X0.9631 Y-1.4979
G01 X0.9587 Y-1.5111
G01 X0.9581 Y-1.5130
G01 X0.9552 Y-1.5221
G01 X0.9511 Y-1.5376
G01 X0.9452 Y-1.5637
G01 X0.9428 Y-1.5781
G01 X0.9394 Y-1.6033
G01 X0.9381 Y-1.6199
G01 X0.9370 Y-1.6480
G01 X0.9370 Y-1.9169
G01 X-0.0542 Y-1.9169
G01 X0.4789 Y-1.8399
G01 X0.5105 Y-1.8286
G01 X0.5251 Y-1.8231
G01 X0.5578 Y-1.8094
G01 X0.5904 Y-1.7942
G01 X0.6041 Y-1.7873
G01 X0.6354 Y-1.7705
G01 X0.6657 Y-1.7524
G01 X0.6791 Y-1.7440
G01 X0.7067 Y-1.7256
G01 X0.7454 Y-1.6969
G01 X0.7718 Y-1.6754
G01 X0.7833 Y-1.6655
G01 X0.8057 Y-1.6451
G01 X0.8169 Y-1.6344
G01 X0.8416 Y-1.6095
G01 X0.8641 Y-1.5849
G01 X0.8615 Y-1.6104
G01 X0.8601 Y-1.6438
G01 X0.8600 Y-1.8399
G01 X0.4789 Y-1.8399
G01 X1.1043 Y-1.4040
G01 X1.0899 Y-1.4218
G01 X1.0734 Y-1.4457
G01 X1.0674 Y-1.4555
G01 X1.0589 Y-1.4707
G01 X1.0512 Y-1.4858
G01 X1.0401 Y-1.5115
G01 X1.0303 Y-1.5398
G01 X1.0269 Y-1.5517
G01 X1.0227 Y-1.5696
G01 X1.0193 Y-1.5870
G01 X1.0155 Y-1.6157
G01 X1.0140 Y-1.6464
G01 X1.0140 Y-1.9939
G01 X-0.1950 Y-1.9939
G01 X-0.1790 Y-1.9759
G01 X-0.1637 Y-1.9558
G01 X-0.1549 Y-1.9430
G01 X-0.1426 Y-1.9226
G01 X-0.1349 Y-1.9079
G01 X-0.1240 Y-1.8841
G01 X-0.1149 Y-1.8591
G01 X-0.1105 Y-1.8447
G01 X-0.1042 Y-1.8188
G01 X-0.1033 Y-1.8141
G01 X-0.1028 Y-1.8113
G01 X-0.1026 Y-1.8104
G01 X-0.1002 Y-1.7939
G01 X-0.0983 Y-1.7765
G01 X-0.0972 Y-1.7518
G01 X-0.0974 Y-1.7367
G01 X-0.0982 Y-1.7204
G01 X-0.0992 Y-1.7091
G01 X-0.1031 Y-1.6828
G01 X-0.1075 Y-1.6630
G01 X-0.0945 Y-1.6690
G01 X-0.0648 Y-1.6813
G01 X-0.0311 Y-1.6935
G01 X0.0041 Y-1.7042
G01 X0.0380 Y-1.7128
G01 X0.0741 Y-1.7200
G01 X0.1115 Y-1.7256
G01 X0.1472 Y-1.7291
G01 X0.1858 Y-1.7308
G01 X0.2189 Y-1.7307
G01 X0.2557 Y-1.7288
G01 X0.2904 Y-1.7254
G01 X0.3305 Y-1.7192
G01 X0.3657 Y-1.7119
G01 X0.3959 Y-1.7042
G01 X0.4239 Y-1.6958
G01 X0.4613 Y-1.6827
G01 X0.4914 Y-1.6703
G01 X0.5278 Y-1.6533
G01 X0.5595 Y-1.6365
G01 X0.5903 Y-1.6181
G01 X0.6201 Y-1.5982
G01 X0.6505 Y-1.5757
G01 X0.6782 Y-1.5529
G01 X0.7047 Y-1.5288
G01 X0.7307 Y-1.5027
G01 X0.7541 Y-1.4767
G01 X0.7768 Y-1.4490
G01 X0.7982 Y-1.4201
G01 X0.8196 Y-1.3879
G01 X0.8365 Y-1.3595
G01 X0.8548 Y-1.3248
G01 X0.8699 Y-1.2923
G01 X0.8813 Y-1.2648
G01 X0.8882 Y-1.2460
G01 X0.8971 Y-1.2599
G01 X0.9113 Y-1.2790
G01 X0.9197 Y-1.2893
G01 X0.9344 Y-1.3055
G01 X0.9444 Y-1.3155
G01 X0.9614 Y-1.3308
G01 X0.9702 Y-1.3380
G01 X0.9851 Y-1.3491
G01 X0.9988 Y-1.3584
G01 X1.0176 Y-1.3696
G01 X1.0293 Y-1.3759
G01 X1.0465 Y-1.3841
G01 X1.0596 Y-1.3896
G01 X1.0793 Y-1.3968
G01 X1.0919 Y-1.4008
G01 X1.1043 Y-1.4040
G00 Z1.0000
G00 X2.1493 Y-1.5929
G01 F25.00
G01 Z-0.1000
G01 F100.00
G01 X2.1645 Y-1.5906
G01 X2.1780 Y-1.5880
G01 X2.2126 Y-1.5792
G01 X2.2100 Y-1.5985
G01 X2.2086 Y-1.6122
G01 X2.2070 Y-1.6493
G01 X2.2070 Y-3.0427
G01 X2.1530 Y-2.9887
G01 X2.1530 Y-1.6498
G01 X2.1516 Y-1.6155
G01 X2.1493 Y-1.5929
G01 X2.3339 Y-1.4225
G01 X2.3339 Y-1.4618
G01 X2.3232 Y-1.4818
G01 X2.3121 Y-1.5066
G01 X2.3065 Y-1.5211
G01 X2.2981 Y-1.5474
G01 X2.2917 Y-1.5739
G01 X2.2888 Y-1.5901
G01 X2.2855 Y-1.6157
G01 X2.2841 Y-1.6438
G01 X2.2840 Y-3.2286
G01 X2.0760 Y-3.0206
G01 X2.0760 Y-1.6462
G01 X2.0750 Y-1.6235
G01 X2.0741 Y-1.6117
G01 X2.0694 Y-1.5794
G01 X2.0666 Y-1.5664
G01 X2.0609 Y-1.5439
G01 X2.0576 Y-1.5331
G01 X2.0525 Y-1.5186
G01 X2.0767 Y-1.5201
G01 X2.0889 Y-1.5204
G01 X2.1123 Y-1.5195
G01 X2.1250 Y-1.5185
G01 X2.1481 Y-1.5153
G01 X2.1616 Y-1.5128
G01 X2.1847 Y-1.5071
G01 X2.1991 Y-1.5027
G01 X2.2189 Y-1.4956
G01 X2.2311 Y-1.4905
G01 X2.2526 Y-1.4803
G01 X2.2662 Y-1.4728
G01 X2.2861 Y-1.4606
G01 X2.3062 Y-1.4461
G01 X2.3188 Y-1.4361
G01 X2.3339 Y-1.4225
G01 X2.4547 Y-1.5647
G01 X2.4521 Y-1.5713
G01 X2.4467 Y-1.5879
G01 X2.4419 Y-1.6083
G01 X2.4390 Y-1.6291
G01 X2.4380 Y-1.6500
G01 X2.4380 Y-3.3000
G01 X2.4391 Y-3.3222
G01 X2.4417 Y-3.3406
G01 X2.4432 Y-3.3480
G01 X2.4472 Y-3.3641
G01 X2.4490 Y-3.3695
G01 X2.4553 Y-3.3869
G01 X2.4631 Y-3.4036
G01 X2.4667 Y-3.4103
G01 X2.4763 Y-3.4261
G01 X2.4872 Y-3.4410
G01 X2.4920 Y-3.4469
G01 X2.5045 Y-3.4605
G01 X2.5181 Y-3.4730
G01 X2.5240 Y-3.4778
G01 X2.5389 Y-3.4887
G01 X2.5597 Y-3.5011
G01 X2.5764 Y-3.5090
G01 X2.5817 Y-3.5111
G01 X2.5991 Y-3.5172
G01 X2.6189 Y-3.5222
G01 X2.6428 Y-3.5259
G01 X2.6631 Y-3.5270
G01 X2.9688 Y-3.5269
G01 X2.9891 Y-3.5257
G01 X3.0074 Y-3.5230
G01 X3.0130 Y-3.5218
G01 X3.0291 Y-3.5178
G01 X3.0345 Y-3.5160
G01 X3.0519 Y-3.5097
G01 X3.0686 Y-3.5019
G01 X3.0753 Y-3.4983
G01 X3.0911 Y-3.4887
G01 X3.1060 Y-3.4778
G01 X3.1119 Y-3.4730
G01 X3.1255 Y-3.4605
G01 X3.1380 Y-3.4469
G01 X3.1428 Y-3.4410
G01 X3.1548 Y-3.4245
G01 X3.1652 Y-3.4070
G01 X3.1732 Y-3.3903
G01 X3.1761 Y-3.3833
G01 X3.1822 Y-3.3659
G01 X3.1868 Y-3.3480
G01 X3.1883 Y-3.3406
G01 X3.1909 Y-3.3222
G01 X3.1920 Y-3.3019
G01 X3.1920 Y-1.6481
G01 X3.1909 Y-1.6278
G01 X3.1880 Y-1.6076
G01 X3.1832 Y-1.5877
G01 X3.1810 Y-1.5805
G01 X3.1747 Y-1.5631
G01 X3.1652 Y-1.5430
G01 X3.1537 Y-1.5239
G01 X3.1421 Y-1.5081
G01 X3.1421 Y0.2230
G01 X3.7500 Y0.2230
G01 X3.7802 Y0.2244
G01 X3.8118 Y0.2289
G01 X3.8360 Y0.2346
G01 X3.8429 Y0.2365
G01 X3.8681 Y0.2451
G01 X3.8925 Y0.2558
G01 X3.8989 Y0.2589
G01 X3.9221 Y0.2720
G01 X3.9471 Y0.2890
G01 X3.9676 Y0.3060
G01 X3.9729 Y0.3108
G01 X3.9917 Y0.3297
G01 X4.0087 Y0.3501
G01 X4.0130 Y0.3558
G01 X4.0280 Y0.3779
G01 X4.0435 Y0.4058
G01 X4.0549 Y0.4319
G01 X4.0635 Y0.4571
G01 X4.0654 Y0.4640
G01 X4.0714 Y0.4899
G01 X4.0752 Y0.5163
G01 X4.0759 Y0.5234
G01 X4.0770 Y0.5482
G01 X4.0770 Y1.4500
G01 X4.0752 Y1.4839
G01 X4.0707 Y1.5138
G01 X4.0639 Y1.5413
G01 X4.0617 Y1.5485
G01 X4.0521 Y1.5751
G01 X4.0401 Y1.6008
G01 X4.0365 Y1.6074
G01 X4.0219 Y1.6317
G01 X4.0051 Y1.6545
G01 X4.0003 Y1.6603
G01 X3.9812 Y1.6812
G01 X3.9603 Y1.7003
G01 X3.9545 Y1.7051
G01 X3.9317 Y1.7219
G01 X3.9074 Y1.7365
G01 X3.9008 Y1.7401
G01 X3.8751 Y1.7521
G01 X3.8449 Y1.7629
G01 X3.8138 Y1.7707
G01 X3.7821 Y1.7754
G01 X3.7519 Y1.7770
G01 X3.0500 Y1.7770
G01 X3.0179 Y1.7754
G01 X2.9899 Y1.7714
G01 X2.9825 Y1.7699
G01 X2.9551 Y1.7629
G01 X2.9284 Y1.7535
G01 X2.9214 Y1.7506
G01 X2.8959 Y1.7384
G01 X2.8715 Y1.7239
G01 X2.8652 Y1.7197
G01 X2.8426 Y1.7028
G01 X2.8215 Y1.6838
G01 X2.8162 Y1.6785
G01 X2.7972 Y1.6574
G01 X2.7803 Y1.6348
G01 X2.7761 Y1.6285
G01 X2.7616 Y1.6041
G01 X2.7479 Y1.5751
G01 X2.7371 Y1.5449
G01 X2.7293 Y1.5138
G01 X2.7246 Y1.4821
G01 X2.7230 Y1.4519
G01 X2.7230 Y0.7856
G01 X2.5824 Y0.6450
G01 X2.5621 Y0.6225
G01 X2.5441 Y0.5983
G01 X2.5265 Y0.5692
G01 X2.5143 Y0.5436
G01 X2.5114 Y0.5367
G01 X2.5020 Y0.5100
G01 X2.4950 Y0.4825
G01 X2.4935 Y0.4751
G01 X2.4895 Y0.4471
G01 X2.4879 Y0.4150
G01 X2.4879 Y-1.5082
G01 X2.4828 Y-1.5146
G01 X2.4711 Y-1.5320
G01 X2.4618 Y-1.5488
G01 X2.4547 Y-1.5647
G00 Z1.0000
G00 X3.7579 Y-1.5081
G01 F25.00
G01 Z-0.1000
G01 F100.00
G01 X3.7463 Y-1.5239
G01 X3.7348 Y-1.5430
G01 X3.7253 Y-1.5631
G01 X3.7190 Y-1.5805
G01 X3.7168 Y-1.5877
G01 X3.7120 Y-1.6076
G01 X3.7091 Y-1.6278
G01 X3.7080 Y-1.6481
G01 X3.7080 Y-3.3000
G01 X3.7091 Y-3.3222
G01 X3.7120 Y-3.3424
G01 X3.7168 Y-3.3623
G01 X3.7190 Y-3.3695
G01 X3.7253 Y-3.3869
G01 X3.7348 Y-3.4070
G01 X3.7442 Y-3.4229
G01 X3.7484 Y-3.4292
G01 X3.7595 Y-3.4440
G01 X3.7732 Y-3.4592
G01 X3.7881 Y-3.4730
G01 X3.7940 Y-3.4778
G01 X3.8089 Y-3.4887
G01 X3.8280 Y-3.5002
G01 X3.8481 Y-3.5097
G01 X3.8673 Y-3.5167
G01 X3.8889 Y-3.5222
G01 X3.8969 Y-3.5237
G01 X3.8991 Y-3.5291
G01 X3.9068 Y-3.5453
G01 X3.9150 Y-3.5591
G01 X3.9192 Y-3.5653
G01 X3.9288 Y-3.5782
G01 X3.9408 Y-3.5915
G01 X3.9540 Y-3.6037
G01 X3.9598 Y-3.6085
G01 X3.9759 Y-3.6200
G01 X3.9897 Y-3.6282
G01 X4.0042 Y-3.6351
G01 X4.0094 Y-3.6374
G01 X4.0245 Y-3.6428
G01 X4.0419 Y-3.6474
G01 X4.0474 Y-3.6485
G01 X4.0633 Y-3.6509
G01 X4.0831 Y-3.6520
G01 X4.1048 Y-3.6511
G01 X4.1226 Y-3.6485
G01 X4.1437 Y-3.6434
G01 X4.1588 Y-3.6380
G01 X4.1658 Y-3.6351
G01 X4.1803 Y-3.6282
G01 X4.1941 Y-3.6200
G01 X4.2003 Y-3.6158
G01 X4.2132 Y-3.6062
G01 X4.2251 Y-3.5955
G01 X4.2305 Y-3.5901
G01 X4.2412 Y-3.5782
G01 X4.2508 Y-3.5653
G01 X4.2550 Y-3.5591
G01 X4.2632 Y-3.5453
G01 X4.2709 Y-3.5291
G01 X4.2731 Y-3.5237
G01 X4.2811 Y-3.5222
G01 X4.3027 Y-3.5167
G01 X4.3219 Y-3.5097
G01 X4.3403 Y-3.5011
G01 X4.3579 Y-3.4908
G01 X4.3642 Y-3.4866
G01 X4.3790 Y-3.4755
G01 X4.3942 Y-3.4618
G01 X4.4105 Y-3.4440
G01 X4.4216 Y-3.4292
G01 X4.4248 Y-3.4245
G01 X4.4333 Y-3.4103
G01 X4.4369 Y-3.4036
G01 X4.4447 Y-3.3869
G01 X4.4522 Y-3.3659
G01 X4.4576 Y-3.3443
G01 X4.4609 Y-3.3222
G01 X4.4620 Y-3.3000
G01 X4.4620 Y-1.6481
G01 X4.4609 Y-1.6278
G01 X4.4580 Y-1.6076
G01 X4.4532 Y-1.5877
G01 X4.4510 Y-1.5805
G01 X4.4447 Y-1.5631
G01 X4.4352 Y-1.5430
G01 X4.4237 Y-1.5239
G01 X4.4121 Y-1.5081
G01 X4.4121 Y-1.0005
G01 X5.6707 Y0.2581
G01 X5.6881 Y0.2539
G01 X5.7161 Y0.2498
G01 X5.7500 Y0.2480
G01 X6.2500 Y0.2480
G01 X6.2821 Y0.2496
G01 X6.3101 Y0.2536
G01 X6.3175 Y0.2551
G01 X6.3449 Y0.2621
G01 X6.3751 Y0.2729
G01 X6.4041 Y0.2866
G01 X6.4317 Y0.3031
G01 X6.4574 Y0.3222
G01 X6.4812 Y0.3438
G01 X6.5028 Y0.3676
G01 X6.5197 Y0.3902
G01 X6.5239 Y0.3965
G01 X6.5384 Y0.4209
G01 X6.5506 Y0.4464
G01 X6.5535 Y0.4534
G01 X6.5629 Y0.4801
G01 X6.5699 Y0.5075
G01 X6.5714 Y0.5149
G01 X6.5750 Y0.5392
G01 X6.5757 Y0.5467
G01 X6.5770 Y0.5750
G01 X6.5769 Y1.5288
G01 X6.5754 Y1.5571
G01 X6.5714 Y1.5851
G01 X6.5699 Y1.5925
G01 X6.5639 Y1.6163
G01 X6.5617 Y1.6235
G01 X6.5521 Y1.6501
G01 X6.5401 Y1.6758
G01 X6.5365 Y1.6824
G01 X6.5219 Y1.7067
G01 X6.5028 Y1.7324
G01 X6.4812 Y1.7562
G01 X6.4574 Y1.7778
G01 X6.4348 Y1.7947
G01 X6.4285 Y1.7989
G01 X6.4041 Y1.8134
G01 X6.3751 Y1.8271
G01 X6.3449 Y1.8379
G01 X6.3175 Y1.8449
G01 X6.3101 Y1.8464
G01 X6.2821 Y1.8504
G01 X6.2500 Y1.8520
G01 X5.7462 Y1.8519
G01 X5.7179 Y1.8504
G01 X5.6899 Y1.8464
G01 X5.6825 Y1.8449
G01 X5.6587 Y1.8389
G01 X5.6515 Y1.8367
G01 X5.6249 Y1.8271
G01 X5.5992 Y1.8151
G01 X5.5926 Y1.8115
G01 X5.5683 Y1.7969
G01 X5.5426 Y1.7778
G01 X5.5188 Y1.7562
G01 X5.4972 Y1.7324
G01 X5.4803 Y1.7098
G01 X5.4761 Y1.7035
G01 X5.4616 Y1.6791
G01 X5.4479 Y1.6501
G01 X5.4371 Y1.6199
G01 X5.4301 Y1.5925
G01 X5.4286 Y1.5851
G01 X5.4246 Y1.5571
G01 X5.4230 Y1.5250
G01 X5.4230 Y0.9356
G01 X3.8537 Y-0.6337
G01 X3.8346 Y-0.6546
G01 X3.8298 Y-0.6605
G01 X3.8130 Y-0.6833
G01 X3.7965 Y-0.7108
G01 X3.7828 Y-0.7398
G01 X3.7731 Y-0.7665
G01 X3.7710 Y-0.7737
G01 X3.7642 Y-0.8012
G01 X3.7599 Y-0.8292
G01 X3.7592 Y-0.8367
G01 X3.7580 Y-0.8612
G01 X3.7579 Y-1.5081
G00 Z1.0000
G00 X3.5273 Y-0.4223
G01 F25.00
G01 Z-0.1000
G01 F100.00
G01 X3.5272 Y-0.1620
G01 X3.7513 Y-0.1620
G01 X3.7819 Y-0.1610
G01 X3.5768 Y-0.3662
G01 X3.5448 Y-0.4011
G01 X3.5273 Y-0.4223
G01 X4.0337 Y-0.0181
G01 X3.6318 Y-0.4201
G01 X3.6061 Y-0.4481
G01 X3.5951 Y-0.4608
G01 X3.5841 Y-0.4747
G01 X3.5628 Y-0.5036
G01 X3.5509 Y-0.5215
G01 X3.5339 Y-0.5496
G01 X3.5262 Y-0.5631
G01 X3.5189 Y-0.5772
G01 X3.5045 Y-0.6077
G01 X3.4978 Y-0.6230
G01 X3.4919 Y-0.6384
G01 X3.4798 Y-0.6725
G01 X3.4741 Y-0.6915
G01 X3.4661 Y-0.7230
G01 X3.4628 Y-0.7376
G01 X3.4602 Y-0.7515
G01 X3.4551 Y-0.7853
G01 X3.4532 Y-0.7999
G01 X3.4519 Y-0.8157
G01 X3.4504 Y-0.8439
G01 X3.4502 Y-0.0850
G01 X3.7532 Y-0.0850
G01 X3.7940 Y-0.0834
G01 X3.8166 Y-0.0815
G01 X3.8518 Y-0.0767
G01 X3.8695 Y-0.0736
G01 X3.9078 Y-0.0649
G01 X3.9263 Y-0.0600
G01 X3.9635 Y-0.0479
G01 X3.9804 Y-0.0417
G01 X4.0172 Y-0.0259
G01 X4.0337 Y-0.0181
G00 Z1.0000
G00 X4.9443 Y-1.0285
G01 F25.00
G01 Z-0.1000
G01 F100.00
G01 X5.0239 Y-1.1083
G01 X5.0239 Y-1.5134
G01 X5.0152 Y-1.5255
G01 X5.0039 Y-1.5447
G01 X4.9953 Y-1.5631
G01 X4.9883 Y-1.5823
G01 X4.9832 Y-1.6020
G01 X4.9817 Y-1.6094
G01 X4.9791 Y-1.6278
G01 X4.9780 Y-1.6481
G01 X4.9780 Y-3.3000
G01 X4.9789 Y-3.3204
G01 X4.9817 Y-3.3406
G01 X4.9832 Y-3.3480
G01 X4.9878 Y-3.3659
G01 X4.9953 Y-3.3869
G01 X5.0031 Y-3.4036
G01 X5.0067 Y-3.4103
G01 X5.0163 Y-3.4261
G01 X5.0295 Y-3.4440
G01 X5.0419 Y-3.4578
G01 X5.0472 Y-3.4631
G01 X5.0610 Y-3.4755
G01 X5.0789 Y-3.4887
G01 X5.0980 Y-3.5002
G01 X5.1147 Y-3.5082
G01 X5.1217 Y-3.5111
G01 X5.1409 Y-3.5178
G01 X5.1589 Y-3.5222
G01 X5.1644 Y-3.5233
G01 X5.1828 Y-3.5259
G01 X5.2031 Y-3.5270
G01 X5.5050 Y-3.5270
G01 X5.5254 Y-3.5261
G01 X5.5456 Y-3.5233
G01 X5.5530 Y-3.5218
G01 X5.5709 Y-3.5172
G01 X5.5919 Y-3.5097
G01 X5.6086 Y-3.5019
G01 X5.6153 Y-3.4983
G01 X5.6311 Y-3.4887
G01 X5.6475 Y-3.4767
G01 X5.6655 Y-3.4605
G01 X5.6805 Y-3.4440
G01 X5.6937 Y-3.4261
G01 X5.7052 Y-3.4070
G01 X5.7147 Y-3.3869
G01 X5.7222 Y-3.3659
G01 X5.7276 Y-3.3443
G01 X5.7307 Y-3.3241
G01 X5.7320 Y-3.3000
G01 X5.7320 Y-2.8061
G01 X6.0467 Y-2.8061
G01 X6.0863 Y-2.8457
G01 X6.0888 Y-3.4008
G01 X6.0898 Y-3.4189
G01 X6.0922 Y-3.4349
G01 X6.0933 Y-3.4404
G01 X6.0972 Y-3.4561
G01 X6.1032 Y-3.4732
G01 X6.1061 Y-3.4802
G01 X6.1132 Y-3.4948
G01 X6.1235 Y-3.5119
G01 X6.1331 Y-3.5249
G01 X6.1379 Y-3.5307
G01 X6.1489 Y-3.5426
G01 X6.1637 Y-3.5560
G01 X6.1767 Y-3.5657
G01 X6.1829 Y-3.5699
G01 X6.1969 Y-3.5781
G01 X6.2150 Y-3.5866
G01 X6.2302 Y-3.5922
G01 X6.2374 Y-3.5943
G01 X6.2531 Y-3.5982
G01 X6.2729 Y-3.6011
G01 X6.2928 Y-3.6021
G01 X13.7639 Y-3.6021
G01 X13.7839 Y-3.6011
G01 X13.8037 Y-3.5982
G01 X13.8231 Y-3.5933
G01 X13.8437 Y-3.5858
G01 X13.8601 Y-3.5780
G01 X13.8756 Y-3.5687
G01 X13.8903 Y-3.5581
G01 X13.8962 Y-3.5533
G01 X13.9082 Y-3.5423
G01 X14.0465 Y-3.4039
G01 X14.0598 Y-3.3889
G01 X14.0695 Y-3.3759
G01 X14.0726 Y-3.3711
G01 X14.0809 Y-3.3572
G01 X14.0879 Y-3.3425
G01 X14.0901 Y-3.3373
G01 X14.0956 Y-3.3220
G01 X14.1007 Y-3.3026
G01 X14.1035 Y-3.2847
G01 X14.1049 Y-3.2647
G01 X14.1049 Y-3.2572
G01 X14.1040 Y-3.2410
G01 X14.1014 Y-3.2230
G01 X14.0771 Y-3.1006
G01 X14.0771 Y-2.8794
G01 X14.1202 Y-2.6625
G01 X14.2049 Y-2.4581
G01 X14.3278 Y-2.2742
G01 X14.4842 Y-2.1178
G01 X14.6681 Y-1.9949
G01 X14.7333 Y-1.9678
G01 X14.7514 Y-1.9593
G01 X14.7686 Y-1.9490
G01 X14.7817 Y-1.9394
G01 X14.7876 Y-1.9346
G01 X14.7995 Y-1.9236
G01 X14.8130 Y-1.9088
G01 X14.8228 Y-1.8958
G01 X14.8334 Y-1.8788
G01 X14.8369 Y-1.8721
G01 X14.8438 Y-1.8574
G01 X14.8505 Y-1.8385
G01 X14.8554 Y-1.8191
G01 X14.8581 Y-1.8012
G01 X14.8592 Y-1.7831
G01 X14.8592 Y-1.7755
G01 X14.8583 Y-1.7593
G01 X14.8554 Y-1.7395
G01 X14.8515 Y-1.7237
G01 X14.8493 Y-1.7165
G01 X14.8438 Y-1.7012
G01 X14.8352 Y-1.6831
G01 X14.8269 Y-1.6691
G01 X14.8228 Y-1.6628
G01 X14.8130 Y-1.6499
G01 X14.7995 Y-1.6350
G01 X14.7876 Y-1.6240
G01 X14.7817 Y-1.6192
G01 X14.7686 Y-1.6096
G01 X14.7531 Y-1.6003
G01 X14.7333 Y-1.5908
G01 X14.7145 Y-1.5840
G01 X14.6951 Y-1.5792
G01 X14.6753 Y-1.5762
G01 X14.6553 Y-1.5752
G01 X14.3600 Y-1.5752
G01 X14.2965 Y-1.5690
G01 X14.2450 Y-1.5534
G01 X14.1976 Y-1.5280
G01 X14.1561 Y-1.4939
G01 X14.1220 Y-1.4524
G01 X14.0966 Y-1.4050
G01 X14.0810 Y-1.3535
G01 X14.0748 Y-1.2900
G01 X14.0748 Y0.3900
G01 X14.0810 Y0.4535
G01 X14.0966 Y0.5050
G01 X14.1220 Y0.5524
G01 X14.1561 Y0.5939
G01 X14.1976 Y0.6280
G01 X14.2450 Y0.6534
G01 X14.2756 Y0.6627
G01 X14.2926 Y0.6688
G01 X14.3107 Y0.6774
G01 X14.3263 Y0.6867
G01 X14.3425 Y0.6984
G01 X14.3561 Y0.7105
G01 X14.3614 Y0.7158
G01 X14.3746 Y0.7309
G01 X14.3862 Y0.7472
G01 X14.3945 Y0.7612
G01 X14.4015 Y0.7758
G01 X14.4037 Y0.7810
G01 X14.4092 Y0.7963
G01 X14.4138 Y0.8139
G01 X14.4150 Y0.8194
G01 X14.4174 Y0.8355
G01 X14.4185 Y0.8555
G01 X14.4176 Y0.8774
G01 X14.4150 Y0.8953
G01 X14.4108 Y0.9130
G01 X14.4086 Y0.9202
G01 X14.4030 Y0.9355
G01 X14.3945 Y0.9536
G01 X14.3862 Y0.9675
G01 X14.3820 Y0.9738
G01 X14.3723 Y0.9868
G01 X14.3601 Y1.0003
G01 X12.9432 Y2.4173
G01 X12.9283 Y2.4307
G01 X12.9122 Y2.4427
G01 X12.8951 Y2.4530
G01 X12.8804 Y2.4600
G01 X12.8617 Y2.4671
G01 X12.8545 Y2.4693
G01 X12.8368 Y2.4735
G01 X12.8170 Y2.4762
G01 X12.7989 Y2.4771
G01 X8.7941 Y2.4771
G01 X8.7779 Y2.4764
G01 X8.7704 Y2.4756
G01 X8.7543 Y2.4731
G01 X8.7367 Y2.4688
G01 X8.7178 Y2.4622
G01 X8.7013 Y2.4547
G01 X8.6947 Y2.4511
G01 X8.6777 Y2.4405
G01 X8.6647 Y2.4307
G01 X8.6498 Y2.4173
G01 X8.6364 Y2.4025
G01 X8.6255 Y2.3879
G01 X8.6151 Y2.3709
G01 X8.6071 Y2.3545
G01 X8.6043 Y2.3476
G01 X8.5983 Y2.3304
G01 X8.5940 Y2.3128
G01 X8.5911 Y2.2930
G01 X8.5901 Y2.2730
G01 X8.5908 Y2.2568
G01 X8.5915 Y2.2492
G01 X8.5940 Y2.2332
G01 X8.5979 Y2.2174
G01 X8.6000 Y2.2102
G01 X8.6056 Y2.1949
G01 X8.6133 Y2.1785
G01 X8.6255 Y2.1581
G01 X8.6364 Y2.1435
G01 X8.6512 Y2.1274
G01 X8.6647 Y2.1153
G01 X8.7062 Y2.0812
G01 X8.7600 Y2.0156
G01 X8.8001 Y1.9407
G01 X8.8247 Y1.8595
G01 X8.8339 Y1.7657
G01 X8.8315 Y1.4209
G01 X8.7917 Y1.3811
G01 X8.4770 Y1.3811
G01 X8.4770 Y1.5250
G01 X8.4752 Y1.5589
G01 X8.4707 Y1.5888
G01 X8.4629 Y1.6199
G01 X8.4521 Y1.6501
G01 X8.4393 Y1.6775
G01 X8.4219 Y1.7067
G01 X8.4028 Y1.7324
G01 X8.3812 Y1.7562
G01 X8.3574 Y1.7778
G01 X8.3317 Y1.7969
G01 X8.3041 Y1.8134
G01 X8.2751 Y1.8271
G01 X8.2449 Y1.8379
G01 X8.2175 Y1.8449
G01 X8.2101 Y1.8464
G01 X8.1821 Y1.8504
G01 X8.1519 Y1.8520
G01 X7.6500 Y1.8520
G01 X7.6198 Y1.8506
G01 X7.5899 Y1.8464
G01 X7.5825 Y1.8449
G01 X7.5551 Y1.8379
G01 X7.5249 Y1.8271
G01 X7.4992 Y1.8151
G01 X7.4926 Y1.8115
G01 X7.4683 Y1.7969
G01 X7.4455 Y1.7801
G01 X7.4397 Y1.7753
G01 X7.4188 Y1.7562
G01 X7.3972 Y1.7324
G01 X7.3781 Y1.7067
G01 X7.3616 Y1.6791
G01 X7.3479 Y1.6501
G01 X7.3371 Y1.6199
G01 X7.3293 Y1.5888
G01 X7.3246 Y1.5571
G01 X7.3230 Y1.5250
G01 X7.3230 Y0.5750
G01 X7.3244 Y0.5448
G01 X7.3286 Y0.5149
G01 X7.3301 Y0.5075
G01 X7.3371 Y0.4801
G01 X7.3479 Y0.4499
G01 X7.3616 Y0.4209
G01 X7.3761 Y0.3965
G01 X7.3803 Y0.3902
G01 X7.3984 Y0.3661
G01 X7.4188 Y0.3438
G01 X7.4397 Y0.3247
G01 X7.4455 Y0.3199
G01 X7.4699 Y0.3021
G01 X7.4959 Y0.2866
G01 X7.5231 Y0.2736
G01 X7.5533 Y0.2627
G01 X7.5689 Y0.2585
G01 X7.5689 Y-0.0667
G01 X7.5285 Y-0.1071
G01 X7.4086 Y-0.1089
G01 X7.3155 Y-0.0997
G01 X7.2343 Y-0.0751
G01 X7.1594 Y-0.0350
G01 X7.0938 Y0.0188
G01 X7.0400 Y0.0844
G01 X6.9999 Y0.1593
G01 X6.9973 Y0.1678
G01 X6.9917 Y0.1831
G01 X6.9822 Y0.2028
G01 X6.9728 Y0.2183
G01 X6.9621 Y0.2329
G01 X6.9501 Y0.2465
G01 X6.9447 Y0.2519
G01 X6.9326 Y0.2627
G01 X6.9165 Y0.2746
G01 X6.8994 Y0.2849
G01 X6.8830 Y0.2928
G01 X6.8642 Y0.2997
G01 X6.8467 Y0.3043
G01 X6.8393 Y0.3058
G01 X6.8194 Y0.3083
G01 X6.8032 Y0.3090
G01 X6.7869 Y0.3083
G01 X6.7794 Y0.3076
G01 X6.7634 Y0.3051
G01 X6.7439 Y0.3002
G01 X6.7286 Y0.2949
G01 X6.7216 Y0.2920
G01 X6.7070 Y0.2849
G01 X6.6898 Y0.2746
G01 X6.6723 Y0.2615
G01 X6.6589 Y0.2493
G01 X6.6479 Y0.2373
G01 X6.6207 Y0.2043
G01 X6.5413 Y0.1391
G01 X6.4506 Y0.0907
G01 X6.3523 Y0.0608
G01 X6.2400 Y0.0498
G01 X5.8219 Y0.0497
G01 X5.8057 Y0.0489
G01 X5.8001 Y0.0483
G01 X5.7840 Y0.0458
G01 X5.7664 Y0.0415
G01 X5.7457 Y0.0342
G01 X5.7310 Y0.0274
G01 X5.7243 Y0.0238
G01 X5.7105 Y0.0154
G01 X5.6973 Y0.0058
G01 X5.6929 Y0.0022
G01 X5.6809 Y-0.0087
G01 X4.9469 Y-0.7426
G01 X4.9334 Y-0.7575
G01 X4.9237 Y-0.7705
G01 X4.9131 Y-0.7875
G01 X4.9095 Y-0.7941
G01 X4.9027 Y-0.8088
G01 X4.8965 Y-0.8259
G01 X4.8919 Y-0.8434
G01 X4.8904 Y-0.8509
G01 X4.8881 Y-0.8669
G01 X4.8871 Y-0.8869
G01 X4.8881 Y-0.9069
G01 X4.8904 Y-0.9230
G01 X4.8919 Y-0.9304
G01 X4.8965 Y-0.9480
G01 X4.9027 Y-0.9650
G01 X4.9104 Y-0.9815
G01 X4.9226 Y-1.0019
G01 X4.9334 Y-1.0164
G01 X4.9443 Y-1.0285
G01 X4.8872 Y-1.0802
G01 X4.9469 Y-1.1402
G01 X4.9469 Y-1.4896
G01 X4.9365 Y-1.5075
G01 X4.9260 Y-1.5293
G01 X4.9214 Y-1.5407
G01 X4.9133 Y-1.5645
G01 X4.9070 Y-1.5898
G01 X4.9034 Y-1.6127
G01 X4.9021 Y-1.6249
G01 X4.9010 Y-1.6500
G01 X4.9010 Y-3.3028
G01 X4.9020 Y-3.3232
G01 X4.9028 Y-3.3326
G01 X4.9060 Y-3.3547
G01 X4.9085 Y-3.3667
G01 X4.9138 Y-3.3873
G01 X4.9214 Y-3.4093
G01 X4.9260 Y-3.4207
G01 X4.9347 Y-3.4391
G01 X4.9401 Y-3.4491
G01 X4.9517 Y-3.4681
G01 X4.9706 Y-3.4936
G01 X4.9855 Y-3.5102
G01 X4.9921 Y-3.5169
G01 X5.0085 Y-3.5319
G01 X5.0181 Y-3.5396
G01 X5.0353 Y-3.5522
G01 X5.0551 Y-3.5644
G01 X5.0659 Y-3.5703
G01 X5.0843 Y-3.5790
G01 X5.0948 Y-3.5833
G01 X5.1159 Y-3.5906
G01 X5.1383 Y-3.5965
G01 X5.1485 Y-3.5987
G01 X5.1761 Y-3.6026
G01 X5.2041 Y-3.6040
G01 X5.5050 Y-3.6040
G01 X5.5282 Y-3.6030
G01 X5.5395 Y-3.6020
G01 X5.5615 Y-3.5987
G01 X5.5708 Y-3.5967
G01 X5.5905 Y-3.5917
G01 X5.5995 Y-3.5889
G01 X5.6205 Y-3.5812
G01 X5.6458 Y-3.5694
G01 X5.6541 Y-3.5649
G01 X5.6731 Y-3.5533
G01 X5.6986 Y-3.5344
G01 X5.7206 Y-3.5143
G01 X5.7357 Y-3.4979
G01 X5.7429 Y-3.4892
G01 X5.7593 Y-3.4665
G01 X5.7708 Y-3.4474
G01 X5.7765 Y-3.4366
G01 X5.7855 Y-3.4172
G01 X5.7935 Y-3.3954
G01 X5.7972 Y-3.3837
G01 X5.8017 Y-3.3658
G01 X5.8040 Y-3.3547
G01 X5.8072 Y-3.3326
G01 X5.8080 Y-3.3232
G01 X5.8090 Y-3.3028
G01 X5.8090 Y-2.8831
G01 X6.0095 Y-2.8831
G01 X6.0118 Y-3.4021
G01 X6.0132 Y-3.4258
G01 X6.0162 Y-3.4474
G01 X6.0188 Y-3.4604
G01 X6.0250 Y-3.4833
G01 X6.0332 Y-3.5056
G01 X6.0424 Y-3.5254
G01 X6.0486 Y-3.5370
G01 X6.0601 Y-3.5556
G01 X6.0754 Y-3.5761
G01 X6.0893 Y-3.5917
G01 X6.0979 Y-3.6005
G01 X6.1157 Y-3.6162
G01 X6.1363 Y-3.6314
G01 X6.1541 Y-3.6424
G01 X6.1649 Y-3.6482
G01 X6.1864 Y-3.6582
G01 X6.2070 Y-3.6656
G01 X6.2187 Y-3.6690
G01 X6.2391 Y-3.6739
G01 X6.2644 Y-3.6776
G01 X6.2928 Y-3.6791
G01 X13.7639 Y-3.6791
G01 X13.7905 Y-3.6778
G01 X13.8140 Y-3.6745
G01 X13.8261 Y-3.6720
G01 X13.8409 Y-3.6683
G01 X13.8499 Y-3.6655
G01 X13.8705 Y-3.6580
G01 X13.8896 Y-3.6493
G01 X13.9005 Y-3.6436
G01 X13.9192 Y-3.6322
G01 X13.9370 Y-3.6194
G01 X13.9472 Y-3.6110
G01 X13.9626 Y-3.5968
G01 X14.0996 Y-3.4597
G01 X14.1151 Y-3.4429
G01 X14.1211 Y-3.4356
G01 X14.1308 Y-3.4225
G01 X14.1386 Y-3.4107
G01 X14.1501 Y-3.3909
G01 X14.1579 Y-3.3746
G01 X14.1616 Y-3.3659
G01 X14.1701 Y-3.3416
G01 X14.1767 Y-3.3149
G01 X14.1807 Y-3.2876
G01 X14.1818 Y-3.2676
G01 X14.1819 Y-3.2581
G01 X14.1807 Y-3.2344
G01 X14.1774 Y-3.2108
G01 X14.1541 Y-3.0930
G01 X14.1541 Y-2.8870
G01 X14.1943 Y-2.6849
G01 X14.2731 Y-2.4946
G01 X14.3876 Y-2.3233
G01 X14.5333 Y-2.1776
G01 X14.7046 Y-2.0631
G01 X14.7689 Y-2.0363
G01 X14.7886 Y-2.0267
G01 X14.8074 Y-2.0156
G01 X14.8168 Y-2.0092
G01 X14.8328 Y-1.9972
G01 X14.8485 Y-1.9833
G01 X14.8560 Y-1.9760
G01 X14.8731 Y-1.9569
G01 X14.8884 Y-1.9362
G01 X14.9027 Y-1.9126
G01 X14.9123 Y-1.8929
G01 X14.9160 Y-1.8842
G01 X14.9218 Y-1.8681
G01 X14.9260 Y-1.8545
G01 X14.9314 Y-1.8314
G01 X14.9342 Y-1.8134
G01 X14.9352 Y-1.8040
G01 X14.9363 Y-1.7803
G01 X14.9355 Y-1.7584
G01 X14.9342 Y-1.7452
G01 X14.9307 Y-1.7235
G01 X14.9255 Y-1.7023
G01 X14.9218 Y-1.6905
G01 X14.9146 Y-1.6709
G01 X14.9036 Y-1.6477
G01 X14.8925 Y-1.6287
G01 X14.8852 Y-1.6177
G01 X14.8719 Y-1.6003
G01 X14.8560 Y-1.5826
G01 X14.8393 Y-1.5670
G01 X14.8299 Y-1.5591
G01 X14.8122 Y-1.5461
G01 X14.7943 Y-1.5352
G01 X14.7835 Y-1.5293
G01 X14.7654 Y-1.5207
G01 X14.7566 Y-1.5172
G01 X14.7395 Y-1.5112
G01 X14.7305 Y-1.5086
G01 X14.7110 Y-1.5038
G01 X14.6837 Y-1.4997
G01 X14.6553 Y-1.4982
G01 X14.3638 Y-1.4982
G01 X14.3116 Y-1.4931
G01 X14.2747 Y-1.4819
G01 X14.2406 Y-1.4637
G01 X14.2108 Y-1.4392
G01 X14.1863 Y-1.4094
G01 X14.1681 Y-1.3753
G01 X14.1569 Y-1.3384
G01 X14.1518 Y-1.2862
G01 X14.1518 Y0.3862
G01 X14.1569 Y0.4384
G01 X14.1681 Y0.4753
G01 X14.1863 Y0.5094
G01 X14.2108 Y0.5392
G01 X14.2406 Y0.5637
G01 X14.2747 Y0.5819
G01 X14.3006 Y0.5899
G01 X14.3177 Y0.5960
G01 X14.3264 Y0.5996
G01 X14.3495 Y0.6109
G01 X14.3667 Y0.6211
G01 X14.3761 Y0.6275
G01 X14.3928 Y0.6401
G01 X14.4078 Y0.6534
G01 X14.4152 Y0.6606
G01 X14.4275 Y0.6740
G01 X14.4347 Y0.6828
G01 X14.4466 Y0.6989
G01 X14.4518 Y0.7068
G01 X14.4610 Y0.7224
G01 X14.4658 Y0.7316
G01 X14.4745 Y0.7507
G01 X14.4820 Y0.7713
G01 X14.4852 Y0.7821
G01 X14.4902 Y0.8025
G01 X14.4933 Y0.8223
G01 X14.4946 Y0.8345
G01 X14.4955 Y0.8545
G01 X14.4954 Y0.8649
G01 X14.4942 Y0.8849
G01 X14.4913 Y0.9057
G01 X14.4892 Y0.9168
G01 X14.4848 Y0.9344
G01 X14.4811 Y0.9461
G01 X14.4742 Y0.9649
G01 X14.4654 Y0.9840
G01 X14.4587 Y0.9964
G01 X14.4508 Y1.0095
G01 X14.4455 Y1.0174
G01 X14.4312 Y1.0364
G01 X14.4133 Y1.0560
G01 X12.9956 Y2.4737
G01 X12.9764 Y2.4909
G01 X12.9558 Y2.5062
G01 X12.9322 Y2.5204
G01 X12.9108 Y2.5308
G01 X12.9020 Y2.5344
G01 X12.8867 Y2.5399
G01 X12.8732 Y2.5440
G01 X12.8509 Y2.5492
G01 X12.8311 Y2.5522
G01 X12.8217 Y2.5531
G01 X12.7989 Y2.5541
G01 X8.7941 Y2.5541
G01 X8.7657 Y2.5526
G01 X8.7384 Y2.5485
G01 X8.7117 Y2.5417
G01 X8.6927 Y2.5351
G01 X8.6822 Y2.5308
G01 X8.6608 Y2.5204
G01 X8.6420 Y2.5093
G01 X8.6318 Y2.5023
G01 X8.6137 Y2.4884
G01 X8.5961 Y2.4724
G01 X8.5799 Y2.4549
G01 X8.5739 Y2.4476
G01 X8.5642 Y2.4346
G01 X8.5564 Y2.4228
G01 X8.5450 Y2.4030
G01 X8.5341 Y2.3797
G01 X8.5255 Y2.3555
G01 X8.5201 Y2.3352
G01 X8.5173 Y2.3213
G01 X8.5150 Y2.3052
G01 X8.5140 Y2.2958
G01 X8.5131 Y2.2721
G01 X8.5140 Y2.2502
G01 X8.5152 Y2.2389
G01 X8.5187 Y2.2172
G01 X8.5234 Y2.1978
G01 X8.5266 Y2.1869
G01 X8.5341 Y2.1663
G01 X8.5429 Y2.1473
G01 X8.5486 Y2.1364
G01 X8.5579 Y2.1208
G01 X8.5631 Y2.1130
G01 X8.5751 Y2.0969
G01 X8.5921 Y2.0777
G01 X8.5988 Y2.0710
G01 X8.6137 Y2.0576
G01 X8.6515 Y2.0265
G01 X8.6957 Y1.9726
G01 X8.7286 Y1.9111
G01 X8.7488 Y1.8444
G01 X8.7569 Y1.7622
G01 X8.7548 Y1.4581
G01 X8.5540 Y1.4581
G01 X8.5540 Y1.5278
G01 X8.5526 Y1.5580
G01 X8.5511 Y1.5721
G01 X8.5471 Y1.5992
G01 X8.5448 Y1.6103
G01 X8.5363 Y1.6432
G01 X8.5260 Y1.6726
G01 X8.5221 Y1.6822
G01 X8.5058 Y1.7163
G01 X8.4895 Y1.7439
G01 X8.4832 Y1.7533
G01 X8.4617 Y1.7820
G01 X8.4350 Y1.8113
G01 X8.4056 Y1.8379
G01 X8.3806 Y1.8566
G01 X8.3721 Y1.8625
G01 X8.3396 Y1.8817
G01 X8.3115 Y1.8952
G01 X8.3020 Y1.8993
G01 X8.2736 Y1.9095
G01 X8.2646 Y1.9124
G01 X8.2334 Y1.9202
G01 X8.2214 Y1.9225
G01 X8.1887 Y1.9271
G01 X8.1509 Y1.9290
G01 X7.6472 Y1.9290
G01 X7.6151 Y1.9274
G01 X7.6029 Y1.9261
G01 X7.5703 Y1.9210
G01 X7.5400 Y1.9136
G01 X7.5282 Y1.9102
G01 X7.4963 Y1.8986
G01 X7.4604 Y1.8817
G01 X7.4248 Y1.8604
G01 X7.3989 Y1.8414
G01 X7.3901 Y1.8342
G01 X7.3691 Y1.8152
G01 X7.3623 Y1.8086
G01 X7.3408 Y1.7849
G01 X7.3331 Y1.7753
G01 X7.3146 Y1.7502
G01 X7.2974 Y1.7220
G01 X7.2915 Y1.7112
G01 X7.2794 Y1.6857
G01 X7.2750 Y1.6752
G01 X7.2642 Y1.6450
G01 X7.2616 Y1.6359
G01 X7.2543 Y1.6066
G01 X7.2525 Y1.5964
G01 X7.2480 Y1.5655
G01 X7.2461 Y1.5297
G01 X7.2460 Y0.5750
G01 X7.2474 Y0.5420
G01 X7.2485 Y0.5307
G01 X7.2536 Y0.4971
G01 X7.2614 Y0.4650
G01 X7.2648 Y0.4532
G01 X7.2764 Y0.4213
G01 X7.2907 Y0.3905
G01 X7.2969 Y0.3788
G01 X7.3136 Y0.3513
G01 X7.3331 Y0.3247
G01 X7.3408 Y0.3151
G01 X7.3637 Y0.2900
G01 X7.3880 Y0.2676
G01 X7.3974 Y0.2598
G01 X7.4248 Y0.2396
G01 X7.4530 Y0.2224
G01 X7.4638 Y0.2165
G01 X7.4919 Y0.2032
G01 X7.4919 Y-0.0307
G01 X7.4118 Y-0.0318
G01 X7.3306 Y-0.0238
G01 X7.2639 Y-0.0036
G01 X7.2024 Y0.0293
G01 X7.1485 Y0.0735
G01 X7.1043 Y0.1274
G01 X7.0714 Y0.1890
G01 X7.0652 Y0.2064
G01 X7.0617 Y0.2151
G01 X7.0532 Y0.2333
G01 X7.0478 Y0.2432
G01 X7.0363 Y0.2619
G01 X7.0234 Y0.2796
G01 X7.0174 Y0.2869
G01 X7.0071 Y0.2982
G01 X6.9985 Y0.3070
G01 X6.9807 Y0.3228
G01 X6.9601 Y0.3381
G01 X6.9365 Y0.3524
G01 X6.9151 Y0.3628
G01 X6.9063 Y0.3664
G01 X6.8910 Y0.3719
G01 X6.8775 Y0.3759
G01 X6.8552 Y0.3812
G01 X6.8373 Y0.3839
G01 X6.8279 Y0.3849
G01 X6.8041 Y0.3860
G01 X6.7832 Y0.3852
G01 X6.7709 Y0.3841
G01 X6.7493 Y0.3808
G01 X6.7280 Y0.3757
G01 X6.7153 Y0.3719
G01 X6.6947 Y0.3643
G01 X6.6732 Y0.3542
G01 X6.6641 Y0.3491
G01 X6.6462 Y0.3381
G01 X6.6301 Y0.3263
G01 X6.6227 Y0.3204
G01 X6.6078 Y0.3070
G01 X6.5999 Y0.2989
G01 X6.5877 Y0.2854
G01 X6.5660 Y0.2590
G01 X6.4983 Y0.2034
G01 X6.4210 Y0.1621
G01 X6.3372 Y0.1367
G01 X6.2362 Y0.1268
G01 X5.8238 Y0.1268
G01 X5.8038 Y0.1260
G01 X5.7897 Y0.1246
G01 X5.7736 Y0.1222
G01 X5.7644 Y0.1204
G01 X5.7413 Y0.1144
G01 X5.7171 Y0.1057
G01 X5.6922 Y0.0940
G01 X5.6685 Y0.0799
G01 X5.6463 Y0.0636
G01 X5.6271 Y0.0464
G01 X4.8924 Y-0.6882
G01 X4.8745 Y-0.7079
G01 X4.8591 Y-0.7284
G01 X4.8539 Y-0.7364
G01 X4.8447 Y-0.7520
G01 X4.8342 Y-0.7733
G01 X4.8288 Y-0.7864
G01 X4.8231 Y-0.8026
G01 X4.8204 Y-0.8117
G01 X4.8153 Y-0.8330
G01 X4.8114 Y-0.8603
G01 X4.8101 Y-0.8860
G01 X4.8112 Y-0.9117
G01 X4.8123 Y-0.9211
G01 X4.8150 Y-0.9390
G01 X4.8202 Y-0.9612
G01 X4.8243 Y-0.9748
G01 X4.8298 Y-0.9901
G01 X4.8334 Y-0.9988
G01 X4.8438 Y-1.0203
G01 X4.8570 Y-1.0423
G01 X4.8722 Y-1.0630
G01 X4.8872 Y-1.0802
G00 Z1.0000
G00 X5.6861 Y-1.5134
G01 F25.00
G01 Z-0.1000
G01 F100.00
G01 X5.6861 Y-1.1083
G01 X5.7209 Y-1.0735
G01 X5.7395 Y-1.0753
G01 X5.8207 Y-1.0999
G01 X5.8956 Y-1.1400
G01 X5.9612 Y-1.1938
G01 X6.0150 Y-1.2594
G01 X6.0551 Y-1.3343
G01 X6.0797 Y-1.4155
G01 X6.0890 Y-1.5096
G01 X6.0866 Y-2.0508
G01 X5.9934 Y-2.1439
G01 X5.7320 Y-2.1439
G01 X5.7320 Y-1.6500
G01 X5.7311 Y-1.6296
G01 X5.7283 Y-1.6094
G01 X5.7268 Y-1.6020
G01 X5.7222 Y-1.5841
G01 X5.7154 Y-1.5649
G01 X5.7043 Y-1.5413
G01 X5.6937 Y-1.5239
G01 X5.6861 Y-1.5134
G01 X5.7631 Y-1.4896
G01 X5.7631 Y-1.1629
G01 X5.7911 Y-1.1714
G01 X5.8526 Y-1.2043
G01 X5.9065 Y-1.2485
G01 X5.9507 Y-1.3024
G01 X5.9836 Y-1.3639
G01 X6.0038 Y-1.4306
G01 X6.0119 Y-1.5132
G01 X6.0097 Y-2.0188
G01 X5.9615 Y-2.0669
G01 X5.8090 Y-2.0669
G01 X5.8090 Y-1.6500
G01 X5.8078 Y-1.6230
G01 X5.8066 Y-1.6127
G01 X5.8030 Y-1.5898
G01 X5.7977 Y-1.5681
G01 X5.7945 Y-1.5573
G01 X5.7876 Y-1.5381
G01 X5.7832 Y-1.5276
G01 X5.7735 Y-1.5075
G01 X5.7631 Y-1.4896
G01 X5.8401 Y-1.4687
G01 X5.8401 Y-1.2936
G01 X5.8518 Y-1.3032
G01 X5.8864 Y-1.3454
G01 X5.9121 Y-1.3935
G01 X5.9279 Y-1.4457
G01 X5.9349 Y-1.5168
G01 X5.9328 Y-1.9868
G01 X5.9296 Y-1.9899
G01 X5.8860 Y-1.9899
G01 X5.8860 Y-1.6495
G01 X5.8843 Y-1.6145
G01 X5.8828 Y-1.6019
G01 X5.8789 Y-1.5766
G01 X5.8762 Y-1.5646
G01 X5.8693 Y-1.5385
G01 X5.8611 Y-1.5148
G01 X5.8566 Y-1.5033
G01 X5.8459 Y-1.4801
G01 X5.8401 Y-1.4687
G00 Z1.0000
G00 X6.7147 Y0.4518
G01 F25.00
G01 Z-0.1000
G01 F100.00
G01 X6.7219 Y0.4821
G01 X6.7276 Y0.5185
G01 X6.7293 Y0.5354
G01 X6.7310 Y0.5712
G01 X6.7310 Y1.5250
G01 X6.7292 Y1.5656
G01 X6.7278 Y1.5797
G01 X6.7236 Y1.6081
G01 X6.7196 Y1.6285
G01 X6.7128 Y1.6555
G01 X6.7097 Y1.6664
G01 X6.6985 Y1.6985
G01 X6.6940 Y1.7099
G01 X6.6751 Y1.7501
G01 X6.6696 Y1.7600
G01 X6.6550 Y1.7843
G01 X6.6434 Y1.8015
G01 X6.6259 Y1.8250
G01 X6.6157 Y1.8373
G01 X6.5967 Y1.8583
G01 X6.5874 Y1.8678
G01 X6.5627 Y1.8904
G01 X6.5515 Y1.8998
G01 X6.5254 Y1.9192
G01 X6.5141 Y1.9270
G01 X6.4833 Y1.9455
G01 X6.4666 Y1.9543
G01 X6.4401 Y1.9668
G01 X6.4235 Y1.9735
G01 X6.3887 Y1.9856
G01 X6.3549 Y1.9943
G01 X6.3373 Y1.9980
G01 X6.3018 Y2.0032
G01 X6.2896 Y2.0043
G01 X6.2609 Y2.0057
G01 X6.2500 Y2.0060
G01 X5.7495 Y2.0060
G01 X5.7104 Y2.0043
G01 X5.6930 Y2.0025
G01 X5.6552 Y1.9966
G01 X5.6176 Y1.9874
G01 X5.6001 Y1.9819
G01 X5.5730 Y1.9722
G01 X5.5616 Y1.9675
G01 X5.5241 Y1.9496
G01 X5.4891 Y1.9290
G01 X5.4766 Y1.9206
G01 X5.4538 Y1.9038
G01 X5.4377 Y1.8907
G01 X5.4167 Y1.8717
G01 X5.4086 Y1.8638
G01 X5.3856 Y1.8387
G01 X5.3776 Y1.8294
G01 X5.3511 Y1.7938
G01 X5.3450 Y1.7843
G01 X5.3304 Y1.7600
G01 X5.3228 Y1.7459
G01 X5.3102 Y1.7194
G01 X5.3020 Y1.6998
G01 X5.2926 Y1.6736
G01 X5.2892 Y1.6628
G01 X5.2806 Y1.6294
G01 X5.2779 Y1.6170
G01 X5.2714 Y1.5731
G01 X5.2705 Y1.5613
G01 X5.2690 Y1.5288
G01 X5.2690 Y0.9994
G01 X3.7421 Y-0.5275
G01 X3.7202 Y-0.5515
G01 X3.7125 Y-0.5605
G01 X3.6915 Y-0.5884
G01 X3.6844 Y-0.5985
G01 X3.6611 Y-0.6374
G01 X3.6556 Y-0.6483
G01 X3.6409 Y-0.6800
G01 X3.6364 Y-0.6915
G01 X3.6249 Y-0.7244
G01 X3.6216 Y-0.7363
G01 X3.6135 Y-0.7693
G01 X3.6113 Y-0.7818
G01 X3.6064 Y-0.8160
G01 X3.6055 Y-0.8273
G01 X3.6042 Y-0.8537
G01 X3.6039 Y-0.8650
G01 X3.6039 Y-1.4617
G01 X3.5955 Y-1.4771
G01 X3.5834 Y-1.5033
G01 X3.5735 Y-1.5300
G01 X3.5686 Y-1.5458
G01 X3.5623 Y-1.5710
G01 X3.5594 Y-1.5868
G01 X3.5557 Y-1.6136
G01 X3.5541 Y-1.6424
G01 X3.5540 Y-3.3000
G01 X3.5543 Y-3.3109
G01 X3.5559 Y-3.3383
G01 X3.5600 Y-3.3669
G01 X3.5635 Y-3.3840
G01 X3.5710 Y-3.4124
G01 X3.5823 Y-3.4441
G01 X3.5939 Y-3.4695
G01 X3.6022 Y-3.4854
G01 X3.6172 Y-3.5101
G01 X3.6346 Y-3.5343
G01 X3.6466 Y-3.5489
G01 X3.6663 Y-3.5701
G01 X3.6882 Y-3.5902
G01 X3.7019 Y-3.6012
G01 X3.7171 Y-3.6125
G01 X3.7265 Y-3.6189
G01 X3.7521 Y-3.6342
G01 X3.7714 Y-3.6439
G01 X3.1286 Y-3.6439
G01 X3.1479 Y-3.6342
G01 X3.1735 Y-3.6189
G01 X3.1829 Y-3.6125
G01 X3.1981 Y-3.6012
G01 X3.2118 Y-3.5902
G01 X3.2337 Y-3.5701
G01 X3.2534 Y-3.5489
G01 X3.2654 Y-3.5343
G01 X3.2828 Y-3.5101
G01 X3.3001 Y-3.4813
G01 X3.3124 Y-3.4562
G01 X3.3194 Y-3.4397
G01 X3.3290 Y-3.4124
G01 X3.3365 Y-3.3840
G01 X3.3400 Y-3.3669
G01 X3.3441 Y-3.3383
G01 X3.3457 Y-3.3109
G01 X3.3460 Y-3.3000
G01 X3.3460 Y-1.6462
G01 X3.3447 Y-1.6192
G01 X3.3428 Y-1.6019
G01 X3.3385 Y-1.5747
G01 X3.3317 Y-1.5467
G01 X3.3267 Y-1.5304
G01 X3.3166 Y-1.5033
G01 X3.3045 Y-1.4771
G01 X3.2963 Y-1.4620
G01 X3.2961 Y0.0690
G01 X3.7500 Y0.0690
G01 X3.7855 Y0.0704
G01 X3.8015 Y0.0718
G01 X3.8340 Y0.0764
G01 X3.8454 Y0.0786
G01 X3.8713 Y0.0847
G01 X3.8918 Y0.0905
G01 X3.9179 Y0.0993
G01 X3.9320 Y0.1049
G01 X3.9636 Y0.1190
G01 X3.9956 Y0.1365
G01 X4.0107 Y0.1459
G01 X4.0406 Y0.1667
G01 X4.0687 Y0.1898
G01 X4.0808 Y0.2010
G01 X4.1061 Y0.2266
G01 X4.1295 Y0.2545
G01 X4.1393 Y0.2677
G01 X4.1594 Y0.2975
G01 X4.1773 Y0.3293
G01 X4.1851 Y0.3453
G01 X4.1988 Y0.3771
G01 X4.2106 Y0.4116
G01 X4.2153 Y0.4287
G01 X4.2214 Y0.4546
G01 X4.2239 Y0.4678
G01 X4.2290 Y0.5065
G01 X4.2310 Y0.5487
G01 X4.2310 Y1.4500
G01 X4.2307 Y1.4613
G01 X4.2289 Y1.4953
G01 X4.2276 Y1.5065
G01 X4.2236 Y1.5331
G01 X4.2202 Y1.5512
G01 X4.2114 Y1.5860
G01 X4.2072 Y1.5991
G01 X4.1958 Y1.6306
G01 X4.1900 Y1.6440
G01 X4.1746 Y1.6759
G01 X4.1686 Y1.6866
G01 X4.1505 Y1.7164
G01 X4.1434 Y1.7265
G01 X4.1212 Y1.7559
G01 X4.0979 Y1.7819
G01 X4.0888 Y1.7914
G01 X4.0634 Y1.8147
G01 X4.0537 Y1.8230
G01 X4.0250 Y1.8445
G01 X4.0109 Y1.8540
G01 X3.9825 Y1.8710
G01 X3.9666 Y1.8793
G01 X3.9332 Y1.8947
G01 X3.8968 Y1.9080
G01 X3.8805 Y1.9128
G01 X3.8448 Y1.9216
G01 X3.8079 Y1.9274
G01 X3.7924 Y1.9291
G01 X3.7500 Y1.9310
G01 X3.0500 Y1.9310
G01 X3.0142 Y1.9295
G01 X3.0019 Y1.9286
G01 X2.9916 Y1.9273
G01 X2.9627 Y1.9230
G01 X2.9451 Y1.9193
G01 X2.9176 Y1.9124
G01 X2.9059 Y1.9089
G01 X2.8730 Y1.8972
G01 X2.8573 Y1.8906
G01 X2.8317 Y1.8785
G01 X2.8216 Y1.8733
G01 X2.7919 Y1.8558
G01 X2.7812 Y1.8489
G01 X2.7538 Y1.8288
G01 X2.7441 Y1.8212
G01 X2.7181 Y1.7979
G01 X2.7092 Y1.7894
G01 X2.6794 Y1.7566
G01 X2.6723 Y1.7477
G01 X2.6563 Y1.7261
G01 X2.6450 Y1.7093
G01 X2.6304 Y1.6850
G01 X2.6240 Y1.6734
G01 X2.6060 Y1.6349
G01 X2.5920 Y1.5968
G01 X2.5876 Y1.5824
G01 X2.5806 Y1.5544
G01 X2.5781 Y1.5429
G01 X2.5763 Y1.5327
G01 X2.5724 Y1.5065
G01 X2.5711 Y1.4953
G01 X2.5690 Y1.4519
G01 X2.5690 Y0.8494
G01 X2.4695 Y0.7498
G01 X2.4437 Y0.7209
G01 X2.4215 Y0.6916
G01 X2.4096 Y0.6739
G01 X2.3944 Y0.6484
G01 X2.3877 Y0.6359
G01 X2.3709 Y0.6000
G01 X2.3575 Y0.5636
G01 X2.3525 Y0.5474
G01 X2.3433 Y0.5098
G01 X2.3373 Y0.4715
G01 X2.3355 Y0.4527
G01 X2.3339 Y0.4155
G01 X2.3339 Y0.1679
G01 X2.3137 Y0.1857
G01 X2.2908 Y0.2027
G01 X2.2806 Y0.2095
G01 X2.2650 Y0.2189
G01 X2.2467 Y0.2286
G01 X2.2320 Y0.2355
G01 X2.2215 Y0.2399
G01 X2.1928 Y0.2501
G01 X2.1824 Y0.2530
G01 X2.1616 Y0.2581
G01 X2.1514 Y0.2601
G01 X2.1353 Y0.2625
G01 X2.1456 Y0.2766
G01 X2.1520 Y0.2859
G01 X2.1719 Y0.3191
G01 X2.1777 Y0.3300
G01 X2.1900 Y0.3560
G01 X2.1972 Y0.3730
G01 X2.2106 Y0.4113
G01 X2.2202 Y0.4488
G01 X2.2231 Y0.4636
G01 X2.2273 Y0.4916
G01 X2.2294 Y0.5123
G01 X2.2310 Y0.5500
G01 X2.2310 Y1.4538
G01 X2.2293 Y1.4896
G01 X2.2274 Y1.5079
G01 X2.2216 Y1.5448
G01 X2.2130 Y1.5801
G01 X2.2080 Y1.5968
G01 X2.1947 Y1.6332
G01 X2.1785 Y1.6683
G01 X2.1696 Y1.6850
G01 X2.1505 Y1.7164
G01 X2.1277 Y1.7477
G01 X2.1157 Y1.7623
G01 X2.0894 Y1.7908
G01 X2.0609 Y1.8169
G01 X2.0473 Y1.8279
G01 X2.0164 Y1.8505
G01 X1.9850 Y1.8696
G01 X1.9683 Y1.8785
G01 X1.9332 Y1.8947
G01 X1.8968 Y1.9080
G01 X1.8801 Y1.9130
G01 X1.8448 Y1.9216
G01 X1.8079 Y1.9274
G01 X1.7896 Y1.9293
G01 X1.7547 Y1.9309
G01 X1.0495 Y1.9310
G01 X1.0047 Y1.9289
G01 X0.9935 Y1.9276
G01 X0.9669 Y1.9236
G01 X0.9465 Y1.9196
G01 X0.9176 Y1.9124
G01 X0.9059 Y1.9089
G01 X0.8668 Y1.8947
G01 X0.8321 Y1.8787
G01 X0.8150 Y1.8696
G01 X0.7907 Y1.8550
G01 X0.7812 Y1.8489
G01 X0.7463 Y1.8230
G01 X0.7377 Y1.8157
G01 X0.7170 Y1.7970
G01 X0.7030 Y1.7830
G01 X0.6831 Y1.7609
G01 X0.6752 Y1.7515
G01 X0.6506 Y1.7180
G01 X0.6304 Y1.6850
G01 X0.6213 Y1.6679
G01 X0.6086 Y1.6410
G01 X0.6039 Y1.6297
G01 X0.5900 Y1.5905
G01 X0.5870 Y1.5801
G01 X0.5796 Y1.5503
G01 X0.5769 Y1.5364
G01 X0.5722 Y1.5047
G01 X0.5710 Y1.4934
G01 X0.5703 Y1.4811
G01 X-2.0005 Y1.4811
G01 X-2.0113 Y1.4808
G01 X-2.0462 Y1.4789
G01 X-2.0584 Y1.4774
G01 X-2.0920 Y1.4722
G01 X-2.1031 Y1.4698
G01 X-2.1287 Y1.4634
G01 X-2.1415 Y1.4598
G01 X-2.1771 Y1.4473
G01 X-2.1941 Y1.4401
G01 X-2.2276 Y1.4239
G01 X-2.2589 Y1.4054
G01 X-2.2735 Y1.3957
G01 X-2.3023 Y1.3743
G01 X-2.3135 Y1.3648
G01 X-2.3399 Y1.3405
G01 X-2.6494 Y1.0310
G01 X-3.2518 Y1.0310
G01 X-3.2935 Y1.0290
G01 X-3.3322 Y1.0239
G01 X-3.3471 Y1.0210
G01 X-3.3782 Y1.0136
G01 X-3.3884 Y1.0106
G01 X-3.4137 Y1.0021
G01 X-3.4332 Y0.9946
G01 X-3.4580 Y0.9836
G01 X-3.4707 Y0.9773
G01 X-3.5047 Y0.9580
G01 X-3.5392 Y0.9344
G01 X-3.5482 Y0.9272
G01 X-3.5727 Y0.9067
G01 X-3.5997 Y0.8801
G01 X-4.6625 Y1.9429
G01 X-4.6941 Y1.9713
G01 X-4.7246 Y1.9944
G01 X-4.7411 Y2.0054
G01 X-4.7650 Y2.0197
G01 X-4.7765 Y2.0261
G01 X-4.8059 Y2.0401
G01 X-4.8176 Y2.0452
G01 X-4.8509 Y2.0573
G01 X-4.8640 Y2.0615
G01 X-4.8965 Y2.0697
G01 X-4.9099 Y2.0726
G01 X-4.9453 Y2.0779
G01 X-4.9641 Y2.0796
G01 X-5.0000 Y2.0811
G01 X-5.8503 Y2.0811
G01 X-5.8766 Y2.1101
G01 X-5.8858 Y2.1195
G01 X-5.9280 Y2.1580
G01 X-5.9392 Y2.1674
G01 X-5.9846 Y2.2013
G01 X-5.9947 Y2.2083
G01 X-6.0455 Y2.2391
G01 X-6.0571 Y2.2456
G01 X-6.1099 Y2.2708
G01 X-6.1211 Y2.2757
G01 X-6.1869 Y2.2992
G01 X-6.1987 Y2.3025
G01 X-6.2565 Y2.3168
G01 X-6.2681 Y2.3188
G01 X-6.3237 Y2.3270
G01 X-6.3382 Y2.3282
G01 X-6.3891 Y2.3307
G01 X-6.4099 Y2.3308
G01 X-6.4608 Y2.3283
G01 X-6.4726 Y2.3274
G01 X-6.5361 Y2.3181
G01 X-6.5537 Y2.3145
G01 X-6.6026 Y2.3022
G01 X-6.6167 Y2.2981
G01 X-6.6754 Y2.2771
G01 X-6.6867 Y2.2723
G01 X-6.7087 Y2.2620
G01 X-6.7063 Y2.2781
G01 X-6.7052 Y2.2894
G01 X-6.7040 Y2.3122
G01 X-6.7039 Y2.3245
G01 X-6.7048 Y2.3450
G01 X-6.7058 Y2.3567
G01 X-6.7090 Y2.3798
G01 X-6.7115 Y2.3933
G01 X-6.7166 Y2.4141
G01 X-6.7199 Y2.4255
G01 X-6.7272 Y2.4466
G01 X-6.7315 Y2.4576
G01 X-6.7411 Y2.4784
G01 X-6.7466 Y2.4894
G01 X-6.7582 Y2.5091
G01 X-6.7644 Y2.5189
G01 X8.5340 Y2.5189
G01 X8.5180 Y2.5009
G01 X8.5030 Y2.4812
G01 X8.4938 Y2.4680
G01 X8.4832 Y2.4504
G01 X8.4753 Y2.4359
G01 X8.4652 Y2.4144
G01 X8.4606 Y2.4030
G01 X8.4529 Y2.3814
G01 X8.4488 Y2.3674
G01 X8.4431 Y2.3438
G01 X8.4392 Y2.3193
G01 X8.4376 Y2.3062
G01 X8.4363 Y2.2824
G01 X8.4361 Y2.2683
G01 X8.4373 Y2.2445
G01 X8.4392 Y2.2267
G01 X8.4431 Y2.2022
G01 X8.4485 Y2.1800
G01 X8.4529 Y2.1646
G01 X8.4597 Y2.1452
G01 X8.4660 Y2.1299
G01 X8.4762 Y2.1084
G01 X8.4820 Y2.0976
G01 X8.4928 Y2.0796
G01 X8.5007 Y2.0679
G01 X8.5150 Y2.0488
G01 X8.5235 Y2.0387
G01 X8.5376 Y2.0232
G01 X8.5464 Y2.0146
G01 X8.5619 Y2.0005
G01 X8.5968 Y1.9718
G01 X8.6314 Y1.9296
G01 X8.6571 Y1.8815
G01 X8.6729 Y1.8293
G01 X8.6799 Y1.7587
G01 X8.6783 Y1.5351
G01 X8.6308 Y1.5351
G01 X8.6294 Y1.5627
G01 X8.6285 Y1.5740
G01 X8.6236 Y1.6081
G01 X8.6214 Y1.6207
G01 X8.6133 Y1.6537
G01 X8.6100 Y1.6655
G01 X8.5985 Y1.6985
G01 X8.5937 Y1.7108
G01 X8.5793 Y1.7416
G01 X8.5738 Y1.7526
G01 X8.5560 Y1.7827
G01 X8.5494 Y1.7930
G01 X8.5288 Y1.8212
G01 X8.5212 Y1.8309
G01 X8.4979 Y1.8569
G01 X8.4888 Y1.8664
G01 X8.4559 Y1.8962
G01 X8.4234 Y1.9206
G01 X8.4109 Y1.9290
G01 X8.3862 Y1.9439
G01 X8.3759 Y1.9496
G01 X8.3666 Y1.9543
G01 X8.3427 Y1.9656
G01 X8.3323 Y1.9701
G01 X8.2999 Y1.9819
G01 X8.2878 Y1.9858
G01 X8.2448 Y1.9966
G01 X8.2331 Y1.9986
G01 X8.2018 Y2.0032
G01 X8.1863 Y2.0045
G01 X8.1505 Y2.0060
G01 X7.6453 Y2.0059
G01 X7.6038 Y2.0038
G01 X7.5673 Y1.9987
G01 X7.5488 Y1.9952
G01 X7.5140 Y1.9864
G01 X7.5001 Y1.9819
G01 X7.4668 Y1.9697
G01 X7.4334 Y1.9543
G01 X7.4216 Y1.9483
G01 X7.3911 Y1.9303
G01 X7.3796 Y1.9228
G01 X7.3508 Y1.9015
G01 X7.3377 Y1.8907
G01 X7.3146 Y1.8697
G01 X7.3021 Y1.8569
G01 X7.2788 Y1.8309
G01 X7.2566 Y1.8015
G01 X7.2465 Y1.7867
G01 X7.2281 Y1.7559
G01 X7.2215 Y1.7433
G01 X7.2086 Y1.7160
G01 X7.2028 Y1.7020
G01 X7.1908 Y1.6682
G01 X7.1870 Y1.6551
G01 X7.1790 Y1.6225
G01 X7.1765 Y1.6091
G01 X7.1715 Y1.5740
G01 X7.1706 Y1.5623
G01 X7.1691 Y1.5316
G01 X7.1690 Y0.5750
G01 X7.1706 Y0.5377
G01 X7.1721 Y0.5213
G01 X7.1770 Y0.4877
G01 X7.1806 Y0.4706
G01 X7.1894 Y0.4363
G01 X7.2017 Y0.4011
G01 X7.2086 Y0.3840
G01 X7.2240 Y0.3516
G01 X7.2311 Y0.3388
G01 X7.2495 Y0.3086
G01 X7.2712 Y0.2788
G01 X7.2794 Y0.2684
G01 X7.3046 Y0.2403
G01 X7.3167 Y0.2283
G01 X7.3398 Y0.2075
G01 X7.3538 Y0.1962
G01 X7.3836 Y0.1745
G01 X7.4149 Y0.1555
G01 X7.4149 Y0.0453
G01 X7.3457 Y0.0521
G01 X7.2935 Y0.0679
G01 X7.2454 Y0.0936
G01 X7.2032 Y0.1282
G01 X7.1686 Y0.1704
G01 X7.1422 Y0.2198
G01 X7.1368 Y0.2350
G01 X7.1325 Y0.2455
G01 X7.1234 Y0.2649
G01 X7.1185 Y0.2746
G01 X7.1019 Y0.3023
G01 X7.0841 Y0.3269
G01 X7.0751 Y0.3379
G01 X7.0590 Y0.3555
G01 X7.0495 Y0.3647
G01 X7.0339 Y0.3787
G01 X7.0229 Y0.3876
G01 X7.0052 Y0.4006
G01 X6.9957 Y0.4068
G01 X6.9786 Y0.4171
G01 X6.9652 Y0.4242
G01 X6.9437 Y0.4343
G01 X6.9314 Y0.4392
G01 X6.9116 Y0.4462
G01 X6.8980 Y0.4502
G01 X6.8767 Y0.4554
G01 X6.8656 Y0.4575
G01 X6.8458 Y0.4604
G01 X6.8307 Y0.4619
G01 X6.8079 Y0.4630
G01 X6.7956 Y0.4629
G01 X6.7756 Y0.4619
G01 X6.7615 Y0.4606
G01 X6.7408 Y0.4575
G01 X6.7287 Y0.4552
G01 X6.7147 Y0.4518
G00 Z1.0000
G00 X8.2311 Y0.2585
G01 F25.00
G01 Z-0.1000
G01 F100.00
G01 X8.2467 Y0.2627
G01 X8.2769 Y0.2736
G01 X8.3041 Y0.2866
G01 X8.3332 Y0.3042
G01 X8.3574 Y0.3222
G01 X8.3812 Y0.3438
G01 X8.4028 Y0.3676
G01 X8.4197 Y0.3902
G01 X8.4239 Y0.3965
G01 X8.4384 Y0.4209
G01 X8.4521 Y0.4499
G01 X8.4629 Y0.4801
G01 X8.4707 Y0.5112
G01 X8.4754 Y0.5429
G01 X8.4769 Y0.5712
G01 X8.4770 Y0.6604
G01 X8.8312 Y0.3062
G01 X8.8247 Y0.2405
G01 X8.8001 Y0.1593
G01 X8.7600 Y0.0844
G01 X8.7062 Y0.0188
G01 X8.6406 Y-0.0350
G01 X8.5657 Y-0.0751
G01 X8.4845 Y-0.0997
G01 X8.3914 Y-0.1089
G01 X8.2715 Y-0.1071
G01 X8.2311 Y-0.0667
G01 X8.2311 Y0.2585
G01 X8.3081 Y0.2032
G01 X8.3345 Y0.2157
G01 X8.3429 Y0.2201
G01 X8.3705 Y0.2365
G01 X8.3799 Y0.2429
G01 X8.4070 Y0.2633
G01 X8.4363 Y0.2900
G01 X8.4629 Y0.3194
G01 X8.4854 Y0.3498
G01 X8.5058 Y0.3837
G01 X8.5221 Y0.4178
G01 X8.5256 Y0.4266
G01 X8.5358 Y0.4550
G01 X8.5436 Y0.4849
G01 X8.7510 Y0.2775
G01 X8.7488 Y0.2556
G01 X8.7286 Y0.1889
G01 X8.6957 Y0.1274
G01 X8.6515 Y0.0735
G01 X8.5976 Y0.0293
G01 X8.5361 Y-0.0036
G01 X8.4694 Y-0.0238
G01 X8.3882 Y-0.0318
G01 X8.3081 Y-0.0307
G01 X8.3081 Y0.2032
G01 X8.3851 Y0.1555
G01 X8.4180 Y0.1756
G01 X8.4477 Y0.1973
G01 X8.4623 Y0.2093
G01 X8.4833 Y0.2283
G01 X8.4914 Y0.2362
G01 X8.5169 Y0.2641
G01 X8.5288 Y0.2788
G01 X8.5445 Y0.3000
G01 X8.5510 Y0.3093
G01 X8.5732 Y0.3464
G01 X8.6673 Y0.2523
G01 X8.6571 Y0.2185
G01 X8.6314 Y0.1704
G01 X8.5968 Y0.1282
G01 X8.5546 Y0.0936
G01 X8.5065 Y0.0679
G01 X8.4543 Y0.0521
G01 X8.3851 Y0.0453
G01 X8.3851 Y0.1555
G00 Z1.0000
G00 X6.8658 Y2.1339
G01 F25.00
G01 Z-0.1000
G01 F100.00
G01 X7.0342 Y2.1339
G01 X7.0174 Y2.1161
G01 X6.9866 Y2.0816
G01 X6.9697 Y2.0607
G01 X6.9500 Y2.0344
G01 X6.9304 Y2.0606
G01 X6.9135 Y2.0815
G01 X6.8825 Y2.1162
G01 X6.8658 Y2.1339
G01 X6.6397 Y2.2109
G01 X7.2603 Y2.2109
G01 X7.2293 Y2.1923
G01 X7.2103 Y2.1801
G01 X7.1933 Y2.1682
G01 X7.1619 Y2.1448
G01 X7.1462 Y2.1322
G01 X7.1306 Y2.1187
G01 X7.1033 Y2.0938
G01 X7.0848 Y2.0755
G01 X7.0563 Y2.0443
G01 X7.0419 Y2.0277
G01 X7.0284 Y2.0108
G01 X7.0059 Y1.9805
G01 X6.9934 Y1.9624
G01 X6.9819 Y1.9444
G01 X6.9625 Y1.9119
G01 X6.9500 Y1.8890
G01 X6.9376 Y1.9118
G01 X6.9180 Y1.9445
G01 X6.9067 Y1.9624
G01 X6.8940 Y1.9806
G01 X6.8715 Y2.0109
G01 X6.8575 Y2.0284
G01 X6.8437 Y2.0444
G01 X6.8145 Y2.0762
G01 X6.7964 Y2.0941
G01 X6.7691 Y2.1190
G01 X6.7539 Y2.1322
G01 X6.7380 Y2.1449
G01 X6.7068 Y2.1681
G01 X6.6896 Y2.1802
G01 X6.6708 Y2.1922
G01 X6.6397 Y2.2109
G00 Z1.0000
G00 X4.6212 Y1.9799
G01 F25.00
G01 Z-0.1000
G01 F100.00
G01 X4.8372 Y1.9799
G01 X4.8178 Y1.9388
G01 X4.8054 Y1.9098
G01 X4.7945 Y1.8813
G01 X4.7838 Y1.8513
G01 X4.7773 Y1.8321
G01 X4.7671 Y1.7972
G01 X4.7549 Y1.7486
G01 X4.7482 Y1.7167
G01 X4.7427 Y1.6836
G01 X4.7322 Y1.7249
G01 X4.7226 Y1.7571
G01 X4.7162 Y1.7763
G01 X4.7051 Y1.8074
G01 X4.6935 Y1.8375
G01 X4.6798 Y1.8691
G01 X4.6570 Y1.9166
G01 X4.6412 Y1.9460
G01 X4.6212 Y1.9799
G01 X4.4717 Y2.0569
G01 X4.9713 Y2.0569
G01 X4.9604 Y2.0404
G01 X4.9503 Y2.0243
G01 X4.9316 Y1.9932
G01 X4.9201 Y1.9729
G01 X4.9037 Y1.9404
G01 X4.8885 Y1.9082
G01 X4.8795 Y1.8876
G01 X4.8702 Y1.8641
G01 X4.8583 Y1.8310
G01 X4.8471 Y1.7969
G01 X4.8409 Y1.7753
G01 X4.8320 Y1.7400
G01 X4.8279 Y1.7221
G01 X4.8240 Y1.7034
G01 X4.8204 Y1.6826
G01 X4.8157 Y1.6512
G01 X4.8121 Y1.6230
G01 X4.8096 Y1.5934
G01 X4.8074 Y1.5476
G01 X4.8070 Y1.5253
G01 X4.8070 Y1.1908
G01 X4.6930 Y1.0768
G01 X4.6930 Y1.4554
G01 X4.6925 Y1.4768
G01 X4.6910 Y1.5085
G01 X4.6889 Y1.5375
G01 X4.6857 Y1.5663
G01 X4.6792 Y1.6101
G01 X4.6745 Y1.6359
G01 X4.6690 Y1.6609
G01 X4.6589 Y1.7011
G01 X4.6510 Y1.7282
G01 X4.6426 Y1.7537
G01 X4.6266 Y1.7975
G01 X4.6133 Y1.8291
G01 X4.5938 Y1.8707
G01 X4.5801 Y1.8974
G01 X4.5652 Y1.9236
G01 X4.5440 Y1.9587
G01 X4.5255 Y1.9864
G01 X4.4938 Y2.0295
G01 X4.4717 Y2.0569
G01 X4.2811 Y2.1339
G01 X5.1342 Y2.1339
G01 X5.1195 Y2.1184
G01 X5.0923 Y2.0883
G01 X5.0779 Y2.0711
G01 X5.0645 Y2.0540
G01 X5.0420 Y2.0235
G01 X5.0285 Y2.0040
G01 X5.0160 Y1.9842
G01 X4.9951 Y1.9491
G01 X4.9848 Y1.9304
G01 X4.9751 Y1.9113
G01 X4.9584 Y1.8758
G01 X4.9487 Y1.8535
G01 X4.9405 Y1.8322
G01 X4.9268 Y1.7937
G01 X4.9200 Y1.7721
G01 X4.9139 Y1.7500
G01 X4.9034 Y1.7072
G01 X4.8970 Y1.6741
G01 X4.8895 Y1.6218
G01 X4.8873 Y1.6006
G01 X4.8860 Y1.5802
G01 X4.8845 Y1.5488
G01 X4.8840 Y1.5271
G01 X4.8840 Y1.1589
G01 X4.6160 Y0.8909
G01 X4.6160 Y1.4538
G01 X4.6155 Y1.4739
G01 X4.6140 Y1.5057
G01 X4.6117 Y1.5358
G01 X4.6082 Y1.5647
G01 X4.6032 Y1.5976
G01 X4.5997 Y1.6171
G01 X4.5933 Y1.6464
G01 X4.5854 Y1.6775
G01 X4.5804 Y1.6958
G01 X4.5708 Y1.7257
G01 X4.5533 Y1.7734
G01 X4.5417 Y1.8007
G01 X4.5218 Y1.8426
G01 X4.5126 Y1.8603
G01 X4.5033 Y1.8769
G01 X4.4839 Y1.9094
G01 X4.4729 Y1.9268
G01 X4.4529 Y1.9555
G01 X4.4324 Y1.9830
G01 X4.4179 Y2.0012
G01 X4.4039 Y2.0176
G01 X4.3805 Y2.0434
G01 X4.3684 Y2.0562
G01 X4.3553 Y2.0693
G01 X4.3418 Y2.0820
G01 X4.3130 Y2.1079
G01 X4.2971 Y2.1213
G01 X4.2811 Y2.1339
G01 X3.9582 Y2.2109
G01 X5.3603 Y2.2109
G01 X5.3264 Y2.1905
G01 X5.3053 Y2.1767
G01 X5.2677 Y2.1492
G01 X5.2475 Y2.1332
G01 X5.2295 Y2.1177
G01 X5.2073 Y2.0976
G01 X5.1941 Y2.0849
G01 X5.1767 Y2.0669
G01 X5.1477 Y2.0346
G01 X5.1287 Y2.0111
G01 X5.1002 Y1.9725
G01 X5.0854 Y1.9501
G01 X5.0655 Y1.9171
G01 X5.0534 Y1.8955
G01 X5.0424 Y1.8736
G01 X5.0252 Y1.8367
G01 X5.0132 Y1.8068
G01 X5.0008 Y1.7720
G01 X4.9944 Y1.7520
G01 X4.9888 Y1.7321
G01 X4.9794 Y1.6940
G01 X4.9752 Y1.6741
G01 X4.9718 Y1.6538
G01 X4.9665 Y1.6177
G01 X4.9638 Y1.5908
G01 X4.9615 Y1.5492
G01 X4.9610 Y1.5274
G01 X4.9610 Y1.1270
G01 X4.5390 Y0.7050
G01 X4.5390 Y1.4508
G01 X4.5386 Y1.4708
G01 X4.5371 Y1.5026
G01 X4.5353 Y1.5259
G01 X4.5326 Y1.5494
G01 X4.5267 Y1.5886
G01 X4.5213 Y1.6159
G01 X4.5113 Y1.6567
G01 X4.5054 Y1.6779
G01 X4.4981 Y1.7001
G01 X4.4842 Y1.7387
G01 X4.4775 Y1.7554
G01 X4.4704 Y1.7715
G01 X4.4556 Y1.8028
G01 X4.4463 Y1.8210
G01 X4.4357 Y1.8401
G01 X4.4180 Y1.8695
G01 X4.4082 Y1.8850
G01 X4.3980 Y1.9000
G01 X4.3675 Y1.9411
G01 X4.3564 Y1.9547
G01 X4.3442 Y1.9688
G01 X4.3224 Y1.9928
G01 X4.3086 Y2.0072
G01 X4.2944 Y2.0210
G01 X4.2691 Y2.0440
G01 X4.2540 Y2.0570
G01 X4.2391 Y2.0690
G01 X4.1960 Y2.1008
G01 X4.1689 Y2.1184
G01 X4.1404 Y2.1355
G01 X4.1232 Y2.1451
G01 X4.1053 Y2.1543
G01 X4.0746 Y2.1689
G01 X4.0448 Y2.1818
G01 X4.0287 Y2.1879
G01 X3.9939 Y2.2003
G01 X3.9764 Y2.2058
G01 X3.9582 Y2.2109
G00 Z1.0000
G00 X2.2811 Y2.1339
G01 F25.00
G01 Z-0.1000
G01 F100.00
G01 X2.5189 Y2.1339
G01 X2.5042 Y2.1223
G01 X2.4899 Y2.1104
G01 X2.4509 Y2.0752
G01 X2.4280 Y2.0525
G01 X2.4000 Y2.0219
G01 X2.3719 Y2.0526
G01 X2.3492 Y2.0751
G01 X2.3102 Y2.1103
G01 X2.2959 Y2.1223
G01 X2.2811 Y2.1339
G01 X1.9582 Y2.2109
G01 X2.8418 Y2.2109
G01 X2.8106 Y2.2018
G01 X2.7720 Y2.1882
G01 X2.7490 Y2.1793
G01 X2.7255 Y2.1690
G01 X2.6911 Y2.1526
G01 X2.6657 Y2.1390
G01 X2.6251 Y2.1148
G01 X2.5989 Y2.0972
G01 X2.5659 Y2.0729
G01 X2.5455 Y2.0566
G01 X2.5326 Y2.0455
G01 X2.5100 Y2.0250
G01 X2.4910 Y2.0068
G01 X2.4739 Y1.9888
G01 X2.4538 Y1.9666
G01 X2.4419 Y1.9527
G01 X2.4262 Y1.9329
G01 X2.4000 Y1.8972
G01 X2.3738 Y1.9328
G01 X2.3581 Y1.9527
G01 X2.3460 Y1.9668
G01 X2.3260 Y1.9889
G01 X2.3091 Y2.0067
G01 X2.2901 Y2.0250
G01 X2.2675 Y2.0454
G01 X2.2545 Y2.0566
G01 X2.2342 Y2.0728
G01 X2.2010 Y2.0973
G01 X2.1749 Y2.1147
G01 X2.1344 Y2.1390
G01 X2.1089 Y2.1526
G01 X2.0746 Y2.1689
G01 X2.0509 Y2.1794
G01 X2.0279 Y2.1882
G01 X1.9892 Y2.2018
G01 X1.9582 Y2.2109
G00 Z1.0000
G00 X2.2569 Y0.3173
G01 F25.00
G01 Z-0.1000
G01 F100.00
G01 X2.2569 Y0.3086
G01 X2.2535 Y0.3101
G01 X2.2569 Y0.3173
G00 Z1.0000
G00 X-2.1650 Y-0.5940
G01 F25.00
G01 Z-0.1000
G01 F100.00
G01 X-2.1663 Y-0.6078
G01 X-2.1674 Y-0.6306
G01 X-2.1673 Y-0.6419
G01 X-2.1665 Y-0.6591
G01 X-2.1645 Y-0.6803
G01 X-2.1618 Y-0.6987
G01 X-2.1590 Y-0.7126
G01 X-2.1515 Y-0.7411
G01 X-2.1441 Y-0.7622
G01 X-2.1398 Y-0.7732
G01 X-2.1256 Y-0.8033
G01 X-2.1203 Y-0.8128
G01 X-2.1092 Y-0.8311
G01 X-2.1028 Y-0.8405
G01 X-2.0920 Y-0.8550
G01 X-2.0797 Y-0.8700
G01 X-2.0612 Y-0.8898
G01 X-2.0380 Y-0.9109
G01 X-2.0164 Y-0.9274
G01 X-2.0020 Y-0.9371
G01 X-1.9815 Y-0.9493
G01 X-1.9454 Y-0.9686
G01 X-1.9032 Y-1.0032
G01 X-1.8686 Y-1.0454
G01 X-1.8429 Y-1.0935
G01 X-1.8271 Y-1.1457
G01 X-1.8202 Y-1.2158
G01 X-1.8211 Y-1.3149
G01 X-1.8884 Y-1.3149
G01 X-1.8928 Y-1.3009
G01 X-1.9042 Y-1.2694
G01 X-1.9094 Y-1.2573
G01 X-1.9213 Y-1.2321
G01 X-1.9290 Y-1.2175
G01 X-1.9440 Y-1.1923
G01 X-1.9495 Y-1.1836
G01 X-1.9566 Y-1.1735
G01 X-1.9735 Y-1.1508
G01 X-1.9806 Y-1.1420
G01 X-2.0030 Y-1.1170
G01 X-2.0126 Y-1.1072
G01 X-2.0366 Y-1.0853
G01 X-2.0456 Y-1.0776
G01 X-2.0735 Y-1.0566
G01 X-2.0843 Y-1.0490
G01 X-2.1216 Y-1.0267
G01 X-2.1317 Y-1.0215
G01 X-2.1556 Y-1.0102
G01 X-2.1730 Y-1.0028
G01 X-2.2113 Y-0.9894
G01 X-2.2543 Y-0.9786
G01 X-2.2655 Y-0.9766
G01 X-2.2916 Y-0.9727
G01 X-2.3104 Y-0.9707
G01 X-2.3500 Y-0.9690
G01 X-3.2536 Y-0.9690
G01 X-3.2873 Y-0.9705
G01 X-3.3045 Y-0.9722
G01 X-3.3393 Y-0.9774
G01 X-3.3726 Y-0.9850
G01 X-3.3884 Y-0.9894
G01 X-3.4204 Y-1.0002
G01 X-3.4332 Y-1.0054
G01 X-3.4636 Y-1.0190
G01 X-3.4940 Y-1.0356
G01 X-3.5047 Y-1.0420
G01 X-3.5341 Y-1.0620
G01 X-3.5469 Y-1.0717
G01 X-3.5754 Y-1.0957
G01 X-3.6049 Y-1.1253
G01 X-3.6125 Y-1.1340
G01 X-3.6328 Y-1.1587
G01 X-3.6534 Y-1.1882
G01 X-3.6641 Y-1.2056
G01 X-3.6773 Y-1.2293
G01 X-3.6836 Y-1.2420
G01 X-3.6988 Y-1.2771
G01 X-3.7116 Y-1.3149
G01 X-3.7789 Y-1.3149
G01 X-3.7798 Y-1.2158
G01 X-3.7729 Y-1.1457
G01 X-3.7571 Y-1.0935
G01 X-3.7314 Y-1.0454
G01 X-3.6968 Y-1.0032
G01 X-3.6546 Y-0.9686
G01 X-3.6185 Y-0.9493
G01 X-3.5980 Y-0.9371
G01 X-3.5836 Y-0.9274
G01 X-3.5620 Y-0.9109
G01 X-3.5388 Y-0.8898
G01 X-3.5203 Y-0.8700
G01 X-3.5080 Y-0.8550
G01 X-3.4972 Y-0.8405
G01 X-3.4908 Y-0.8311
G01 X-3.4797 Y-0.8128
G01 X-3.4744 Y-0.8033
G01 X-3.4602 Y-0.7732
G01 X-3.4559 Y-0.7622
G01 X-3.4485 Y-0.7411
G01 X-3.4410 Y-0.7126
G01 X-3.4382 Y-0.6987
G01 X-3.4355 Y-0.6803
G01 X-3.4335 Y-0.6591
G01 X-3.4327 Y-0.6419
G01 X-3.4326 Y-0.6306
G01 X-3.4337 Y-0.6078
G01 X-3.4350 Y-0.5940
G01 X-3.4235 Y-0.5985
G01 X-3.3905 Y-0.6100
G01 X-3.3787 Y-0.6133
G01 X-3.3457 Y-0.6214
G01 X-3.3331 Y-0.6236
G01 X-3.2990 Y-0.6285
G01 X-3.2873 Y-0.6294
G01 X-3.2576 Y-0.6309
G01 X-3.2500 Y-0.6310
G01 X-2.3500 Y-0.6310
G01 X-2.3142 Y-0.6295
G01 X-2.3019 Y-0.6286
G01 X-2.2673 Y-0.6237
G01 X-2.2552 Y-0.6216
G01 X-2.2213 Y-0.6133
G01 X-2.2095 Y-0.6100
G01 X-2.1765 Y-0.5985
G01 X-2.1650 Y-0.5940
G01 X-3.3124 Y-0.8181
G01 X-3.3047 Y-0.7966
G01 X-3.3003 Y-0.7829
G01 X-3.2664 Y-0.7846
G01 X-3.2504 Y-0.7850
G01 X-3.2500 Y-0.7850
G01 X-2.3500 Y-0.7850
G01 X-2.3338 Y-0.7847
G01 X-2.2997 Y-0.7829
G01 X-2.2953 Y-0.7966
G01 X-2.2876 Y-0.8181
G01 X-2.3065 Y-0.8167
G01 X-2.3344 Y-0.8153
G01 X-2.3491 Y-0.8150
G01 X-3.2500 Y-0.8150
G01 X-3.2646 Y-0.8153
G01 X-3.2917 Y-0.8165
G01 X-3.3124 Y-0.8181
G01 X-3.4834 Y-0.9434
G01 X-3.4732 Y-0.9327
G01 X-3.4573 Y-0.9149
G01 X-3.4481 Y-0.9036
G01 X-3.4361 Y-0.8873
G01 X-3.4284 Y-0.8762
G01 X-3.4213 Y-0.8651
G01 X-3.4110 Y-0.8479
G01 X-3.4030 Y-0.8329
G01 X-3.3937 Y-0.8133
G01 X-3.3881 Y-0.8005
G01 X-3.3833 Y-0.7879
G01 X-3.3751 Y-0.7643
G01 X-3.3709 Y-0.7496
G01 X-3.3653 Y-0.7267
G01 X-3.3627 Y-0.7137
G01 X-3.3601 Y-0.6970
G01 X-3.3442 Y-0.6998
G01 X-3.3061 Y-0.7052
G01 X-3.2903 Y-0.7064
G01 X-3.2528 Y-0.7080
G01 X-3.2500 Y-0.7080
G01 X-2.3500 Y-0.7080
G01 X-2.3104 Y-0.7064
G01 X-2.2944 Y-0.7052
G01 X-2.2558 Y-0.6998
G01 X-2.2399 Y-0.6970
G01 X-2.2373 Y-0.7137
G01 X-2.2347 Y-0.7267
G01 X-2.2291 Y-0.7496
G01 X-2.2249 Y-0.7643
G01 X-2.2167 Y-0.7879
G01 X-2.2119 Y-0.8005
G01 X-2.2063 Y-0.8133
G01 X-2.1970 Y-0.8329
G01 X-2.1890 Y-0.8479
G01 X-2.1787 Y-0.8651
G01 X-2.1716 Y-0.8762
G01 X-2.1637 Y-0.8877
G01 X-2.1519 Y-0.9036
G01 X-2.1427 Y-0.9149
G01 X-2.1268 Y-0.9327
G01 X-2.1164 Y-0.9435
G01 X-2.1304 Y-0.9371
G01 X-2.1422 Y-0.9322
G01 X-2.1799 Y-0.9186
G01 X-2.1980 Y-0.9132
G01 X-2.2351 Y-0.9040
G01 X-2.2542 Y-0.9004
G01 X-2.2939 Y-0.8948
G01 X-2.3104 Y-0.8936
G01 X-2.3500 Y-0.8920
G01 X-3.2500 Y-0.8920
G01 X-3.2642 Y-0.8923
G01 X-3.2931 Y-0.8937
G01 X-3.3094 Y-0.8952
G01 X-3.3446 Y-0.9001
G01 X-3.3662 Y-0.9044
G01 X-3.3967 Y-0.9117
G01 X-3.4161 Y-0.9174
G01 X-3.4507 Y-0.9294
G01 X-3.4834 Y-0.9434
G00 Z1.0000
G00 X-3.5770 Y-2.1311
G01 F25.00
G01 Z-0.1000
G01 F100.00
G01 X-3.5770 Y-2.1519
G01 X-3.5756 Y-2.1802
G01 X-3.5711 Y-2.2119
G01 X-3.5629 Y-2.2449
G01 X-3.5514 Y-2.2769
G01 X-3.5401 Y-2.3008
G01 X-3.5365 Y-2.3074
G01 X-3.5219 Y-2.3317
G01 X-3.5051 Y-2.3545
G01 X-3.5003 Y-2.3603
G01 X-3.4812 Y-2.3812
G01 X-3.4560 Y-2.4040
G01 X-3.4317 Y-2.4219
G01 X-3.4074 Y-2.4365
G01 X-3.4008 Y-2.4401
G01 X-3.3751 Y-2.4521
G01 X-3.3485 Y-2.4617
G01 X-3.3413 Y-2.4639
G01 X-3.3156 Y-2.4703
G01 X-3.2821 Y-2.4754
G01 X-3.2519 Y-2.4770
G01 X-3.1311 Y-2.4770
G01 X-3.1311 Y-2.7917
G01 X-3.1709 Y-2.8316
G01 X-3.4907 Y-2.8339
G01 X-3.5845 Y-2.8247
G01 X-3.6657 Y-2.8001
G01 X-3.7406 Y-2.7600
G01 X-3.8062 Y-2.7062
G01 X-3.8600 Y-2.6406
G01 X-3.9001 Y-2.5657
G01 X-3.9247 Y-2.4845
G01 X-3.9339 Y-2.3910
G01 X-3.9318 Y-2.1711
G01 X-3.8917 Y-2.1311
G01 X-3.5770 Y-2.1311
G01 X-3.7789 Y-2.2851
G01 X-3.7116 Y-2.2851
G01 X-3.7080 Y-2.2968
G01 X-3.6980 Y-2.3248
G01 X-3.6900 Y-2.3440
G01 X-3.6785 Y-2.3683
G01 X-3.6733 Y-2.3784
G01 X-3.6505 Y-2.4164
G01 X-3.6434 Y-2.4265
G01 X-3.6230 Y-2.4537
G01 X-3.6157 Y-2.4623
G01 X-3.5979 Y-2.4819
G01 X-3.5833 Y-2.4967
G01 X-3.5623 Y-2.5157
G01 X-3.5522 Y-2.5242
G01 X-3.5180 Y-2.5494
G01 X-3.4854 Y-2.5693
G01 X-3.4679 Y-2.5787
G01 X-3.4427 Y-2.5906
G01 X-3.4306 Y-2.5958
G01 X-3.3905 Y-2.6100
G01 X-3.3512 Y-2.6202
G01 X-3.3364 Y-2.6231
G01 X-3.3070 Y-2.6275
G01 X-3.2962 Y-2.6288
G01 X-3.2851 Y-2.6296
G01 X-3.2851 Y-2.6784
G01 X-3.4837 Y-2.6799
G01 X-3.5543 Y-2.6729
G01 X-3.6065 Y-2.6571
G01 X-3.6546 Y-2.6314
G01 X-3.6968 Y-2.5968
G01 X-3.7314 Y-2.5546
G01 X-3.7571 Y-2.5065
G01 X-3.7729 Y-2.4543
G01 X-3.7798 Y-2.3842
G01 X-3.7789 Y-2.2851
G01 X-3.8551 Y-2.2081
G01 X-3.6495 Y-2.2081
G01 X-3.6471 Y-2.2242
G01 X-3.6452 Y-2.2334
G01 X-3.6384 Y-2.2609
G01 X-3.6352 Y-2.2718
G01 X-3.6229 Y-2.3055
G01 X-3.6093 Y-2.3345
G01 X-3.6040 Y-2.3446
G01 X-3.5854 Y-2.3752
G01 X-3.5617 Y-2.4070
G01 X-3.5350 Y-2.4363
G01 X-3.5120 Y-2.4574
G01 X-3.5041 Y-2.4641
G01 X-3.4737 Y-2.4864
G01 X-3.4396 Y-2.5067
G01 X-3.4055 Y-2.5229
G01 X-3.3682 Y-2.5363
G01 X-3.3297 Y-2.5460
G01 X-3.2905 Y-2.5520
G01 X-3.2547 Y-2.5539
G01 X-3.2081 Y-2.5540
G01 X-3.2081 Y-2.7548
G01 X-3.4872 Y-2.7569
G01 X-3.5694 Y-2.7488
G01 X-3.6361 Y-2.7286
G01 X-3.6976 Y-2.6957
G01 X-3.7515 Y-2.6515
G01 X-3.7957 Y-2.5976
G01 X-3.8286 Y-2.5361
G01 X-3.8488 Y-2.4694
G01 X-3.8569 Y-2.3876
G01 X-3.8551 Y-2.2081
G00 Z1.0000
G00 X-2.0647 Y-2.6292
G01 F25.00
G01 Z-0.1000
G01 F100.00
G01 X-2.0483 Y-2.6193
G01 X-2.0376 Y-2.6124
G01 X-2.0030 Y-2.5869
G01 X-1.9865 Y-2.5732
G01 X-1.9561 Y-2.5452
G01 X-1.9468 Y-2.5355
G01 X-1.9273 Y-2.5140
G01 X-1.9134 Y-2.4973
G01 X-1.8887 Y-2.4639
G01 X-1.8812 Y-2.4525
G01 X-1.8710 Y-2.4357
G01 X-1.8625 Y-2.4573
G01 X-1.8499 Y-2.4838
G01 X-1.8410 Y-2.5003
G01 X-1.8284 Y-2.5210
G01 X-1.8179 Y-2.5366
G01 X-1.8013 Y-2.5585
G01 X-1.7907 Y-2.5711
G01 X-1.7733 Y-2.5899
G01 X-1.7598 Y-2.6030
G01 X-1.7392 Y-2.6211
G01 X-1.7329 Y-2.6261
G01 X-1.7318 Y-2.6270
G01 X-1.7303 Y-2.6281
G01 X-1.7300 Y-2.6284
G01 X-1.7292 Y-2.6290
G01 X-1.7258 Y-2.6315
G01 X-1.7047 Y-2.6467
G01 X-1.6905 Y-2.6557
G01 X-1.6669 Y-2.6692
G01 X-1.6526 Y-2.6764
G01 X-1.6272 Y-2.6878
G01 X-1.8124 Y-2.8731
G01 X-1.8188 Y-2.8584
G01 X-1.8313 Y-2.8328
G01 X-1.8449 Y-2.8092
G01 X-1.8539 Y-2.7951
G01 X-1.8691 Y-2.7739
G01 X-1.8796 Y-2.7606
G01 X-1.8978 Y-2.7400
G01 X-1.9109 Y-2.7265
G01 X-1.9297 Y-2.7091
G01 X-1.9423 Y-2.6985
G01 X-1.9643 Y-2.6819
G01 X-1.9799 Y-2.6714
G01 X-2.0006 Y-2.6589
G01 X-2.0172 Y-2.6500
G01 X-2.0421 Y-2.6382
G01 X-2.0647 Y-2.6292
G01 X-1.9213 Y-2.6180
G01 X-1.9017 Y-2.5997
G01 X-1.8822 Y-2.5790
G01 X-1.8662 Y-2.6005
G01 X-1.8548 Y-2.6147
G01 X-1.8511 Y-2.6189
G01 X-1.8486 Y-2.6218
G01 X-1.8485 Y-2.6220
G01 X-1.8482 Y-2.6223
G01 X-1.8480 Y-2.6225
G01 X-1.8468 Y-2.6239
G01 X-1.8356 Y-2.6361
G01 X-1.8236 Y-2.6485
G01 X-1.8100 Y-2.6614
G01 X-1.7884 Y-2.6803
G01 X-1.7751 Y-2.6908
G01 X-1.7543 Y-2.7061
G01 X-1.7942 Y-2.7460
G01 X-1.8099 Y-2.7246
G01 X-1.8203 Y-2.7115
G01 X-1.8393 Y-2.6898
G01 X-1.8521 Y-2.6763
G01 X-1.8648 Y-2.6641
G01 X-1.8863 Y-2.6449
G01 X-1.9003 Y-2.6336
G01 X-1.9213 Y-2.6180
G01 X-1.4732 Y-2.6427
G01 X-1.8575 Y-3.0271
G01 X-1.8586 Y-3.0069
G01 X-1.8603 Y-2.9919
G01 X-1.8638 Y-2.9694
G01 X-1.8694 Y-2.9453
G01 X-1.8738 Y-2.9299
G01 X-1.8816 Y-2.9076
G01 X-1.8866 Y-2.8954
G01 X-1.8945 Y-2.8785
G01 X-1.9021 Y-2.8639
G01 X-1.9142 Y-2.8435
G01 X-1.9210 Y-2.8334
G01 X-1.9346 Y-2.8150
G01 X-1.9436 Y-2.8042
G01 X-1.9583 Y-2.7880
G01 X-1.9677 Y-2.7787
G01 X-1.9832 Y-2.7647
G01 X-1.9945 Y-2.7555
G01 X-2.0140 Y-2.7411
G01 X-2.0349 Y-2.7281
G01 X-2.0464 Y-2.7215
G01 X-2.0677 Y-2.7111
G01 X-2.0806 Y-2.7055
G01 X-2.1029 Y-2.6973
G01 X-2.1201 Y-2.6922
G01 X-2.1367 Y-2.6879
G01 X-2.1496 Y-2.6853
G01 X-2.1712 Y-2.6819
G01 X-2.1852 Y-2.6805
G01 X-2.2113 Y-2.6792
G01 X-2.3149 Y-2.6784
G01 X-2.3149 Y-2.6296
G01 X-2.2953 Y-2.6278
G01 X-2.2571 Y-2.6219
G01 X-2.2195 Y-2.6128
G01 X-2.2009 Y-2.6072
G01 X-2.1651 Y-2.5940
G01 X-2.1300 Y-2.5777
G01 X-2.1138 Y-2.5689
G01 X-2.0891 Y-2.5540
G01 X-2.0789 Y-2.5473
G01 X-2.0534 Y-2.5285
G01 X-2.0441 Y-2.5212
G01 X-2.0106 Y-2.4908
G01 X-2.0021 Y-2.4819
G01 X-1.9794 Y-2.4566
G01 X-1.9723 Y-2.4477
G01 X-1.9555 Y-2.4250
G01 X-1.9465 Y-2.4117
G01 X-1.9314 Y-2.3866
G01 X-1.9262 Y-2.3776
G01 X-1.9209 Y-2.3670
G01 X-1.9086 Y-2.3410
G01 X-1.9042 Y-2.3306
G01 X-1.8928 Y-2.2991
G01 X-1.8884 Y-2.2851
G01 X-1.8211 Y-2.2851
G01 X-1.8208 Y-2.2983
G01 X-1.8192 Y-2.3215
G01 X-1.8176 Y-2.3341
G01 X-1.8140 Y-2.3561
G01 X-1.8111 Y-2.3685
G01 X-1.8051 Y-2.3909
G01 X-1.8013 Y-2.4020
G01 X-1.7935 Y-2.4229
G01 X-1.7883 Y-2.4345
G01 X-1.7780 Y-2.4553
G01 X-1.7721 Y-2.4655
G01 X-1.7604 Y-2.4845
G01 X-1.7530 Y-2.4948
G01 X-1.7395 Y-2.5125
G01 X-1.7318 Y-2.5214
G01 X-1.7179 Y-2.5364
G01 X-1.7078 Y-2.5462
G01 X-1.6900 Y-2.5619
G01 X-1.6807 Y-2.5691
G01 X-1.6634 Y-2.5817
G01 X-1.6519 Y-2.5890
G01 X-1.6318 Y-2.6007
G01 X-1.6213 Y-2.6060
G01 X-1.6028 Y-2.6146
G01 X-1.5897 Y-2.6198
G01 X-1.5691 Y-2.6269
G01 X-1.5564 Y-2.6305
G01 X-1.5361 Y-2.6354
G01 X-1.5241 Y-2.6377
G01 X-1.5015 Y-2.6409
G01 X-1.4959 Y-2.6415
G01 X-1.4950 Y-2.6416
G01 X-1.4931 Y-2.6417
G01 X-1.4903 Y-2.6419
G01 X-1.4732 Y-2.6427
G00 Z1.0000
G00 X-2.2018 Y-5.3647
G01 F25.00
G01 Z-0.1000
G01 F100.00
G01 X-2.2052 Y-5.3787
G01 X-2.2075 Y-5.3908
G01 X-2.2106 Y-5.4115
G01 X-2.2119 Y-5.4256
G01 X-2.2129 Y-5.4456
G01 X-2.2130 Y-5.4579
G01 X-2.2119 Y-5.4807
G01 X-2.2104 Y-5.4958
G01 X-2.2075 Y-5.5156
G01 X-2.2054 Y-5.5267
G01 X-2.2002 Y-5.5480
G01 X-2.1962 Y-5.5616
G01 X-2.1892 Y-5.5814
G01 X-2.1843 Y-5.5937
G01 X-2.1742 Y-5.6152
G01 X-2.1671 Y-5.6286
G01 X-2.1568 Y-5.6457
G01 X-2.1506 Y-5.6552
G01 X-2.1376 Y-5.6729
G01 X-2.1287 Y-5.6839
G01 X-2.1147 Y-5.6995
G01 X-2.1055 Y-5.7090
G01 X-2.0879 Y-5.7251
G01 X-2.0769 Y-5.7341
G01 X-2.0523 Y-5.7519
G01 X-2.0246 Y-5.7685
G01 X-2.0149 Y-5.7734
G01 X-1.9955 Y-5.7825
G01 X-1.9850 Y-5.7868
G01 X-1.9701 Y-5.7921
G01 X-1.9204 Y-5.8186
G01 X-1.8782 Y-5.8532
G01 X-1.8436 Y-5.8954
G01 X-1.8179 Y-5.9435
G01 X-1.8021 Y-5.9957
G01 X-1.7953 Y-6.0649
G01 X-1.9055 Y-6.0649
G01 X-1.9256 Y-6.0320
G01 X-1.9473 Y-6.0023
G01 X-1.9593 Y-5.9877
G01 X-1.9856 Y-5.9592
G01 X-2.0141 Y-5.9331
G01 X-2.0277 Y-5.9221
G01 X-2.0586 Y-5.8995
G01 X-2.0900 Y-5.8804
G01 X-2.1050 Y-5.8723
G01 X-2.1401 Y-5.8560
G01 X-2.1764 Y-5.8426
G01 X-2.1945 Y-5.8372
G01 X-2.2302 Y-5.8284
G01 X-2.2680 Y-5.8225
G01 X-2.2854 Y-5.8207
G01 X-2.3250 Y-5.8190
G01 X-3.2764 Y-5.8190
G01 X-3.3212 Y-5.8212
G01 X-3.3614 Y-5.8269
G01 X-3.3781 Y-5.8303
G01 X-3.4128 Y-5.8392
G01 X-3.4254 Y-5.8433
G01 X-3.4599 Y-5.8560
G01 X-3.4916 Y-5.8707
G01 X-3.5034 Y-5.8767
G01 X-3.5343 Y-5.8950
G01 X-3.5484 Y-5.9044
G01 X-3.5727 Y-5.9223
G01 X-3.5838 Y-5.9312
G01 X-3.6104 Y-5.9553
G01 X-3.6229 Y-5.9681
G01 X-3.6462 Y-5.9941
G01 X-3.6684 Y-6.0235
G01 X-3.6785 Y-6.0383
G01 X-3.6945 Y-6.0649
G01 X-3.8047 Y-6.0649
G01 X-3.7979 Y-5.9957
G01 X-3.7821 Y-5.9435
G01 X-3.7564 Y-5.8954
G01 X-3.7218 Y-5.8532
G01 X-3.6601 Y-5.8026
G01 X-3.6423 Y-5.7867
G01 X-3.6322 Y-5.7768
G01 X-3.6190 Y-5.7624
G01 X-3.6113 Y-5.7534
G01 X-3.6049 Y-5.7452
G01 X-3.5915 Y-5.7267
G01 X-3.5785 Y-5.7057
G01 X-3.5707 Y-5.6916
G01 X-3.5619 Y-5.6731
G01 X-3.5554 Y-5.6579
G01 X-3.5475 Y-5.6354
G01 X-3.5440 Y-5.6237
G01 X-3.5389 Y-5.6033
G01 X-3.5358 Y-5.5871
G01 X-3.5323 Y-5.5612
G01 X-3.5307 Y-5.5346
G01 X-3.5307 Y-5.5194
G01 X-3.5323 Y-5.4928
G01 X-3.5356 Y-5.4678
G01 X-3.5389 Y-5.4507
G01 X-3.5447 Y-5.4276
G01 X-3.5494 Y-5.4127
G01 X-3.5582 Y-5.3891
G01 X-3.5686 Y-5.3666
G01 X-3.5761 Y-5.3524
G01 X-3.5884 Y-5.3320
G01 X-3.5972 Y-5.3192
G01 X-3.6125 Y-5.2991
G01 X-3.6284 Y-5.2812
G01 X-3.5680 Y-5.2812
G01 X-3.5407 Y-5.3010
G01 X-3.5075 Y-5.3210
G01 X-3.4950 Y-5.3277
G01 X-3.4694 Y-5.3398
G01 X-3.4529 Y-5.3468
G01 X-3.4155 Y-5.3600
G01 X-3.3762 Y-5.3702
G01 X-3.3614 Y-5.3731
G01 X-3.3334 Y-5.3773
G01 X-3.3127 Y-5.3794
G01 X-3.2750 Y-5.3810
G01 X-2.3212 Y-5.3810
G01 X-2.2854 Y-5.3793
G01 X-2.2685 Y-5.3776
G01 X-2.2321 Y-5.3719
G01 X-2.2018 Y-5.3647
G01 X-3.3992 Y-5.6773
G01 X-3.3950 Y-5.6629
G01 X-3.3890 Y-5.6389
G01 X-3.3859 Y-5.6239
G01 X-3.3832 Y-5.6084
G01 X-3.3803 Y-5.5878
G01 X-3.3785 Y-5.5706
G01 X-3.3770 Y-5.5435
G01 X-3.3766 Y-5.5266
G01 X-3.3494 Y-5.5305
G01 X-3.3316 Y-5.5325
G01 X-3.2935 Y-5.5346
G01 X-3.2777 Y-5.5350
G01 X-3.2750 Y-5.5350
G01 X-2.3603 Y-5.5350
G01 X-2.3579 Y-5.5496
G01 X-2.3549 Y-5.5639
G01 X-2.3493 Y-5.5863
G01 X-2.3453 Y-5.6009
G01 X-2.3403 Y-5.6162
G01 X-2.3326 Y-5.6377
G01 X-2.3270 Y-5.6517
G01 X-2.3210 Y-5.6650
G01 X-3.2761 Y-5.6650
G01 X-3.2911 Y-5.6653
G01 X-3.3222 Y-5.6669
G01 X-3.3497 Y-5.6695
G01 X-3.3831 Y-5.6744
G01 X-3.3992 Y-5.6773
G01 X-3.5779 Y-5.8314
G01 X-3.5579 Y-5.8095
G01 X-3.5442 Y-5.7926
G01 X-3.5264 Y-5.7679
G01 X-3.5100 Y-5.7412
G01 X-3.5002 Y-5.7228
G01 X-3.4871 Y-5.6944
G01 X-3.4762 Y-5.6652
G01 X-3.4700 Y-5.6451
G01 X-3.4623 Y-5.6133
G01 X-3.4575 Y-5.5839
G01 X-3.4550 Y-5.5612
G01 X-3.4537 Y-5.5322
G01 X-3.4540 Y-5.5119
G01 X-3.4550 Y-5.4933
G01 X-3.4563 Y-5.4792
G01 X-3.4608 Y-5.4482
G01 X-3.4661 Y-5.4239
G01 X-3.4455 Y-5.4312
G01 X-3.4311 Y-5.4357
G01 X-3.3968 Y-5.4444
G01 X-3.3811 Y-5.4478
G01 X-3.3447 Y-5.4535
G01 X-3.3311 Y-5.4552
G01 X-3.3167 Y-5.4563
G01 X-3.2840 Y-5.4579
G01 X-3.2750 Y-5.4580
G01 X-2.3250 Y-5.4580
G01 X-2.2900 Y-5.4567
G01 X-2.2889 Y-5.4826
G01 X-2.2877 Y-5.4982
G01 X-2.2841 Y-5.5241
G01 X-2.2811 Y-5.5408
G01 X-2.2749 Y-5.5667
G01 X-2.2705 Y-5.5822
G01 X-2.2615 Y-5.6080
G01 X-2.2549 Y-5.6244
G01 X-2.2442 Y-5.6473
G01 X-2.2364 Y-5.6624
G01 X-2.2223 Y-5.6861
G01 X-2.2132 Y-5.6999
G01 X-2.1977 Y-5.7210
G01 X-2.1873 Y-5.7339
G01 X-2.1689 Y-5.7544
G01 X-2.1543 Y-5.7688
G01 X-2.1716 Y-5.7636
G01 X-2.2014 Y-5.7560
G01 X-2.2138 Y-5.7532
G01 X-2.2264 Y-5.7509
G01 X-2.2574 Y-5.7462
G01 X-2.2712 Y-5.7446
G01 X-2.2847 Y-5.7436
G01 X-2.3184 Y-5.7421
G01 X-3.2750 Y-5.7420
G01 X-3.2892 Y-5.7423
G01 X-3.3172 Y-5.7437
G01 X-3.3306 Y-5.7448
G01 X-3.3736 Y-5.7509
G01 X-3.3961 Y-5.7554
G01 X-3.4249 Y-5.7626
G01 X-3.4383 Y-5.7664
G01 X-3.4793 Y-5.7808
G01 X-3.5015 Y-5.7902
G01 X-3.5269 Y-5.8022
G01 X-3.5393 Y-5.8086
G01 X-3.5779 Y-5.8314
G00 Z1.0000
G00 X-3.5915 Y-6.8811
G01 F25.00
G01 Z-0.1000
G01 F100.00
G01 X-3.5873 Y-6.8967
G01 X-3.5778 Y-6.9234
G01 X-3.5643 Y-6.9525
G01 X-3.5469 Y-6.9817
G01 X-3.5290 Y-7.0060
G01 X-3.5062 Y-7.0312
G01 X-3.4824 Y-7.0528
G01 X-3.4567 Y-7.0719
G01 X-3.4291 Y-7.0884
G01 X-3.4001 Y-7.1021
G01 X-3.3699 Y-7.1129
G01 X-3.3388 Y-7.1207
G01 X-3.3089 Y-7.1252
G01 X-3.2750 Y-7.1270
G01 X-3.1311 Y-7.1270
G01 X-3.1311 Y-7.4417
G01 X-3.1709 Y-7.4815
G01 X-3.5157 Y-7.4839
G01 X-3.6095 Y-7.4747
G01 X-3.6907 Y-7.4501
G01 X-3.7656 Y-7.4100
G01 X-3.8312 Y-7.3562
G01 X-3.8850 Y-7.2906
G01 X-3.9251 Y-7.2157
G01 X-3.9497 Y-7.1345
G01 X-3.9589 Y-7.0414
G01 X-3.9571 Y-6.9215
G01 X-3.9167 Y-6.8811
G01 X-3.5915 Y-6.8811
G01 X-3.8047 Y-7.0351
G01 X-3.6945 Y-7.0351
G01 X-3.6755 Y-7.0664
G01 X-3.6538 Y-7.0962
G01 X-3.6425 Y-7.1102
G01 X-3.6197 Y-7.1354
G01 X-3.6080 Y-7.1470
G01 X-3.5794 Y-7.1724
G01 X-3.5484 Y-7.1956
G01 X-3.5327 Y-7.2060
G01 X-3.5009 Y-7.2246
G01 X-3.4677 Y-7.2406
G01 X-3.4503 Y-7.2478
G01 X-3.4137 Y-7.2606
G01 X-3.3762 Y-7.2702
G01 X-3.3591 Y-7.2735
G01 X-3.3231 Y-7.2786
G01 X-3.2851 Y-7.2808
G01 X-3.2851 Y-7.3283
G01 X-3.5087 Y-7.3299
G01 X-3.5793 Y-7.3229
G01 X-3.6315 Y-7.3071
G01 X-3.6796 Y-7.2814
G01 X-3.7218 Y-7.2468
G01 X-3.7564 Y-7.2046
G01 X-3.7821 Y-7.1565
G01 X-3.7979 Y-7.1043
G01 X-3.8047 Y-7.0351
G01 X-3.8807 Y-6.9581
G01 X-3.6468 Y-6.9581
G01 X-3.6308 Y-6.9913
G01 X-3.6114 Y-7.0237
G01 X-3.5879 Y-7.0556
G01 X-3.5659 Y-7.0802
G01 X-3.5552 Y-7.0909
G01 X-3.5349 Y-7.1092
G01 X-3.5276 Y-7.1152
G01 X-3.4987 Y-7.1364
G01 X-3.4679 Y-7.1549
G01 X-3.4595 Y-7.1593
G01 X-3.4357 Y-7.1706
G01 X-3.4226 Y-7.1760
G01 X-3.3914 Y-7.1869
G01 X-3.3529 Y-7.1964
G01 X-3.3193 Y-7.2015
G01 X-3.3071 Y-7.2026
G01 X-3.2778 Y-7.2040
G01 X-3.2081 Y-7.2040
G01 X-3.2081 Y-7.4048
G01 X-3.5122 Y-7.4069
G01 X-3.5944 Y-7.3988
G01 X-3.6611 Y-7.3786
G01 X-3.7226 Y-7.3457
G01 X-3.7765 Y-7.3015
G01 X-3.8207 Y-7.2476
G01 X-3.8536 Y-7.1861
G01 X-3.8738 Y-7.1194
G01 X-3.8818 Y-7.0382
G01 X-3.8807 Y-6.9581
G00 Z1.0000
G00 X-2.3919 Y-7.4048
G01 F25.00
G01 Z-0.1000
G01 F100.00
G01 X-2.0878 Y-7.4069
G01 X-2.0056 Y-7.3988
G01 X-1.9389 Y-7.3786
G01 X-1.8774 Y-7.3457
G01 X-1.8235 Y-7.3015
G01 X-1.7793 Y-7.2476
G01 X-1.7464 Y-7.1861
G01 X-1.7262 Y-7.1194
G01 X-1.7182 Y-7.0382
G01 X-1.7193 Y-6.9581
G01 X-1.9532 Y-6.9581
G01 X-1.9692 Y-6.9913
G01 X-1.9886 Y-7.0237
G01 X-2.0121 Y-7.0556
G01 X-2.0341 Y-7.0802
G01 X-2.0448 Y-7.0909
G01 X-2.0651 Y-7.1092
G01 X-2.0724 Y-7.1152
G01 X-2.1013 Y-7.1364
G01 X-2.1321 Y-7.1549
G01 X-2.1405 Y-7.1593
G01 X-2.1643 Y-7.1706
G01 X-2.1774 Y-7.1760
G01 X-2.2086 Y-7.1869
G01 X-2.2471 Y-7.1964
G01 X-2.2807 Y-7.2015
G01 X-2.2929 Y-7.2026
G01 X-2.3222 Y-7.2040
G01 X-2.3919 Y-7.2040
G01 X-2.3919 Y-7.4048
G01 X-2.3149 Y-7.2808
G01 X-2.3149 Y-7.3283
G01 X-2.0913 Y-7.3299
G01 X-2.0207 Y-7.3229
G01 X-1.9685 Y-7.3071
G01 X-1.9204 Y-7.2814
G01 X-1.8782 Y-7.2468
G01 X-1.8436 Y-7.2046
G01 X-1.8179 Y-7.1565
G01 X-1.8021 Y-7.1043
G01 X-1.7953 Y-7.0351
G01 X-1.9055 Y-7.0351
G01 X-1.9245 Y-7.0664
G01 X-1.9462 Y-7.0962
G01 X-1.9575 Y-7.1102
G01 X-1.9803 Y-7.1354
G01 X-1.9920 Y-7.1470
G01 X-2.0206 Y-7.1724
G01 X-2.0516 Y-7.1956
G01 X-2.0673 Y-7.2060
G01 X-2.0991 Y-7.2246
G01 X-2.1323 Y-7.2406
G01 X-2.1497 Y-7.2478
G01 X-2.1863 Y-7.2606
G01 X-2.2238 Y-7.2702
G01 X-2.2409 Y-7.2735
G01 X-2.2769 Y-7.2786
G01 X-2.3149 Y-7.2808
G00 Z1.0000
G00 X-2.0085 Y-6.8811
G01 F25.00
G01 Z-0.1000
G01 F100.00
G01 X-1.6833 Y-6.8811
G01 X-1.6429 Y-6.9215
G01 X-1.6411 Y-7.0414
G01 X-1.6503 Y-7.1345
G01 X-1.6749 Y-7.2157
G01 X-1.7150 Y-7.2906
G01 X-1.7688 Y-7.3562
G01 X-1.8344 Y-7.4100
G01 X-1.9093 Y-7.4501
G01 X-1.9905 Y-7.4747
G01 X-2.0843 Y-7.4839
G01 X-2.4291 Y-7.4815
G01 X-2.4689 Y-7.4417
G01 X-2.4689 Y-7.1270
G01 X-2.3250 Y-7.1270
G01 X-2.2911 Y-7.1252
G01 X-2.2612 Y-7.1207
G01 X-2.2301 Y-7.1129
G01 X-2.1999 Y-7.1021
G01 X-2.1709 Y-7.0884
G01 X-2.1433 Y-7.0719
G01 X-2.1176 Y-7.0528
G01 X-2.0938 Y-7.0312
G01 X-2.0710 Y-7.0060
G01 X-2.0531 Y-6.9817
G01 X-2.0357 Y-6.9525
G01 X-2.0222 Y-6.9234
G01 X-2.0127 Y-6.8967
G01 X-2.0085 Y-6.8811
G00 Z1.0000
G00 X0.6162 Y-7.6766
G01 F25.00
G01 Z-0.1000
G01 F100.00
G01 X0.6161 Y-5.6161
G01 X6.1620 Y-5.6161
G01 X6.3478 Y-6.1503
G01 X6.2745 Y-6.0959
G01 X6.2509 Y-6.0795
G01 X6.2291 Y-6.0657
G01 X6.1353 Y-6.0095
G01 X6.1142 Y-5.9979
G01 X6.0917 Y-5.9866
G01 X5.9961 Y-5.9414
G01 X5.9790 Y-5.9338
G01 X5.9621 Y-5.9269
G01 X5.8520 Y-5.8873
G01 X5.8258 Y-5.8786
G01 X5.7976 Y-5.8707
G01 X5.6916 Y-5.8442
G01 X5.6714 Y-5.8398
G01 X5.6497 Y-5.8358
G01 X5.5428 Y-5.8199
G01 X5.5153 Y-5.8165
G01 X5.4873 Y-5.8143
G01 X5.3833 Y-5.8092
G01 X5.3593 Y-5.8085
G01 X4.8247 Y-5.8085
G01 X4.7988 Y-5.8091
G01 X4.6876 Y-5.8146
G01 X4.6656 Y-5.8164
G01 X4.6451 Y-5.8188
G01 X4.5385 Y-5.8345
G01 X4.5181 Y-5.8379
G01 X4.4888 Y-5.8441
G01 X4.4288 Y-5.8591
G01 X4.4037 Y-5.8529
G01 X4.3833 Y-5.8485
G01 X4.3640 Y-5.8450
G01 X4.3385 Y-5.8412
G01 X4.3201 Y-5.8388
G01 X4.3010 Y-5.8369
G01 X4.2591 Y-5.8345
G01 X4.2355 Y-5.8340
G01 X3.9305 Y-5.8340
G01 X3.8898 Y-5.8355
G01 X3.8624 Y-5.8375
G01 X3.8385 Y-5.8402
G01 X3.8037 Y-5.8454
G01 X3.7806 Y-5.8497
G01 X3.7572 Y-5.8551
G01 X3.7282 Y-5.8625
G01 X3.7026 Y-5.8701
G01 X3.6676 Y-5.8823
G01 X3.6434 Y-5.8917
G01 X3.6202 Y-5.9018
G01 X3.5901 Y-5.9161
G01 X3.5695 Y-5.9269
G01 X3.5484 Y-5.9389
G01 X3.5230 Y-5.9543
G01 X3.5007 Y-5.9690
G01 X3.4708 Y-5.9908
G01 X3.4500 Y-6.0071
G01 X3.4292 Y-5.9908
G01 X3.3989 Y-5.9687
G01 X3.3764 Y-5.9539
G01 X3.3489 Y-5.9373
G01 X3.3276 Y-5.9252
G01 X3.3050 Y-5.9137
G01 X3.2745 Y-5.8994
G01 X3.2497 Y-5.8889
G01 X3.2143 Y-5.8758
G01 X3.1905 Y-5.8680
G01 X3.1666 Y-5.8611
G01 X3.1322 Y-5.8525
G01 X3.1026 Y-5.8465
G01 X3.0694 Y-5.8413
G01 X3.0447 Y-5.8382
G01 X3.0200 Y-5.8360
G01 X2.9895 Y-5.8345
G01 X2.9676 Y-5.8340
G01 X2.6491 Y-5.8342
G01 X2.6126 Y-5.8359
G01 X2.5843 Y-5.8383
G01 X2.5439 Y-5.8437
G01 X2.5145 Y-5.8489
G01 X2.4969 Y-5.8528
G01 X2.4670 Y-5.8601
G01 X2.4472 Y-5.8656
G01 X2.4286 Y-5.8715
G01 X2.4038 Y-5.8800
G01 X2.3831 Y-5.8878
G01 X2.3638 Y-5.8958
G01 X2.3344 Y-5.9091
G01 X2.3162 Y-5.9180
G01 X2.2994 Y-5.9270
G01 X2.2753 Y-5.9406
G01 X2.2548 Y-5.9531
G01 X2.2386 Y-5.9638
G01 X2.2130 Y-5.9816
G01 X2.1964 Y-5.9941
G01 X2.1801 Y-6.0072
G01 X2.1618 Y-5.9928
G01 X2.1366 Y-5.9742
G01 X2.1184 Y-5.9617
G01 X2.1001 Y-5.9500
G01 X2.0738 Y-5.9343
G01 X2.0538 Y-5.9232
G01 X2.0336 Y-5.9130
G01 X2.0043 Y-5.8993
G01 X1.9842 Y-5.8907
G01 X1.9643 Y-5.8830
G01 X1.9359 Y-5.8729
G01 X1.9125 Y-5.8655
G01 X1.8921 Y-5.8599
G01 X1.8603 Y-5.8521
G01 X1.8383 Y-5.8475
G01 X1.8149 Y-5.8436
G01 X1.7876 Y-5.8397
G01 X1.7642 Y-5.8371
G01 X1.7421 Y-5.8356
G01 X1.7078 Y-5.8341
G01 X1.3780 Y-5.8342
G01 X1.3482 Y-5.8355
G01 X1.3274 Y-5.8370
G01 X1.3062 Y-5.8392
G01 X1.2801 Y-5.8428
G01 X1.2602 Y-5.8460
G01 X1.2418 Y-5.8495
G01 X1.1952 Y-5.8605
G01 X1.1709 Y-5.8676
G01 X1.1442 Y-5.8764
G01 X1.1241 Y-5.8835
G01 X1.1060 Y-5.8906
G01 X1.0771 Y-5.9032
G01 X1.0578 Y-5.9122
G01 X1.0383 Y-5.9222
G01 X1.0144 Y-5.9354
G01 X0.9959 Y-5.9462
G01 X0.9784 Y-5.9573
G01 X0.9533 Y-5.9743
G01 X0.9367 Y-5.9862
G01 X0.9188 Y-6.0001
G01 X0.8965 Y-6.0185
G01 X0.8813 Y-6.0318
G01 X0.8668 Y-6.0453
G01 X0.8454 Y-6.0665
G01 X0.8305 Y-6.0822
G01 X0.8163 Y-6.0982
G01 X0.7980 Y-6.1202
G01 X0.7851 Y-6.1365
G01 X0.7728 Y-6.1533
G01 X0.7560 Y-6.1777
G01 X0.7444 Y-6.1957
G01 X0.7334 Y-6.2140
G01 X0.7185 Y-6.2409
G01 X0.7089 Y-6.2594
G01 X0.7006 Y-6.2767
G01 X0.6884 Y-6.3045
G01 X0.6803 Y-6.3243
G01 X0.6730 Y-6.3444
G01 X0.6638 Y-6.3721
G01 X0.6574 Y-6.3933
G01 X0.6516 Y-6.4156
G01 X0.6446 Y-6.4462
G01 X0.6400 Y-6.4707
G01 X0.6352 Y-6.5032
G01 X0.6327 Y-6.5250
G01 X0.6308 Y-6.5477
G01 X0.6294 Y-6.5769
G01 X0.6290 Y-6.5998
G01 X0.6290 Y-7.6239
G01 X0.6202 Y-7.6591
G01 X0.6162 Y-7.6766
G00 Z1.0000
G00 X0.7701 Y-5.9248
G01 F25.00
G01 Z-0.1000
G01 F100.00
G01 X0.7701 Y-5.7701
G01 X0.9981 Y-5.7701
G01 X0.9680 Y-5.7851
G01 X0.9347 Y-5.8035
G01 X0.9084 Y-5.8192
G01 X0.8831 Y-5.8357
G01 X0.8533 Y-5.8564
G01 X0.8280 Y-5.8755
G01 X0.7943 Y-5.9033
G01 X0.7701 Y-5.9248
G01 X0.6931 Y-6.1333
G01 X0.6931 Y-5.6931
G01 X6.1073 Y-5.6931
G01 X6.1995 Y-5.9582
G01 X6.1660 Y-5.9384
G01 X6.1367 Y-5.9229
G01 X6.0335 Y-5.8739
G01 X6.0120 Y-5.8642
G01 X5.9774 Y-5.8504
G01 X5.8778 Y-5.8147
G01 X5.8538 Y-5.8067
G01 X5.8314 Y-5.8000
G01 X5.7075 Y-5.7688
G01 X5.6808 Y-5.7631
G01 X5.6540 Y-5.7585
G01 X5.5506 Y-5.7432
G01 X5.5198 Y-5.7395
G01 X5.4901 Y-5.7373
G01 X5.3840 Y-5.7321
G01 X5.3553 Y-5.7315
G01 X4.8204 Y-5.7315
G01 X4.7940 Y-5.7322
G01 X4.6926 Y-5.7372
G01 X4.6646 Y-5.7391
G01 X4.6374 Y-5.7421
G01 X4.5188 Y-5.7597
G01 X4.4995 Y-5.7631
G01 X4.4798 Y-5.7672
G01 X4.4287 Y-5.7797
G01 X4.4089 Y-5.7752
G01 X4.3876 Y-5.7709
G01 X4.3394 Y-5.7636
G01 X4.3025 Y-5.7597
G01 X4.2576 Y-5.7574
G01 X4.2353 Y-5.7570
G01 X3.9296 Y-5.7570
G01 X3.9109 Y-5.7574
G01 X3.8860 Y-5.7586
G01 X3.8561 Y-5.7607
G01 X3.8301 Y-5.7636
G01 X3.7969 Y-5.7685
G01 X3.7733 Y-5.7727
G01 X3.7493 Y-5.7778
G01 X3.7164 Y-5.7860
G01 X3.6923 Y-5.7927
G01 X3.6687 Y-5.8003
G01 X3.6381 Y-5.8111
G01 X3.6156 Y-5.8198
G01 X3.5935 Y-5.8293
G01 X3.5625 Y-5.8439
G01 X3.5403 Y-5.8551
G01 X3.5178 Y-5.8676
G01 X3.4895 Y-5.8845
G01 X3.4696 Y-5.8971
G01 X3.4500 Y-5.9106
G01 X3.4304 Y-5.8971
G01 X3.4095 Y-5.8838
G01 X3.3806 Y-5.8666
G01 X3.3573 Y-5.8539
G01 X3.3361 Y-5.8432
G01 X3.3043 Y-5.8283
G01 X3.2811 Y-5.8185
G01 X3.2565 Y-5.8091
G01 X3.2280 Y-5.7991
G01 X3.2029 Y-5.7913
G01 X3.1790 Y-5.7848
G01 X3.1426 Y-5.7760
G01 X3.1142 Y-5.7703
G01 X3.1139 Y-5.7703
G01 X3.1118 Y-5.7699
G01 X3.1108 Y-5.7698
G01 X3.1074 Y-5.7692
G01 X3.1008 Y-5.7681
G01 X3.0803 Y-5.7651
G01 X3.0545 Y-5.7618
G01 X3.0297 Y-5.7595
G01 X2.9944 Y-5.7576
G01 X2.9695 Y-5.7570
G01 X2.6507 Y-5.7572
G01 X2.6126 Y-5.7587
G01 X2.5841 Y-5.7609
G01 X2.5565 Y-5.7641
G01 X2.5329 Y-5.7675
G01 X2.5241 Y-5.7689
G01 X2.5206 Y-5.7695
G01 X2.5190 Y-5.7697
G01 X2.5171 Y-5.7701
G01 X2.5162 Y-5.7702
G01 X2.4976 Y-5.7738
G01 X2.4790 Y-5.7779
G01 X2.4523 Y-5.7843
G01 X2.4294 Y-5.7906
G01 X2.4088 Y-5.7970
G01 X2.3807 Y-5.8064
G01 X2.3621 Y-5.8133
G01 X2.3434 Y-5.8208
G01 X2.3006 Y-5.8398
G01 X2.2813 Y-5.8494
G01 X2.2637 Y-5.8588
G01 X2.2395 Y-5.8723
G01 X2.2205 Y-5.8837
G01 X2.2027 Y-5.8951
G01 X2.1800 Y-5.9106
G01 X2.1626 Y-5.8986
G01 X2.1461 Y-5.8879
G01 X2.1197 Y-5.8719
G01 X2.1023 Y-5.8620
G01 X2.0859 Y-5.8531
G01 X2.0681 Y-5.8442
G01 X2.0424 Y-5.8320
G01 X2.0231 Y-5.8235
G01 X2.0053 Y-5.8162
G01 X1.9882 Y-5.8098
G01 X1.9702 Y-5.8033
G01 X1.9677 Y-5.8024
G01 X1.9672 Y-5.8023
G01 X1.9669 Y-5.8022
G01 X1.9659 Y-5.8018
G01 X1.9615 Y-5.8003
G01 X1.9408 Y-5.7936
G01 X1.9186 Y-5.7873
G01 X1.8915 Y-5.7804
G01 X1.8729 Y-5.7760
G01 X1.8539 Y-5.7721
G01 X1.8358 Y-5.7689
G01 X1.8114 Y-5.7652
G01 X1.7832 Y-5.7616
G01 X1.7543 Y-5.7592
G01 X1.7158 Y-5.7573
G01 X1.6953 Y-5.7570
G01 X1.3950 Y-5.7570
G01 X1.3730 Y-5.7574
G01 X1.3426 Y-5.7587
G01 X1.3198 Y-5.7604
G01 X1.2966 Y-5.7628
G01 X1.2674 Y-5.7668
G01 X1.2462 Y-5.7702
G01 X1.2255 Y-5.7743
G01 X1.1942 Y-5.7814
G01 X1.1746 Y-5.7864
G01 X1.1540 Y-5.7922
G01 X1.1343 Y-5.7985
G01 X1.1067 Y-5.8079
G01 X1.0822 Y-5.8172
G01 X1.0628 Y-5.8254
G01 X1.0326 Y-5.8389
G01 X1.0131 Y-5.8485
G01 X0.9927 Y-5.8593
G01 X0.9678 Y-5.8733
G01 X0.9475 Y-5.8856
G01 X0.9286 Y-5.8979
G01 X0.9026 Y-5.9159
G01 X0.8845 Y-5.9291
G01 X0.8672 Y-5.9428
G01 X0.8432 Y-5.9627
G01 X0.8259 Y-5.9781
G01 X0.8090 Y-5.9941
G01 X0.7872 Y-6.0159
G01 X0.7727 Y-6.0313
G01 X0.7579 Y-6.0481
G01 X0.7380 Y-6.0719
G01 X0.7239 Y-6.0899
G01 X0.7098 Y-6.1090
G01 X0.6931 Y-6.1333
G01 X2.0916 Y-5.7701
G01 X2.2681 Y-5.7701
G01 X2.2678 Y-5.7702
G01 X2.2676 Y-5.7703
G01 X2.2665 Y-5.7708
G01 X2.2658 Y-5.7711
G01 X2.2639 Y-5.7720
G01 X2.2582 Y-5.7748
G01 X2.2483 Y-5.7798
G01 X2.2284 Y-5.7903
G01 X2.2010 Y-5.8056
G01 X2.1799 Y-5.8183
G01 X2.1546 Y-5.8031
G01 X2.1345 Y-5.7918
G01 X2.1137 Y-5.7809
G01 X2.0916 Y-5.7701
G01 X3.3616 Y-5.7701
G01 X3.5384 Y-5.7701
G01 X3.5162 Y-5.7809
G01 X3.4957 Y-5.7916
G01 X3.4755 Y-5.8031
G01 X3.4500 Y-5.8183
G01 X3.4246 Y-5.8031
G01 X3.4045 Y-5.7918
G01 X3.3837 Y-5.7809
G01 X3.3616 Y-5.7701
G00 Z1.0000
G00 X4.6071 Y-3.5669
G01 F25.00
G01 Z-0.1000
G01 F100.00
G01 X4.6150 Y-3.5556
G01 X4.6224 Y-3.5441
G01 X4.6346 Y-3.5238
G01 X4.6420 Y-3.5100
G01 X4.6524 Y-3.4882
G01 X4.6578 Y-3.4761
G01 X4.6627 Y-3.4636
G01 X4.6705 Y-3.4415
G01 X4.6756 Y-3.4248
G01 X4.6809 Y-3.4041
G01 X4.6858 Y-3.3805
G01 X4.6907 Y-3.3458
G01 X4.6918 Y-3.3324
G01 X4.6928 Y-3.3099
G01 X4.6929 Y-1.6415
G01 X4.6915 Y-1.6141
G01 X4.6898 Y-1.5967
G01 X4.6854 Y-1.5672
G01 X4.6809 Y-1.5459
G01 X4.6730 Y-1.5161
G01 X4.6633 Y-1.4879
G01 X4.6555 Y-1.4686
G01 X4.6434 Y-1.4428
G01 X4.6432 Y-1.0961
G01 X4.6883 Y-1.0510
G01 X4.6953 Y-1.0670
G01 X4.7079 Y-1.0929
G01 X4.7217 Y-1.1165
G01 X4.7310 Y-1.1310
G01 X4.7471 Y-1.1531
G01 X4.7582 Y-1.1669
G01 X4.7767 Y-1.1874
G01 X4.7929 Y-1.2040
G01 X4.7929 Y-1.4505
G01 X4.7813 Y-1.4760
G01 X4.7711 Y-1.5036
G01 X4.7650 Y-1.5229
G01 X4.7584 Y-1.5487
G01 X4.7542 Y-1.5695
G01 X4.7499 Y-1.5990
G01 X4.7484 Y-1.6155
G01 X4.7471 Y-1.6434
G01 X4.7470 Y-3.3052
G01 X4.7481 Y-3.3305
G01 X4.7491 Y-3.3435
G01 X4.7507 Y-3.3571
G01 X4.7539 Y-3.3791
G01 X4.7589 Y-3.4032
G01 X4.7642 Y-3.4243
G01 X4.7687 Y-3.4393
G01 X4.7767 Y-3.4621
G01 X4.7815 Y-3.4744
G01 X4.7869 Y-3.4867
G01 X4.7972 Y-3.5083
G01 X4.8052 Y-3.5233
G01 X4.8172 Y-3.5435
G01 X4.8250 Y-3.5556
G01 X4.8329 Y-3.5669
G01 X4.6071 Y-3.5669
G01 X5.0414 Y-3.6439
G01 X4.3986 Y-3.6439
G01 X4.4179 Y-3.6342
G01 X4.4427 Y-3.6194
G01 X4.4559 Y-3.6103
G01 X4.4708 Y-3.5992
G01 X4.4796 Y-3.5921
G01 X4.4997 Y-3.5740
G01 X4.5119 Y-3.5615
G01 X4.5301 Y-3.5410
G01 X4.5480 Y-3.5171
G01 X4.5571 Y-3.5033
G01 X4.5715 Y-3.4788
G01 X4.5832 Y-3.4545
G01 X4.5898 Y-3.4388
G01 X4.5993 Y-3.4115
G01 X4.6063 Y-3.3849
G01 X4.6099 Y-3.3678
G01 X4.6137 Y-3.3420
G01 X4.6149 Y-3.3275
G01 X4.6160 Y-3.3000
G01 X4.6159 Y-1.6453
G01 X4.6147 Y-1.6192
G01 X4.6128 Y-1.6014
G01 X4.6085 Y-1.5747
G01 X4.6014 Y-1.5458
G01 X4.5965 Y-1.5300
G01 X4.5866 Y-1.5033
G01 X4.5745 Y-1.4771
G01 X4.5663 Y-1.4620
G01 X4.5661 Y-1.0643
G01 X4.7334 Y-0.8971
G01 X4.7344 Y-0.9173
G01 X4.7362 Y-0.9333
G01 X4.7402 Y-0.9577
G01 X4.7456 Y-0.9804
G01 X4.7500 Y-0.9954
G01 X4.7579 Y-1.0178
G01 X4.7630 Y-1.0300
G01 X4.7724 Y-1.0499
G01 X4.7791 Y-1.0623
G01 X4.7914 Y-1.0827
G01 X4.7989 Y-1.0936
G01 X4.8120 Y-1.1112
G01 X4.8193 Y-1.1199
G01 X4.8334 Y-1.1354
G01 X4.8699 Y-1.1721
G01 X4.8699 Y-1.4687
G01 X4.8576 Y-1.4938
G01 X4.8516 Y-1.5077
G01 X4.8424 Y-1.5331
G01 X4.8374 Y-1.5503
G01 X4.8311 Y-1.5766
G01 X4.8267 Y-1.6051
G01 X4.8251 Y-1.6221
G01 X4.8240 Y-1.6500
G01 X4.8241 Y-3.3047
G01 X4.8252 Y-3.3298
G01 X4.8263 Y-3.3420
G01 X4.8301 Y-3.3678
G01 X4.8335 Y-3.3840
G01 X4.8391 Y-3.4061
G01 X4.8440 Y-3.4214
G01 X4.8534 Y-3.4467
G01 X4.8639 Y-3.4695
G01 X4.8685 Y-3.4788
G01 X4.8743 Y-3.4891
G01 X4.8846 Y-3.5061
G01 X4.8925 Y-3.5179
G01 X4.9117 Y-3.5432
G01 X4.9281 Y-3.5615
G01 X4.9369 Y-3.5707
G01 X4.9626 Y-3.5939
G01 X4.9894 Y-3.6141
G01 X4.9997 Y-3.6209
G01 X5.0196 Y-3.6328
G01 X5.0296 Y-3.6382
G01 X5.0414 Y-3.6439
G01 X5.8771 Y-3.5669
G01 X5.8865 Y-3.5533
G01 X5.8919 Y-3.5669
G01 X5.8771 Y-3.5669
G01 X6.0327 Y-3.6439
G01 X5.6686 Y-3.6439
G01 X5.6804 Y-3.6382
G01 X5.6912 Y-3.6323
G01 X5.7111 Y-3.6204
G01 X5.7229 Y-3.6125
G01 X5.7408 Y-3.5992
G01 X5.7503 Y-3.5915
G01 X5.7553 Y-3.5871
G01 X5.7662 Y-3.5772
G01 X5.7665 Y-3.5769
G01 X5.7672 Y-3.5763
G01 X5.7690 Y-3.5747
G01 X5.7797 Y-3.5640
G01 X5.7946 Y-3.5475
G01 X5.8019 Y-3.5388
G01 X5.8164 Y-3.5194
G01 X5.8239 Y-3.5085
G01 X5.8361 Y-3.4882
G01 X5.8419 Y-3.4779
G01 X5.8530 Y-3.4549
G01 X5.8588 Y-3.4414
G01 X5.8693 Y-3.4115
G01 X5.8773 Y-3.3808
G01 X5.8799 Y-3.3678
G01 X5.8828 Y-3.3481
G01 X5.8849 Y-3.3275
G01 X5.8860 Y-3.3000
G01 X5.8860 Y-2.9601
G01 X5.9328 Y-2.9601
G01 X5.9348 Y-3.4001
G01 X5.9360 Y-3.4271
G01 X5.9379 Y-3.4444
G01 X5.9423 Y-3.4711
G01 X5.9492 Y-3.4987
G01 X5.9529 Y-3.5104
G01 X5.9590 Y-3.5274
G01 X5.9671 Y-3.5465
G01 X5.9741 Y-3.5611
G01 X5.9794 Y-3.5711
G01 X5.9903 Y-3.5894
G01 X5.9962 Y-3.5985
G01 X6.0143 Y-3.6229
G01 X6.0215 Y-3.6316
G01 X6.0327 Y-3.6439
G00 Z1.0000
G00 X5.9816 Y-5.7701
G01 F25.00
G01 Z-0.1000
G01 F100.00
G01 X6.0525 Y-5.7701
G01 X6.0640 Y-5.8032
G01 X6.0449 Y-5.7945
G01 X6.0252 Y-5.7863
G01 X6.0072 Y-5.7793
G01 X5.9816 Y-5.7701
G00 Z1.0000
G00 X4.2350 Y-8.4770
G01 F25.00
G01 Z-0.1000
G01 F100.00
G01 X4.2572 Y-8.4759
G01 X4.2793 Y-8.4726
G01 X4.3009 Y-8.4672
G01 X4.3219 Y-8.4597
G01 X4.3420 Y-8.4502
G01 X4.3611 Y-8.4387
G01 X4.3790 Y-8.4255
G01 X4.3942 Y-8.4118
G01 X4.4144 Y-8.4212
G01 X4.5122 Y-8.4561
G01 X4.6166 Y-8.4821
G01 X4.7213 Y-8.4975
G01 X4.8231 Y-8.5025
G01 X4.9087 Y-8.5025
G01 X6.7225 Y-10.3163
G01 X6.7225 Y-12.4000
G01 X6.7277 Y-12.5056
G01 X6.7432 Y-12.6102
G01 X6.7679 Y-12.7091
G01 X6.7701 Y-12.7164
G01 X6.8045 Y-12.8123
G01 X6.8480 Y-12.9046
G01 X6.8516 Y-12.9112
G01 X6.9041 Y-12.9986
G01 X6.9671 Y-13.0836
G01 X7.0381 Y-13.1619
G01 X13.5881 Y-19.7119
G01 X13.6664 Y-19.7829
G01 X13.7514 Y-19.8459
G01 X13.8421 Y-19.9003
G01 X13.9342 Y-19.9439
G01 X13.9412 Y-19.9468
G01 X14.0372 Y-19.9811
G01 X14.1361 Y-20.0060
G01 X14.1435 Y-20.0074
G01 X14.2425 Y-20.0221
G01 X14.3500 Y-20.0275
G01 X15.3230 Y-20.0275
G01 X15.3230 Y-20.2500
G01 X15.3234 Y-20.2575
G01 X15.3249 Y-20.2669
G01 X15.3269 Y-20.2742
G01 X15.3289 Y-20.2795
G01 X15.3340 Y-20.2896
G01 X15.3405 Y-20.2988
G01 X15.3483 Y-20.3071
G01 X15.3572 Y-20.3140
G01 X15.3637 Y-20.3179
G01 X15.3688 Y-20.3204
G01 X15.3758 Y-20.3231
G01 X15.3813 Y-20.3247
G01 X15.3925 Y-20.3266
G01 X15.4000 Y-20.3270
G01 X18.0000 Y-20.3270
G01 X18.0094 Y-20.3264
G01 X18.0169 Y-20.3251
G01 X18.0259 Y-20.3225
G01 X18.0346 Y-20.3188
G01 X18.0443 Y-20.3130
G01 X18.0517 Y-20.3071
G01 X18.0595 Y-20.2988
G01 X18.0651 Y-20.2912
G01 X18.0696 Y-20.2829
G01 X18.0737 Y-20.2724
G01 X18.0759 Y-20.2632
G01 X18.0770 Y-20.2519
G01 X18.0770 Y-17.6500
G01 X18.0764 Y-17.6406
G01 X18.0747 Y-17.6313
G01 X18.0718 Y-17.6223
G01 X18.0679 Y-17.6137
G01 X18.0630 Y-17.6057
G01 X18.0571 Y-17.5983
G01 X18.0488 Y-17.5905
G01 X18.0412 Y-17.5849
G01 X18.0329 Y-17.5804
G01 X18.0224 Y-17.5763
G01 X18.0132 Y-17.5741
G01 X18.0019 Y-17.5730
G01 X15.3943 Y-17.5732
G01 X15.3831 Y-17.5749
G01 X15.3723 Y-17.5782
G01 X15.3671 Y-17.5804
G01 X15.3604 Y-17.5840
G01 X15.3512 Y-17.5905
G01 X15.3429 Y-17.5983
G01 X15.3382 Y-17.6041
G01 X15.3349 Y-17.6088
G01 X15.3312 Y-17.6154
G01 X15.3289 Y-17.6205
G01 X15.3253 Y-17.6313
G01 X15.3236 Y-17.6406
G01 X15.3230 Y-17.6500
G01 X15.3230 Y-17.8725
G01 X14.7963 Y-17.8725
G01 X8.8775 Y-11.9537
G01 X8.8775 Y-9.8700
G01 X8.8723 Y-9.7644
G01 X8.8568 Y-9.6598
G01 X8.8321 Y-9.5609
G01 X8.8299 Y-9.5536
G01 X8.7968 Y-9.4612
G01 X8.7939 Y-9.4542
G01 X8.7503 Y-9.3621
G01 X8.6959 Y-9.2714
G01 X8.6329 Y-9.1864
G01 X8.5632 Y-9.1094
G01 X6.1169 Y-6.6631
G01 X6.0414 Y-6.5945
G01 X6.0356 Y-6.5898
G01 X5.9536 Y-6.5291
G01 X5.8646 Y-6.4756
G01 X5.7673 Y-6.4295
G01 X5.6714 Y-6.3951
G01 X5.6641 Y-6.3929
G01 X5.5652 Y-6.3682
G01 X5.4644 Y-6.3532
G01 X5.4568 Y-6.3524
G01 X5.3569 Y-6.3475
G01 X4.8250 Y-6.3475
G01 X4.7194 Y-6.3527
G01 X4.6148 Y-6.3682
G01 X4.5159 Y-6.3929
G01 X4.5086 Y-6.3951
G01 X4.4144 Y-6.4288
G01 X4.3942 Y-6.4382
G01 X4.3790 Y-6.4245
G01 X4.3611 Y-6.4113
G01 X4.3420 Y-6.3998
G01 X4.3219 Y-6.3903
G01 X4.3009 Y-6.3828
G01 X4.2793 Y-6.3774
G01 X4.2572 Y-6.3741
G01 X4.2388 Y-6.3731
G01 X3.9350 Y-6.3730
G01 X3.9128 Y-6.3741
G01 X3.8944 Y-6.3767
G01 X3.8870 Y-6.3782
G01 X3.8691 Y-6.3828
G01 X3.8517 Y-6.3889
G01 X3.8447 Y-6.3918
G01 X3.8280 Y-6.3998
G01 X3.8121 Y-6.4092
G01 X3.8058 Y-6.4134
G01 X3.7910 Y-6.4245
G01 X3.7772 Y-6.4369
G01 X3.7732 Y-6.4408
G01 X3.7620 Y-6.4531
G01 X3.7572 Y-6.4590
G01 X3.7463 Y-6.4739
G01 X3.7348 Y-6.4930
G01 X3.7253 Y-6.5131
G01 X3.7190 Y-6.5305
G01 X3.7168 Y-6.5377
G01 X3.7124 Y-6.5557
G01 X3.7096 Y-6.5740
G01 X3.7089 Y-6.5796
G01 X3.7080 Y-6.5981
G01 X3.7080 Y-8.2519
G01 X3.7091 Y-8.2722
G01 X3.7117 Y-8.2906
G01 X3.7132 Y-8.2980
G01 X3.7178 Y-8.3159
G01 X3.7253 Y-8.3369
G01 X3.7331 Y-8.3536
G01 X3.7367 Y-8.3603
G01 X3.7473 Y-8.3777
G01 X3.7595 Y-8.3940
G01 X3.7745 Y-8.4105
G01 X3.7910 Y-8.4255
G01 X3.8089 Y-8.4387
G01 X3.8280 Y-8.4502
G01 X3.8481 Y-8.4597
G01 X3.8691 Y-8.4672
G01 X3.8907 Y-8.4726
G01 X3.9128 Y-8.4759
G01 X3.9331 Y-8.4770
G01 X4.2350 Y-8.4770
G01 X4.2350 Y-8.5540
G01 X4.2639 Y-8.5526
G01 X4.2869 Y-8.5495
G01 X4.2989 Y-8.5472
G01 X4.3241 Y-8.5406
G01 X4.3505 Y-8.5312
G01 X4.3724 Y-8.5211
G01 X4.3849 Y-8.5144
G01 X4.3999 Y-8.5053
G01 X4.4073 Y-8.5004
G01 X4.4908 Y-8.5301
G01 X4.5924 Y-8.5557
G01 X4.6044 Y-8.5582
G01 X4.7043 Y-8.5730
G01 X4.7147 Y-8.5742
G01 X4.8203 Y-8.5794
G01 X4.8768 Y-8.5795
G01 X6.6455 Y-10.3482
G01 X6.6455 Y-12.4000
G01 X6.6507 Y-12.5085
G01 X6.6520 Y-12.5207
G01 X6.6664 Y-12.6178
G01 X6.6693 Y-12.6326
G01 X6.6949 Y-12.7342
G01 X6.7307 Y-12.8348
G01 X6.7364 Y-12.8487
G01 X6.7823 Y-12.9451
G01 X6.8360 Y-13.0350
G01 X6.8444 Y-13.0476
G01 X6.9082 Y-13.1331
G01 X6.9836 Y-13.2164
G01 X13.5336 Y-19.7664
G01 X13.6183 Y-19.8430
G01 X13.7094 Y-19.9105
G01 X13.8066 Y-19.9686
G01 X13.9013 Y-20.0136
G01 X13.9152 Y-20.0193
G01 X14.0158 Y-20.0551
G01 X14.1174 Y-20.0807
G01 X14.1313 Y-20.0835
G01 X14.2321 Y-20.0984
G01 X14.2444 Y-20.0995
G01 X14.3500 Y-20.1045
G01 X15.2460 Y-20.1045
G01 X15.2460 Y-20.2500
G01 X15.2464 Y-20.2604
G01 X15.2481 Y-20.2754
G01 X15.2509 Y-20.2883
G01 X15.2553 Y-20.3028
G01 X15.2604 Y-20.3150
G01 X15.2646 Y-20.3234
G01 X15.2694 Y-20.3316
G01 X15.2746 Y-20.3394
G01 X15.2816 Y-20.3484
G01 X15.2878 Y-20.3555
G01 X15.2959 Y-20.3635
G01 X15.3030 Y-20.3696
G01 X15.3106 Y-20.3754
G01 X15.3184 Y-20.3806
G01 X15.3266 Y-20.3854
G01 X15.3350 Y-20.3896
G01 X15.3455 Y-20.3940
G01 X15.3544 Y-20.3971
G01 X15.3653 Y-20.4000
G01 X15.3746 Y-20.4019
G01 X15.3840 Y-20.4032
G01 X15.4000 Y-20.4040
G01 X18.0009 Y-20.4040
G01 X18.0104 Y-20.4036
G01 X18.0198 Y-20.4027
G01 X18.0291 Y-20.4012
G01 X18.0383 Y-20.3991
G01 X18.0545 Y-20.3940
G01 X18.0633 Y-20.3904
G01 X18.0718 Y-20.3863
G01 X18.0800 Y-20.3816
G01 X18.0894 Y-20.3754
G01 X18.0970 Y-20.3696
G01 X18.1041 Y-20.3635
G01 X18.1122 Y-20.3555
G01 X18.1184 Y-20.3484
G01 X18.1254 Y-20.3394
G01 X18.1306 Y-20.3316
G01 X18.1363 Y-20.3218
G01 X18.1404 Y-20.3133
G01 X18.1447 Y-20.3028
G01 X18.1476 Y-20.2938
G01 X18.1505 Y-20.2828
G01 X18.1522 Y-20.2735
G01 X18.1533 Y-20.2642
G01 X18.1540 Y-20.2528
G01 X18.1540 Y-17.6491
G01 X18.1536 Y-17.6396
G01 X18.1527 Y-17.6302
G01 X18.1512 Y-17.6209
G01 X18.1491 Y-17.6117
G01 X18.1465 Y-17.6026
G01 X18.1433 Y-17.5937
G01 X18.1396 Y-17.5850
G01 X18.1354 Y-17.5766
G01 X18.1296 Y-17.5668
G01 X18.1243 Y-17.5590
G01 X18.1184 Y-17.5516
G01 X18.1122 Y-17.5445
G01 X18.1041 Y-17.5365
G01 X18.0970 Y-17.5304
G01 X18.0879 Y-17.5236
G01 X18.0800 Y-17.5184
G01 X18.0718 Y-17.5137
G01 X18.0633 Y-17.5096
G01 X18.0528 Y-17.5053
G01 X18.0438 Y-17.5024
G01 X18.0347 Y-17.5000
G01 X18.0254 Y-17.4981
G01 X18.0160 Y-17.4968
G01 X18.0047 Y-17.4961
G01 X15.4000 Y-17.4960
G01 X15.3896 Y-17.4964
G01 X15.3783 Y-17.4975
G01 X15.3690 Y-17.4991
G01 X15.3598 Y-17.5013
G01 X15.3490 Y-17.5047
G01 X15.3402 Y-17.5081
G01 X15.3316 Y-17.5120
G01 X15.3216 Y-17.5174
G01 X15.3137 Y-17.5225
G01 X15.3045 Y-17.5292
G01 X15.2973 Y-17.5353
G01 X15.2904 Y-17.5418
G01 X15.2840 Y-17.5487
G01 X15.2769 Y-17.5575
G01 X15.2714 Y-17.5652
G01 X15.2655 Y-17.5749
G01 X15.2612 Y-17.5833
G01 X15.2560 Y-17.5955
G01 X15.2513 Y-17.6098
G01 X15.2481 Y-17.6246
G01 X15.2464 Y-17.6396
G01 X15.2460 Y-17.6500
G01 X15.2460 Y-17.7955
G01 X14.8282 Y-17.7955
G01 X8.9545 Y-11.9218
G01 X8.9545 Y-9.8700
G01 X8.9495 Y-9.7644
G01 X8.9486 Y-9.7540
G01 X8.9321 Y-9.6438
G01 X8.9051 Y-9.5358
G01 X8.8670 Y-9.4291
G01 X8.8216 Y-9.3325
G01 X8.8149 Y-9.3200
G01 X8.7640 Y-9.2350
G01 X8.7556 Y-9.2224
G01 X8.6918 Y-9.1369
G01 X8.6183 Y-9.0557
G01 X6.1693 Y-6.6067
G01 X6.0931 Y-6.5375
G01 X6.0814 Y-6.5279
G01 X5.9956 Y-6.4645
G01 X5.9017 Y-6.4082
G01 X5.8925 Y-6.4034
G01 X5.7959 Y-6.3580
G01 X5.6973 Y-6.3226
G01 X5.6828 Y-6.3182
G01 X5.5812 Y-6.2929
G01 X5.4757 Y-6.2770
G01 X5.4616 Y-6.2756
G01 X5.3597 Y-6.2706
G01 X4.8241 Y-6.2705
G01 X4.7147 Y-6.2758
G01 X4.7043 Y-6.2770
G01 X4.6072 Y-6.2914
G01 X4.5933 Y-6.2941
G01 X4.4908 Y-6.3199
G01 X4.4073 Y-6.3496
G01 X4.3975 Y-6.3432
G01 X4.3775 Y-6.3315
G01 X4.3557 Y-6.3210
G01 X4.3452 Y-6.3167
G01 X4.3223 Y-6.3088
G01 X4.3008 Y-6.3033
G01 X4.2897 Y-6.3010
G01 X4.2657 Y-6.2976
G01 X4.2350 Y-6.2960
G01 X3.9350 Y-6.2960
G01 X3.9127 Y-6.2969
G01 X3.9005 Y-6.2980
